(.../eagle/ulps/pcbgcode/pcb-gcode.ulp)
(Copyright 2005 - 2012 by John Johnson)
(See readme.txt for licensing terms.)
(This file generated from the board:)
(.../projects/Timing-Gate/gate-emitter.brd)
(Current profile is .../pcbgcode/profiles/generic.pp  )
(This file generated 03/02/2020 14:47)
(Settings from pcb-machine.h)
(  Tool Size)
(0.1500 )
(Z Axis Settings)
(  High     Up        Down     Drill)
(15.0000 	2.5000 	-0.1000 	-2.5000 )
(spindle on time = 3.0000)
(milling depth = -0.2540)
(text depth = -0.1270)
(tool change at 0.0000 0.0000 45.0000 )
(feed rate xy = F400.00 )
(feed rate z  = F254.00 )
(Settings from pcb-defaults.h)
(isolate min = 0.0200)
(isolate max = 0.2500)
(isolate step = 0.1200)
(Generated bottom outlines, bottom drill, )
(Unit of measure: mm)
(Metric Mode)
G21
(Absolute Coordinates)
G90
G00 X0.0000 Y0.0000 
M03
G04 P3.000000
G00 Z2.5000 
G00 X-13.2522 Y11.3366 
G01 Z-0.1000 F254.00 
G01 X-13.2522 Y11.5234 F400.00 
G01 X-13.2230 Y11.7080 
G01 X-13.1652 Y11.8857 
G01 X-13.0804 Y12.0522 
G01 X-12.9705 Y12.2034 
G01 X-12.8384 Y12.3355 
G01 X-12.6872 Y12.4454 
G01 X-12.5410 Y12.5199 
G01 X-12.5410 Y16.6901 
G01 X-12.6872 Y16.7646 
G01 X-12.8384 Y16.8745 
G01 X-12.9705 Y17.0066 
G01 X-13.0804 Y17.1578 
G01 X-13.1652 Y17.3243 
G01 X-13.2230 Y17.5020 
G01 X-13.2522 Y17.6866 
G01 X-13.2522 Y17.8734 
G01 X-13.2230 Y18.0580 
G01 X-13.1652 Y18.2357 
G01 X-13.0804 Y18.4022 
G01 X-12.9705 Y18.5534 
G01 X-12.8384 Y18.6855 
G01 X-12.6872 Y18.7954 
G01 X-12.5207 Y18.8802 
G01 X-12.3430 Y18.9380 
G01 X-12.1584 Y18.9672 
G01 X-11.9716 Y18.9672 
G01 X-11.7870 Y18.9380 
G01 X-11.6093 Y18.8802 
G01 X-11.4428 Y18.7954 
G01 X-11.2916 Y18.6855 
G01 X-11.1595 Y18.5534 
G01 X-11.0496 Y18.4022 
G01 X-10.9648 Y18.2357 
G01 X-10.9070 Y18.0580 
G01 X-10.8778 Y17.8734 
G01 X-10.8778 Y17.6866 
G01 X-10.9070 Y17.5020 
G01 X-10.9648 Y17.3243 
G01 X-11.0496 Y17.1578 
G01 X-11.1595 Y17.0066 
G01 X-11.2916 Y16.8745 
G01 X-11.4428 Y16.7646 
G01 X-11.5890 Y16.6901 
G01 X-11.5890 Y12.5199 
G01 X-11.4428 Y12.4454 
G01 X-11.2916 Y12.3355 
G01 X-11.1595 Y12.2034 
G01 X-11.0496 Y12.0522 
G01 X-10.9648 Y11.8857 
G01 X-10.9070 Y11.7080 
G01 X-10.8778 Y11.5234 
G01 X-10.8778 Y11.3366 
G01 X-10.9070 Y11.1520 
G01 X-10.9648 Y10.9743 
G01 X-11.0496 Y10.8078 
G01 X-11.1595 Y10.6566 
G01 X-11.2916 Y10.5245 
G01 X-11.4428 Y10.4146 
G01 X-11.6093 Y10.3298 
G01 X-11.7870 Y10.2720 
G01 X-11.9716 Y10.2428 
G01 X-12.1584 Y10.2428 
G01 X-12.3430 Y10.2720 
G01 X-12.5207 Y10.3298 
G01 X-12.6872 Y10.4146 
G01 X-12.8384 Y10.5245 
G01 X-12.9705 Y10.6566 
G01 X-13.0804 Y10.8078 
G01 X-13.1652 Y10.9743 
G01 X-13.2230 Y11.1520 
G01 X-13.2522 Y11.3366 
G00 Z2.5000 
G00 X-86.2772 Y8.7966 
G01 Z-0.1000 F254.00 
G01 X-86.2772 Y8.9834 F400.00 
G01 X-86.2480 Y9.1680 
G01 X-86.2271 Y9.2322 
G01 X-87.9054 Y10.6594 
G01 X-87.9223 Y10.6691 
G01 X-87.9530 Y10.6998 
G01 X-87.9861 Y10.7280 
G01 X-87.9971 Y10.7440 
G01 X-88.0109 Y10.7577 
G01 X-88.0326 Y10.7954 
G01 X-88.0573 Y10.8311 
G01 X-88.0638 Y10.8494 
G01 X-88.0736 Y10.8663 
G01 X-88.0848 Y10.9082 
G01 X-88.0994 Y10.9492 
G01 X-88.1010 Y10.9686 
G01 X-88.1060 Y10.9873 
G01 X-88.1060 Y11.0308 
G01 X-88.1095 Y11.0741 
G01 X-88.1060 Y11.0932 
G01 X-88.1060 Y43.2427 
G01 X-88.0736 Y43.3637 
G01 X-88.0109 Y43.4723 
G01 X-87.9223 Y43.5609 
G01 X-85.3823 Y46.1009 
G01 X-85.2737 Y46.1636 
G01 X-85.1527 Y46.1960 
G01 X-78.6773 Y46.1960 
G01 X-78.5563 Y46.1636 
G01 X-78.4477 Y46.1009 
G01 X-78.3591 Y46.0123 
G01 X-75.3678 Y43.0210 
G01 X-74.3700 Y43.0210 
G01 X-74.3700 Y43.8139 
G01 X-74.3555 Y43.8488 
G01 X-74.3288 Y43.8755 
G01 X-74.2939 Y43.8900 
G01 X-73.5010 Y43.8900 
G01 X-73.5010 Y45.1477 
G01 X-73.4686 Y45.2687 
G01 X-73.4059 Y45.3773 
G01 X-72.1359 Y46.6473 
G01 X-72.0473 Y46.7359 
G01 X-71.9387 Y46.7986 
G01 X-71.8177 Y46.8310 
G01 X-58.3573 Y46.8310 
G01 X-58.2363 Y46.7986 
G01 X-58.1277 Y46.7359 
G01 X-55.5877 Y44.1959 
G01 X-55.4991 Y44.1073 
G01 X-55.4364 Y43.9987 
G01 X-55.4040 Y43.8777 
G01 X-55.4040 Y12.8972 
G01 X-51.8728 Y9.3660 
G01 X-13.1549 Y9.3660 
G01 X-13.0804 Y9.5122 
G01 X-12.9705 Y9.6634 
G01 X-12.8384 Y9.7955 
G01 X-12.6872 Y9.9054 
G01 X-12.5207 Y9.9902 
G01 X-12.3430 Y10.0480 
G01 X-12.1584 Y10.0772 
G01 X-11.9716 Y10.0772 
G01 X-11.7870 Y10.0480 
G01 X-11.6093 Y9.9902 
G01 X-11.4428 Y9.9054 
G01 X-11.2916 Y9.7955 
G01 X-11.1595 Y9.6634 
G01 X-11.0496 Y9.5122 
G01 X-10.9648 Y9.3457 
G01 X-10.9070 Y9.1680 
G01 X-10.8778 Y8.9834 
G01 X-10.8778 Y8.7966 
G01 X-10.9070 Y8.6120 
G01 X-10.9648 Y8.4343 
G01 X-11.0496 Y8.2678 
G01 X-11.1595 Y8.1166 
G01 X-11.2916 Y7.9845 
G01 X-11.4428 Y7.8746 
G01 X-11.6093 Y7.7898 
G01 X-11.7870 Y7.7320 
G01 X-11.9716 Y7.7028 
G01 X-12.1584 Y7.7028 
G01 X-12.3430 Y7.7320 
G01 X-12.5207 Y7.7898 
G01 X-12.6872 Y7.8746 
G01 X-12.8384 Y7.9845 
G01 X-12.9705 Y8.1166 
G01 X-13.0804 Y8.2678 
G01 X-13.1549 Y8.4140 
G01 X-52.1327 Y8.4140 
G01 X-52.2537 Y8.4464 
G01 X-52.3623 Y8.5091 
G01 X-52.4509 Y8.5977 
G01 X-56.2609 Y12.4077 
G01 X-56.3236 Y12.5163 
G01 X-56.3560 Y12.6373 
G01 X-56.3560 Y43.6178 
G01 X-58.6172 Y45.8790 
G01 X-71.5578 Y45.8790 
G01 X-72.5490 Y44.8878 
G01 X-72.5490 Y43.8900 
G01 X-71.7561 Y43.8900 
G01 X-71.7212 Y43.8755 
G01 X-71.6945 Y43.8488 
G01 X-71.6800 Y43.8139 
G01 X-71.6800 Y41.2761 
G01 X-71.6945 Y41.2412 
G01 X-71.7212 Y41.2145 
G01 X-71.7561 Y41.2000 
G01 X-74.2939 Y41.2000 
G01 X-74.3288 Y41.2145 
G01 X-74.3555 Y41.2412 
G01 X-74.3700 Y41.2761 
G01 X-74.3700 Y42.0690 
G01 X-75.6277 Y42.0690 
G01 X-75.7487 Y42.1014 
G01 X-75.8573 Y42.1641 
G01 X-78.9372 Y45.2440 
G01 X-84.8928 Y45.2440 
G01 X-87.1540 Y42.9828 
G01 X-87.1540 Y11.2701 
G01 X-85.6103 Y9.9573 
G01 X-85.5457 Y9.9902 
G01 X-85.3680 Y10.0480 
G01 X-85.1834 Y10.0772 
G01 X-84.9966 Y10.0772 
G01 X-84.8120 Y10.0480 
G01 X-84.6343 Y9.9902 
G01 X-84.4678 Y9.9054 
G01 X-84.3166 Y9.7955 
G01 X-84.1845 Y9.6634 
G01 X-84.0746 Y9.5122 
G01 X-83.9898 Y9.3457 
G01 X-83.9320 Y9.1680 
G01 X-83.9028 Y8.9834 
G01 X-83.9028 Y8.7966 
G01 X-83.9320 Y8.6120 
G01 X-83.9898 Y8.4343 
G01 X-84.0746 Y8.2678 
G01 X-84.1845 Y8.1166 
G01 X-84.3166 Y7.9845 
G01 X-84.4678 Y7.8746 
G01 X-84.6343 Y7.7898 
G01 X-84.8120 Y7.7320 
G01 X-84.9966 Y7.7028 
G01 X-85.1834 Y7.7028 
G01 X-85.3680 Y7.7320 
G01 X-85.5457 Y7.7898 
G01 X-85.7122 Y7.8746 
G01 X-85.8634 Y7.9845 
G01 X-85.9955 Y8.1166 
G01 X-86.1054 Y8.2678 
G01 X-86.1902 Y8.4343 
G01 X-86.2480 Y8.6120 
G01 X-86.2772 Y8.7966 
G00 Z2.5000 
G00 X-86.2772 Y17.6866 
G01 Z-0.1000 F254.00 
G01 X-86.2772 Y17.8734 F400.00 
G01 X-86.2480 Y18.0580 
G01 X-86.1902 Y18.2357 
G01 X-86.1054 Y18.4022 
G01 X-85.9955 Y18.5534 
G01 X-85.8634 Y18.6855 
G01 X-85.7122 Y18.7954 
G01 X-85.5457 Y18.8802 
G01 X-85.3680 Y18.9380 
G01 X-85.1834 Y18.9672 
G01 X-84.9966 Y18.9672 
G01 X-84.8120 Y18.9380 
G01 X-84.6343 Y18.8802 
G01 X-84.4678 Y18.7954 
G01 X-84.3166 Y18.6855 
G01 X-84.1845 Y18.5534 
G01 X-84.0746 Y18.4022 
G01 X-83.9898 Y18.2357 
G01 X-83.9320 Y18.0580 
G01 X-83.9028 Y17.8734 
G01 X-83.9028 Y17.6866 
G01 X-83.9320 Y17.5020 
G01 X-83.9898 Y17.3243 
G01 X-84.0746 Y17.1578 
G01 X-84.1845 Y17.0066 
G01 X-84.3166 Y16.8745 
G01 X-84.4678 Y16.7646 
G01 X-84.6140 Y16.6901 
G01 X-84.6140 Y12.5199 
G01 X-84.4678 Y12.4454 
G01 X-84.3166 Y12.3355 
G01 X-84.1845 Y12.2034 
G01 X-84.0746 Y12.0522 
G01 X-83.9898 Y11.8857 
G01 X-83.9320 Y11.7080 
G01 X-83.9028 Y11.5234 
G01 X-83.9028 Y11.3366 
G01 X-83.9320 Y11.1520 
G01 X-83.9898 Y10.9743 
G01 X-84.0746 Y10.8078 
G01 X-84.1845 Y10.6566 
G01 X-84.3166 Y10.5245 
G01 X-84.4678 Y10.4146 
G01 X-84.6343 Y10.3298 
G01 X-84.8120 Y10.2720 
G01 X-84.9966 Y10.2428 
G01 X-85.1834 Y10.2428 
G01 X-85.3680 Y10.2720 
G01 X-85.5457 Y10.3298 
G01 X-85.7122 Y10.4146 
G01 X-85.8634 Y10.5245 
G01 X-85.9955 Y10.6566 
G01 X-86.1054 Y10.8078 
G01 X-86.1902 Y10.9743 
G01 X-86.2480 Y11.1520 
G01 X-86.2772 Y11.3366 
G01 X-86.2772 Y11.5234 
G01 X-86.2480 Y11.7080 
G01 X-86.1902 Y11.8857 
G01 X-86.1054 Y12.0522 
G01 X-85.9955 Y12.2034 
G01 X-85.8634 Y12.3355 
G01 X-85.7122 Y12.4454 
G01 X-85.5660 Y12.5199 
G01 X-85.5660 Y16.6901 
G01 X-85.7122 Y16.7646 
G01 X-85.8634 Y16.8745 
G01 X-85.9955 Y17.0066 
G01 X-86.1054 Y17.1578 
G01 X-86.1902 Y17.3243 
G01 X-86.2480 Y17.5020 
G01 X-86.2772 Y17.6866 
G00 Z2.5000 
G00 X-78.6572 Y6.8916 
G01 Z-0.1000 F254.00 
G01 X-78.6572 Y7.0784 F400.00 
G01 X-78.6280 Y7.2630 
G01 X-78.5702 Y7.4407 
G01 X-78.4854 Y7.6072 
G01 X-78.3755 Y7.7584 
G01 X-78.2434 Y7.8905 
G01 X-78.0922 Y8.0004 
G01 X-77.9460 Y8.0749 
G01 X-77.9460 Y15.0428 
G01 X-85.3823 Y22.4791 
G01 X-85.4709 Y22.5677 
G01 X-85.5336 Y22.6763 
G01 X-85.5660 Y22.7973 
G01 X-85.5660 Y26.8501 
G01 X-85.7122 Y26.9246 
G01 X-85.8634 Y27.0345 
G01 X-85.9955 Y27.1666 
G01 X-86.1054 Y27.3178 
G01 X-86.1902 Y27.4843 
G01 X-86.2480 Y27.6620 
G01 X-86.2772 Y27.8466 
G01 X-86.2772 Y28.0334 
G01 X-86.2480 Y28.2180 
G01 X-86.1902 Y28.3957 
G01 X-86.1054 Y28.5622 
G01 X-85.9955 Y28.7134 
G01 X-85.8634 Y28.8455 
G01 X-85.7122 Y28.9554 
G01 X-85.5457 Y29.0402 
G01 X-85.3680 Y29.0980 
G01 X-85.1834 Y29.1272 
G01 X-84.9966 Y29.1272 
G01 X-84.8120 Y29.0980 
G01 X-84.6343 Y29.0402 
G01 X-84.4678 Y28.9554 
G01 X-84.3166 Y28.8455 
G01 X-84.1845 Y28.7134 
G01 X-84.0746 Y28.5622 
G01 X-83.9898 Y28.3957 
G01 X-83.9320 Y28.2180 
G01 X-83.9028 Y28.0334 
G01 X-83.9028 Y27.8466 
G01 X-83.9320 Y27.6620 
G01 X-83.9898 Y27.4843 
G01 X-84.0746 Y27.3178 
G01 X-84.1845 Y27.1666 
G01 X-84.3166 Y27.0345 
G01 X-84.4678 Y26.9246 
G01 X-84.6140 Y26.8501 
G01 X-84.6140 Y23.0572 
G01 X-77.0891 Y15.5323 
G01 X-77.0264 Y15.4237 
G01 X-76.9940 Y15.3027 
G01 X-76.9940 Y8.0749 
G01 X-76.8478 Y8.0004 
G01 X-76.6966 Y7.8905 
G01 X-76.5645 Y7.7584 
G01 X-76.4546 Y7.6072 
G01 X-76.3698 Y7.4407 
G01 X-76.3120 Y7.2630 
G01 X-76.2828 Y7.0784 
G01 X-76.2828 Y6.8916 
G01 X-76.3120 Y6.7070 
G01 X-76.3698 Y6.5293 
G01 X-76.4546 Y6.3628 
G01 X-76.5645 Y6.2116 
G01 X-76.6966 Y6.0795 
G01 X-76.8478 Y5.9696 
G01 X-76.9940 Y5.8951 
G01 X-76.9940 Y5.5349 
G01 X-76.8478 Y5.4604 
G01 X-76.6966 Y5.3505 
G01 X-76.5645 Y5.2184 
G01 X-76.4546 Y5.0672 
G01 X-76.3698 Y4.9007 
G01 X-76.3120 Y4.7230 
G01 X-76.2828 Y4.5384 
G01 X-76.2828 Y4.3516 
G01 X-76.3120 Y4.1670 
G01 X-76.3698 Y3.9893 
G01 X-76.4546 Y3.8228 
G01 X-76.5645 Y3.6716 
G01 X-76.6966 Y3.5395 
G01 X-76.8478 Y3.4296 
G01 X-76.9940 Y3.3551 
G01 X-76.9940 Y2.7372 
G01 X-76.6378 Y2.3810 
G01 X-12.2622 Y2.3810 
G01 X-10.0010 Y4.6422 
G01 X-10.0010 Y25.2028 
G01 X-11.6309 Y26.8328 
G01 X-11.7870 Y26.7820 
G01 X-11.9716 Y26.7528 
G01 X-12.1584 Y26.7528 
G01 X-12.3430 Y26.7820 
G01 X-12.5207 Y26.8398 
G01 X-12.6872 Y26.9246 
G01 X-12.8384 Y27.0345 
G01 X-12.9705 Y27.1666 
G01 X-13.0804 Y27.3178 
G01 X-13.1652 Y27.4843 
G01 X-13.2230 Y27.6620 
G01 X-13.2522 Y27.8466 
G01 X-13.2522 Y28.0334 
G01 X-13.2230 Y28.2180 
G01 X-13.1652 Y28.3957 
G01 X-13.0804 Y28.5622 
G01 X-12.9705 Y28.7134 
G01 X-12.8384 Y28.8455 
G01 X-12.6872 Y28.9554 
G01 X-12.5207 Y29.0402 
G01 X-12.3430 Y29.0980 
G01 X-12.1584 Y29.1272 
G01 X-11.9716 Y29.1272 
G01 X-11.7870 Y29.0980 
G01 X-11.6093 Y29.0402 
G01 X-11.4428 Y28.9554 
G01 X-11.2916 Y28.8455 
G01 X-11.1595 Y28.7134 
G01 X-11.0496 Y28.5622 
G01 X-10.9648 Y28.3957 
G01 X-10.9070 Y28.2180 
G01 X-10.8778 Y28.0334 
G01 X-10.8778 Y27.8466 
G01 X-10.9070 Y27.6620 
G01 X-10.9578 Y27.5059 
G01 X-9.2327 Y25.7809 
G01 X-9.1441 Y25.6923 
G01 X-9.0814 Y25.5837 
G01 X-9.0490 Y25.4627 
G01 X-9.0490 Y4.3823 
G01 X-9.0814 Y4.2613 
G01 X-9.1441 Y4.1527 
G01 X-11.6841 Y1.6127 
G01 X-11.7727 Y1.5241 
G01 X-11.8813 Y1.4614 
G01 X-12.0023 Y1.4290 
G01 X-76.8977 Y1.4290 
G01 X-77.0187 Y1.4614 
G01 X-77.1273 Y1.5241 
G01 X-77.8509 Y2.2477 
G01 X-77.9136 Y2.3563 
G01 X-77.9460 Y2.4773 
G01 X-77.9460 Y3.3551 
G01 X-78.0922 Y3.4296 
G01 X-78.2434 Y3.5395 
G01 X-78.3755 Y3.6716 
G01 X-78.4854 Y3.8228 
G01 X-78.5702 Y3.9893 
G01 X-78.6280 Y4.1670 
G01 X-78.6572 Y4.3516 
G01 X-78.6572 Y4.5384 
G01 X-78.6280 Y4.7230 
G01 X-78.5702 Y4.9007 
G01 X-78.4854 Y5.0672 
G01 X-78.3755 Y5.2184 
G01 X-78.2434 Y5.3505 
G01 X-78.0922 Y5.4604 
G01 X-77.9460 Y5.5349 
G01 X-77.9460 Y5.8951 
G01 X-78.0922 Y5.9696 
G01 X-78.2434 Y6.0795 
G01 X-78.3755 Y6.2116 
G01 X-78.4854 Y6.3628 
G01 X-78.5702 Y6.5293 
G01 X-78.6280 Y6.7070 
G01 X-78.6572 Y6.8916 
G00 Z2.5000 
G00 X-76.1172 Y6.8916 
G01 Z-0.1000 F254.00 
G01 X-76.1172 Y7.0784 F400.00 
G01 X-76.0880 Y7.2630 
G01 X-76.0302 Y7.4407 
G01 X-75.9454 Y7.6072 
G01 X-75.8355 Y7.7584 
G01 X-75.7034 Y7.8905 
G01 X-75.5522 Y8.0004 
G01 X-75.4060 Y8.0749 
G01 X-75.4060 Y15.6778 
G01 X-77.1273 Y17.3991 
G01 X-77.2159 Y17.4877 
G01 X-77.2786 Y17.5963 
G01 X-77.3110 Y17.7173 
G01 X-77.3110 Y22.2877 
G01 X-77.2786 Y22.4087 
G01 X-77.2159 Y22.5173 
G01 X-59.5310 Y40.2022 
G01 X-59.5310 Y41.2000 
G01 X-60.3239 Y41.2000 
G01 X-60.3588 Y41.2145 
G01 X-60.3855 Y41.2412 
G01 X-60.4000 Y41.2761 
G01 X-60.4000 Y43.8139 
G01 X-60.3855 Y43.8488 
G01 X-60.3588 Y43.8755 
G01 X-60.3239 Y43.8900 
G01 X-57.7861 Y43.8900 
G01 X-57.7512 Y43.8755 
G01 X-57.7245 Y43.8488 
G01 X-57.7100 Y43.8139 
G01 X-57.7100 Y41.2761 
G01 X-57.7245 Y41.2412 
G01 X-57.7512 Y41.2145 
G01 X-57.7861 Y41.2000 
G01 X-58.5790 Y41.2000 
G01 X-58.5790 Y39.9423 
G01 X-58.6114 Y39.8213 
G01 X-58.6741 Y39.7127 
G01 X-58.7627 Y39.6241 
G01 X-76.3590 Y22.0278 
G01 X-76.3590 Y17.9772 
G01 X-74.5491 Y16.1673 
G01 X-74.4864 Y16.0587 
G01 X-74.4540 Y15.9377 
G01 X-74.4540 Y8.0749 
G01 X-74.3078 Y8.0004 
G01 X-74.1566 Y7.8905 
G01 X-74.0245 Y7.7584 
G01 X-73.9146 Y7.6072 
G01 X-73.8298 Y7.4407 
G01 X-73.7720 Y7.2630 
G01 X-73.7428 Y7.0784 
G01 X-73.7428 Y6.8916 
G01 X-73.7720 Y6.7070 
G01 X-73.8298 Y6.5293 
G01 X-73.9146 Y6.3628 
G01 X-74.0245 Y6.2116 
G01 X-74.1566 Y6.0795 
G01 X-74.3078 Y5.9696 
G01 X-74.4540 Y5.8951 
G01 X-74.4540 Y5.5349 
G01 X-74.3078 Y5.4604 
G01 X-74.1566 Y5.3505 
G01 X-74.0245 Y5.2184 
G01 X-73.9146 Y5.0672 
G01 X-73.8298 Y4.9007 
G01 X-73.7720 Y4.7230 
G01 X-73.7428 Y4.5384 
G01 X-73.7428 Y4.3516 
G01 X-73.7720 Y4.1670 
G01 X-73.8298 Y3.9893 
G01 X-73.9146 Y3.8228 
G01 X-74.0245 Y3.6716 
G01 X-74.1566 Y3.5395 
G01 X-74.3078 Y3.4296 
G01 X-74.4743 Y3.3448 
G01 X-74.6520 Y3.2870 
G01 X-74.8366 Y3.2578 
G01 X-75.0234 Y3.2578 
G01 X-75.2080 Y3.2870 
G01 X-75.3857 Y3.3448 
G01 X-75.5522 Y3.4296 
G01 X-75.7034 Y3.5395 
G01 X-75.8355 Y3.6716 
G01 X-75.9454 Y3.8228 
G01 X-76.0302 Y3.9893 
G01 X-76.0880 Y4.1670 
G01 X-76.1172 Y4.3516 
G01 X-76.1172 Y4.5384 
G01 X-76.0880 Y4.7230 
G01 X-76.0302 Y4.9007 
G01 X-75.9454 Y5.0672 
G01 X-75.8355 Y5.2184 
G01 X-75.7034 Y5.3505 
G01 X-75.5522 Y5.4604 
G01 X-75.4060 Y5.5349 
G01 X-75.4060 Y5.8951 
G01 X-75.5522 Y5.9696 
G01 X-75.7034 Y6.0795 
G01 X-75.8355 Y6.2116 
G01 X-75.9454 Y6.3628 
G01 X-76.0302 Y6.5293 
G01 X-76.0880 Y6.7070 
G01 X-76.1172 Y6.8916 
G00 Z2.5000 
G00 X-73.5772 Y6.8916 
G01 Z-0.1000 F254.00 
G01 X-73.5772 Y7.0784 F400.00 
G01 X-73.5480 Y7.2630 
G01 X-73.4902 Y7.4407 
G01 X-73.4054 Y7.6072 
G01 X-73.2955 Y7.7584 
G01 X-73.1634 Y7.8905 
G01 X-73.0122 Y8.0004 
G01 X-72.8457 Y8.0852 
G01 X-72.6680 Y8.1430 
G01 X-72.4834 Y8.1722 
G01 X-72.2966 Y8.1722 
G01 X-72.1120 Y8.1430 
G01 X-71.9343 Y8.0852 
G01 X-71.7678 Y8.0004 
G01 X-71.6166 Y7.8905 
G01 X-71.4845 Y7.7584 
G01 X-71.3746 Y7.6072 
G01 X-71.2898 Y7.4407 
G01 X-71.2320 Y7.2630 
G01 X-71.2028 Y7.0784 
G01 X-71.2028 Y6.8916 
G01 X-71.2320 Y6.7070 
G01 X-71.2898 Y6.5293 
G01 X-71.3746 Y6.3628 
G01 X-71.4845 Y6.2116 
G01 X-71.6166 Y6.0795 
G01 X-71.7678 Y5.9696 
G01 X-71.9343 Y5.8848 
G01 X-72.1120 Y5.8270 
G01 X-72.2966 Y5.7978 
G01 X-72.4834 Y5.7978 
G01 X-72.6680 Y5.8270 
G01 X-72.8457 Y5.8848 
G01 X-73.0122 Y5.9696 
G01 X-73.1634 Y6.0795 
G01 X-73.2955 Y6.2116 
G01 X-73.4054 Y6.3628 
G01 X-73.4902 Y6.5293 
G01 X-73.5480 Y6.7070 
G01 X-73.5772 Y6.8916 
G00 Z2.5000 
G00 X-71.1189 Y43.8900 
G01 Z-0.1000 F254.00 
G01 X-68.5811 Y43.8900 F400.00 
G01 X-68.5462 Y43.8755 
G01 X-68.5195 Y43.8488 
G01 X-68.5050 Y43.8139 
G01 X-68.5050 Y41.2761 
G01 X-68.5195 Y41.2412 
G01 X-68.5462 Y41.2145 
G01 X-68.5811 Y41.2000 
G01 X-69.3740 Y41.2000 
G01 X-69.3740 Y38.6723 
G01 X-69.4064 Y38.5513 
G01 X-69.4691 Y38.4427 
G01 X-69.5577 Y38.3541 
G01 X-71.4627 Y36.4491 
G01 X-71.5713 Y36.3864 
G01 X-71.6923 Y36.3540 
G01 X-77.6501 Y36.3540 
G01 X-77.7246 Y36.2078 
G01 X-77.8345 Y36.0566 
G01 X-77.9666 Y35.9245 
G01 X-78.1178 Y35.8146 
G01 X-78.2843 Y35.7298 
G01 X-78.4620 Y35.6720 
G01 X-78.6466 Y35.6428 
G01 X-78.8334 Y35.6428 
G01 X-79.0180 Y35.6720 
G01 X-79.1957 Y35.7298 
G01 X-79.3622 Y35.8146 
G01 X-79.5134 Y35.9245 
G01 X-79.6455 Y36.0566 
G01 X-79.7554 Y36.2078 
G01 X-79.8402 Y36.3743 
G01 X-79.8980 Y36.5520 
G01 X-79.9272 Y36.7366 
G01 X-79.9272 Y36.9234 
G01 X-79.8980 Y37.1080 
G01 X-79.8402 Y37.2857 
G01 X-79.7554 Y37.4522 
G01 X-79.6455 Y37.6034 
G01 X-79.5134 Y37.7355 
G01 X-79.3622 Y37.8454 
G01 X-79.1957 Y37.9302 
G01 X-79.0180 Y37.9880 
G01 X-78.8334 Y38.0172 
G01 X-78.6466 Y38.0172 
G01 X-78.4620 Y37.9880 
G01 X-78.2843 Y37.9302 
G01 X-78.1178 Y37.8454 
G01 X-77.9666 Y37.7355 
G01 X-77.8345 Y37.6034 
G01 X-77.7246 Y37.4522 
G01 X-77.6501 Y37.3060 
G01 X-71.9522 Y37.3060 
G01 X-70.3260 Y38.9322 
G01 X-70.3260 Y41.2000 
G01 X-71.1189 Y41.2000 
G01 X-71.1538 Y41.2145 
G01 X-71.1805 Y41.2412 
G01 X-71.1950 Y41.2761 
G01 X-71.1950 Y43.8139 
G01 X-71.1805 Y43.8488 
G01 X-71.1538 Y43.8755 
G01 X-71.1189 Y43.8900 
G00 Z2.5000 
G00 X-74.2939 Y21.0300 
G01 Z-0.1000 F254.00 
G01 X-71.7561 Y21.0300 F400.00 
G01 X-71.7212 Y21.0155 
G01 X-71.6945 Y20.9888 
G01 X-71.6800 Y20.9539 
G01 X-71.6800 Y19.0132 
G01 X-70.9228 Y18.2560 
G01 X-65.9773 Y18.2560 
G01 X-65.8563 Y18.2236 
G01 X-65.7477 Y18.1609 
G01 X-65.6591 Y18.0723 
G01 X-64.3891 Y16.8023 
G01 X-64.3264 Y16.6937 
G01 X-64.2940 Y16.5727 
G01 X-64.2940 Y11.9822 
G01 X-63.6589 Y11.9822 
G01 X-63.6240 Y11.9677 
G01 X-63.5973 Y11.9410 
G01 X-63.5828 Y11.9061 
G01 X-63.5828 Y9.6839 
G01 X-63.5973 Y9.6490 
G01 X-63.6240 Y9.6223 
G01 X-63.6589 Y9.6078 
G01 X-64.2940 Y9.6078 
G01 X-64.2940 Y9.0872 
G01 X-63.3028 Y8.0960 
G01 X-61.1572 Y8.0960 
G01 X-60.1660 Y9.0872 
G01 X-60.1660 Y9.7051 
G01 X-60.3122 Y9.7796 
G01 X-60.4634 Y9.8895 
G01 X-60.5955 Y10.0216 
G01 X-60.7054 Y10.1728 
G01 X-60.7902 Y10.3393 
G01 X-60.8480 Y10.5170 
G01 X-60.8772 Y10.7016 
G01 X-60.8772 Y10.8884 
G01 X-60.8480 Y11.0730 
G01 X-60.7902 Y11.2507 
G01 X-60.7054 Y11.4172 
G01 X-60.5955 Y11.5684 
G01 X-60.4634 Y11.7005 
G01 X-60.3122 Y11.8104 
G01 X-60.1457 Y11.8952 
G01 X-59.9680 Y11.9530 
G01 X-59.7834 Y11.9822 
G01 X-59.5966 Y11.9822 
G01 X-59.4120 Y11.9530 
G01 X-59.2343 Y11.8952 
G01 X-59.0678 Y11.8104 
G01 X-58.9166 Y11.7005 
G01 X-58.7845 Y11.5684 
G01 X-58.6746 Y11.4172 
G01 X-58.5898 Y11.2507 
G01 X-58.5320 Y11.0730 
G01 X-58.5028 Y10.8884 
G01 X-58.5028 Y10.7016 
G01 X-58.5320 Y10.5170 
G01 X-58.5898 Y10.3393 
G01 X-58.6746 Y10.1728 
G01 X-58.7845 Y10.0216 
G01 X-58.9166 Y9.8895 
G01 X-59.0678 Y9.7796 
G01 X-59.2140 Y9.7051 
G01 X-59.2140 Y8.8273 
G01 X-59.2464 Y8.7063 
G01 X-59.3091 Y8.5977 
G01 X-59.3977 Y8.5091 
G01 X-60.6677 Y7.2391 
G01 X-60.7763 Y7.1764 
G01 X-60.8973 Y7.1440 
G01 X-63.5627 Y7.1440 
G01 X-63.6837 Y7.1764 
G01 X-63.7923 Y7.2391 
G01 X-63.8809 Y7.3277 
G01 X-65.1509 Y8.5977 
G01 X-65.2136 Y8.7063 
G01 X-65.2460 Y8.8273 
G01 X-65.2460 Y9.6078 
G01 X-65.8811 Y9.6078 
G01 X-65.9160 Y9.6223 
G01 X-65.9427 Y9.6490 
G01 X-65.9572 Y9.6839 
G01 X-65.9572 Y11.9061 
G01 X-65.9427 Y11.9410 
G01 X-65.9160 Y11.9677 
G01 X-65.8811 Y11.9822 
G01 X-65.2460 Y11.9822 
G01 X-65.2460 Y16.3128 
G01 X-66.2372 Y17.3040 
G01 X-71.1827 Y17.3040 
G01 X-71.3037 Y17.3364 
G01 X-71.4123 Y17.3991 
G01 X-71.5009 Y17.4877 
G01 X-72.3532 Y18.3400 
G01 X-74.2939 Y18.3400 
G01 X-74.3288 Y18.3545 
G01 X-74.3555 Y18.3812 
G01 X-74.3700 Y18.4161 
G01 X-74.3700 Y20.9539 
G01 X-74.3555 Y20.9888 
G01 X-74.3288 Y21.0155 
G01 X-74.2939 Y21.0300 
G00 Z2.5000 
G00 X-82.3911 Y35.6428 
G01 Z-0.1000 F254.00 
G01 X-82.4260 Y35.6573 F400.00 
G01 X-82.4527 Y35.6840 
G01 X-82.4672 Y35.7189 
G01 X-82.4672 Y37.9411 
G01 X-82.4527 Y37.9760 
G01 X-82.4260 Y38.0027 
G01 X-82.3911 Y38.0172 
G01 X-80.1689 Y38.0172 
G01 X-80.1340 Y38.0027 
G01 X-80.1073 Y37.9760 
G01 X-80.0928 Y37.9411 
G01 X-80.0928 Y36.3160 
G01 X-77.2728 Y33.4960 
G01 X-71.9522 Y33.4960 
G01 X-63.5750 Y41.8732 
G01 X-63.5750 Y43.8139 
G01 X-63.5605 Y43.8488 
G01 X-63.5338 Y43.8755 
G01 X-63.4989 Y43.8900 
G01 X-60.9611 Y43.8900 
G01 X-60.9262 Y43.8755 
G01 X-60.8995 Y43.8488 
G01 X-60.8850 Y43.8139 
G01 X-60.8850 Y41.2761 
G01 X-60.8995 Y41.2412 
G01 X-60.9262 Y41.2145 
G01 X-60.9611 Y41.2000 
G01 X-62.9018 Y41.2000 
G01 X-71.3741 Y32.7277 
G01 X-71.4627 Y32.6391 
G01 X-71.5713 Y32.5764 
G01 X-71.6923 Y32.5440 
G01 X-77.5327 Y32.5440 
G01 X-77.6537 Y32.5764 
G01 X-77.7623 Y32.6391 
G01 X-77.8509 Y32.7277 
G01 X-80.7660 Y35.6428 
G01 X-82.3911 Y35.6428 
G00 Z2.5000 
G00 X-63.4172 Y10.7016 
G01 Z-0.1000 F254.00 
G01 X-63.4172 Y10.8884 F400.00 
G01 X-63.3880 Y11.0730 
G01 X-63.3302 Y11.2507 
G01 X-63.2454 Y11.4172 
G01 X-63.1355 Y11.5684 
G01 X-63.0034 Y11.7005 
G01 X-62.8522 Y11.8104 
G01 X-62.7060 Y11.8849 
G01 X-62.7060 Y16.5727 
G01 X-62.6736 Y16.6937 
G01 X-62.6109 Y16.8023 
G01 X-62.5223 Y16.8909 
G01 X-60.4000 Y19.0132 
G01 X-60.4000 Y20.9539 
G01 X-60.3855 Y20.9888 
G01 X-60.3588 Y21.0155 
G01 X-60.3239 Y21.0300 
G01 X-57.7861 Y21.0300 
G01 X-57.7512 Y21.0155 
G01 X-57.7245 Y20.9888 
G01 X-57.7100 Y20.9539 
G01 X-57.7100 Y18.4161 
G01 X-57.7245 Y18.3812 
G01 X-57.7512 Y18.3545 
G01 X-57.7861 Y18.3400 
G01 X-59.7268 Y18.3400 
G01 X-61.7540 Y16.3128 
G01 X-61.7540 Y11.8849 
G01 X-61.6078 Y11.8104 
G01 X-61.4566 Y11.7005 
G01 X-61.3245 Y11.5684 
G01 X-61.2146 Y11.4172 
G01 X-61.1298 Y11.2507 
G01 X-61.0720 Y11.0730 
G01 X-61.0428 Y10.8884 
G01 X-61.0428 Y10.7016 
G01 X-61.0720 Y10.5170 
G01 X-61.1298 Y10.3393 
G01 X-61.2146 Y10.1728 
G01 X-61.3245 Y10.0216 
G01 X-61.4566 Y9.8895 
G01 X-61.6078 Y9.7796 
G01 X-61.7743 Y9.6948 
G01 X-61.9520 Y9.6370 
G01 X-62.1366 Y9.6078 
G01 X-62.3234 Y9.6078 
G01 X-62.5080 Y9.6370 
G01 X-62.6857 Y9.6948 
G01 X-62.8522 Y9.7796 
G01 X-63.0034 Y9.8895 
G01 X-63.1355 Y10.0216 
G01 X-63.2454 Y10.1728 
G01 X-63.3302 Y10.3393 
G01 X-63.3880 Y10.5170 
G01 X-63.4172 Y10.7016 
G00 Z2.5000 
G00 X-73.5772 Y4.3516 
G01 Z-0.1000 F254.00 
G01 X-73.5772 Y4.5384 F400.00 
G01 X-73.5480 Y4.7230 
G01 X-73.4902 Y4.9007 
G01 X-73.4054 Y5.0672 
G01 X-73.2955 Y5.2184 
G01 X-73.1634 Y5.3505 
G01 X-73.0122 Y5.4604 
G01 X-72.8457 Y5.5452 
G01 X-72.6680 Y5.6030 
G01 X-72.4834 Y5.6322 
G01 X-72.2966 Y5.6322 
G01 X-72.1120 Y5.6030 
G01 X-71.9343 Y5.5452 
G01 X-71.7678 Y5.4604 
G01 X-71.6166 Y5.3505 
G01 X-71.4845 Y5.2184 
G01 X-71.3746 Y5.0672 
G01 X-71.2898 Y4.9007 
G01 X-71.2320 Y4.7230 
G01 X-71.2028 Y4.5384 
G01 X-71.2028 Y4.3516 
G01 X-71.2320 Y4.1670 
G01 X-71.2898 Y3.9893 
G01 X-71.3746 Y3.8228 
G01 X-71.4845 Y3.6716 
G01 X-71.6166 Y3.5395 
G01 X-71.7678 Y3.4296 
G01 X-71.9343 Y3.3448 
G01 X-72.1120 Y3.2870 
G01 X-72.2966 Y3.2578 
G01 X-72.4834 Y3.2578 
G01 X-72.6680 Y3.2870 
G01 X-72.8457 Y3.3448 
G01 X-73.0122 Y3.4296 
G01 X-73.1634 Y3.5395 
G01 X-73.2955 Y3.6716 
G01 X-73.4054 Y3.8228 
G01 X-73.4902 Y3.9893 
G01 X-73.5480 Y4.1670 
G01 X-73.5772 Y4.3516 
G00 Z2.5000 
G00 Z15.0000 
M05
M02
