(.../eagle/ulps/pcbgcode/pcb-gcode.ulp)
(Copyright 2005 - 2012 by John Johnson)
(See readme.txt for licensing terms.)
(This file generated from the board:)
(.../projects/Timing-Gate/gate-emitter.brd)
(Current profile is .../pcbgcode/profiles/generic.pp  )
(This file generated 03/02/2020 14:47)
(Settings from pcb-machine.h)
(  Tool Size)
(0.1500 )
(Z Axis Settings)
(  High     Up        Down     Drill)
(15.0000 	2.5000 	-0.1000 	-2.5000 )
(spindle on time = 3.0000)
(milling depth = -0.2540)
(text depth = -0.1270)
(tool change at 0.0000 0.0000 45.0000 )
(feed rate xy = F400.00 )
(feed rate z  = F254.00 )
(Settings from pcb-defaults.h)
(isolate min = 0.0200)
(isolate max = 0.2500)
(isolate step = 0.1200)
(Generated bottom outlines, bottom drill, )
(Unit of measure: mm)
( Tool|       Size       |  Min Sub |  Max Sub |   Count )
( T01  1.000mm 0.0394in 0.0000in 0.0000in )
(Metric Mode)
G21
(Absolute Coordinates)
G90
M05
G00 Z45.0000 
G00 X0.0000 Y0.0000 
M06 T01  ; 1.0000 
G01 Z0.0000 F254.00 
M06 T01  ; 1.0000 
G00 Z2.5000 
M03
G04 P3.000000
G00 Z2.500000
G00 X-59.0550 Y42.5450 
G01 Z-2.5000 F254.00 
G01 Z2.500000
(R2.5000  P1.000000)
(G00 Z2.500000)
G00 X-59.0550 Y19.6850 
G01 Z-2.500000
G01 Z2.500000
(G00 Z2.500000)
G00 X-59.6900 Y10.7950 
G01 Z-2.500000
G01 Z2.500000
(G00 Z2.500000)
G00 X-62.2300 Y42.5450 
G01 Z-2.500000
G01 Z2.500000
(G00 Z2.500000)
G00 X-62.2300 Y10.7950 
G01 Z-2.500000
G01 Z2.500000
(G00 Z2.500000)
G00 X-64.7700 Y10.7950 
G01 Z-2.500000
G01 Z2.500000
(G00 Z2.500000)
G00 X-69.8500 Y42.5450 
G01 Z-2.500000
G01 Z2.500000
(G00 Z2.500000)
G00 X-72.3900 Y4.4450 
G01 Z-2.500000
G01 Z2.500000
(G00 Z2.500000)
G00 X-72.3900 Y6.9850 
G01 Z-2.500000
G01 Z2.500000
(G00 Z2.500000)
G00 X-73.0250 Y42.5450 
G01 Z-2.500000
G01 Z2.500000
(G00 Z2.500000)
G00 X-73.0250 Y19.6850 
G01 Z-2.500000
G01 Z2.500000
(G00 Z2.500000)
G00 X-74.9300 Y4.4450 
G01 Z-2.500000
G01 Z2.500000
(G00 Z2.500000)
G00 X-74.9300 Y6.9850 
G01 Z-2.500000
G01 Z2.500000
(G00 Z2.500000)
G00 X-77.4700 Y4.4450 
G01 Z-2.500000
G01 Z2.500000
(G00 Z2.500000)
G00 X-77.4700 Y6.9850 
G01 Z-2.500000
G01 Z2.500000
(G00 Z2.500000)
G00 X-78.7400 Y36.8300 
G01 Z-2.500000
G01 Z2.500000
(G00 Z2.500000)
G00 X-81.2800 Y36.8300 
G01 Z-2.500000
G01 Z2.500000
(G00 Z2.500000)
G00 X-85.0900 Y8.8900 
G01 Z-2.500000
G01 Z2.500000
(G00 Z2.500000)
G00 X-85.0900 Y11.4300 
G01 Z-2.500000
G01 Z2.500000
(G00 Z2.500000)
G00 X-85.0900 Y17.7800 
G01 Z-2.500000
G01 Z2.500000
(G00 Z2.500000)
G00 X-85.0900 Y27.9400 
G01 Z-2.500000
G01 Z2.500000
(G00 Z2.500000)
G00 X-12.0650 Y8.8900 
G01 Z-2.500000
G01 Z2.500000
(G00 Z2.500000)
G00 X-12.0650 Y11.4300 
G01 Z-2.500000
G01 Z2.500000
(G00 Z2.500000)
G00 X-12.0650 Y17.7800 
G01 Z-2.500000
G01 Z2.500000
(G00 Z2.500000)
G00 X-12.0650 Y27.9400 
G01 Z-2.500000
G01 Z2.500000
T01 
G00 Z15.0000 
M05
M02
