(.../eagle/ulps/pcbgcode/pcb-gcode.ulp)
(Copyright 2005 - 2012 by John Johnson)
(See readme.txt for licensing terms.)
(This file generated from the board:)
(.../projects/Timing-Gate/4-way-charger.brd)
(Current profile is .../pcbgcode/profiles/generic.pp  )
(This file generated 04/02/2020 12:11)
(Settings from pcb-machine.h)
(  Tool Size)
(0.1500 )
(Z Axis Settings)
(  High     Up        Down     Drill)
(15.0000 	2.5000 	-0.1000 	-2.5000 )
(spindle on time = 3.0000)
(milling depth = -0.2540)
(text depth = -0.1270)
(tool change at 0.0000 0.0000 45.0000 )
(feed rate xy = F400.00 )
(feed rate z  = F254.00 )
(Settings from pcb-defaults.h)
(isolate min = 0.0200)
(isolate max = 0.2500)
(isolate step = 0.1200)
(Generated bottom outlines, bottom drill, )
(Unit of measure: mm)
( Tool|       Size       |  Min Sub |  Max Sub |   Count )
( T01  1.000mm 0.0394in 0.0000in 0.0000in )
(Metric Mode)
G21
(Absolute Coordinates)
G90
M05
G00 Z45.0000 
G00 X0.0000 Y0.0000 
M06 T01  ; 1.0000 
G01 Z0.0000 F254.00 
M06 T01  ; 1.0000 
G00 Z2.5000 
M03
G04 P3.000000
G00 Z2.500000
G00 X-33.0000 Y34.0000 
G01 Z-2.5000 F254.00 
G01 Z2.500000
(R2.5000  P1.000000)
(G00 Z2.500000)
G00 X-35.5400 Y34.0000 
G01 Z-2.500000
G01 Z2.500000
(G00 Z2.500000)
G00 X-37.8100 Y29.7950 
G01 Z-2.500000
G01 Z2.500000
(G00 Z2.500000)
G00 X-40.9850 Y6.9350 
G01 Z-2.500000
G01 Z2.500000
(G00 Z2.500000)
G00 X-40.9850 Y29.7950 
G01 Z-2.500000
G01 Z2.500000
(G00 Z2.500000)
G00 X-4.5400 Y17.0000 
G01 Z-2.500000
G01 Z2.500000
(G00 Z2.500000)
G00 X-46.0150 Y6.9350 
G01 Z-2.500000
G01 Z2.500000
(G00 Z2.500000)
G00 X-46.0150 Y29.7950 
G01 Z-2.500000
G01 Z2.500000
(G00 Z2.500000)
G00 X-49.1900 Y29.7950 
G01 Z-2.500000
G01 Z2.500000
(G00 Z2.500000)
G00 X-52.0000 Y34.0000 
G01 Z-2.500000
G01 Z2.500000
(G00 Z2.500000)
G00 X-54.5400 Y34.0000 
G01 Z-2.500000
G01 Z2.500000
(G00 Z2.500000)
G00 X-56.8100 Y29.7950 
G01 Z-2.500000
G01 Z2.500000
(G00 Z2.500000)
G00 X-59.9850 Y6.9350 
G01 Z-2.500000
G01 Z2.500000
(G00 Z2.500000)
G00 X-59.9850 Y29.7950 
G01 Z-2.500000
G01 Z2.500000
(G00 Z2.500000)
G00 X-65.0150 Y6.9350 
G01 Z-2.500000
G01 Z2.500000
(G00 Z2.500000)
G00 X-65.0150 Y29.7950 
G01 Z-2.500000
G01 Z2.500000
(G00 Z2.500000)
G00 X-68.1900 Y29.7950 
G01 Z-2.500000
G01 Z2.500000
(G00 Z2.500000)
G00 X-71.0000 Y34.0000 
G01 Z-2.500000
G01 Z2.500000
(G00 Z2.500000)
G00 X-73.5400 Y34.0000 
G01 Z-2.500000
G01 Z2.500000
(G00 Z2.500000)
G00 X-75.8100 Y29.7950 
G01 Z-2.500000
G01 Z2.500000
(G00 Z2.500000)
G00 X-78.9850 Y6.9350 
G01 Z-2.500000
G01 Z2.500000
(G00 Z2.500000)
G00 X-78.9850 Y29.7950 
G01 Z-2.500000
G01 Z2.500000
(G00 Z2.500000)
G00 X-8.0150 Y6.9350 
G01 Z-2.500000
G01 Z2.500000
(G00 Z2.500000)
G00 X-8.0150 Y29.7950 
G01 Z-2.500000
G01 Z2.500000
(G00 Z2.500000)
G00 X-11.1900 Y29.7950 
G01 Z-2.500000
G01 Z2.500000
(G00 Z2.500000)
G00 X-14.0000 Y34.0000 
G01 Z-2.500000
G01 Z2.500000
(G00 Z2.500000)
G00 X-16.5400 Y34.0000 
G01 Z-2.500000
G01 Z2.500000
(G00 Z2.500000)
G00 X-18.8100 Y29.7950 
G01 Z-2.500000
G01 Z2.500000
(G00 Z2.500000)
G00 X-2.0000 Y17.0000 
G01 Z-2.500000
G01 Z2.500000
(G00 Z2.500000)
G00 X-21.9850 Y6.9350 
G01 Z-2.500000
G01 Z2.500000
(G00 Z2.500000)
G00 X-21.9850 Y29.7950 
G01 Z-2.500000
G01 Z2.500000
(G00 Z2.500000)
G00 X-27.0150 Y6.9350 
G01 Z-2.500000
G01 Z2.500000
(G00 Z2.500000)
G00 X-27.0150 Y29.7950 
G01 Z-2.500000
G01 Z2.500000
(G00 Z2.500000)
G00 X-30.1900 Y29.7950 
G01 Z-2.500000
G01 Z2.500000
T01 
G00 Z15.0000 
M05
M02
