(.../eagle/ulps/pcbgcode/pcb-gcode.ulp)
(Copyright 2005 - 2012 by John Johnson)
(See readme.txt for licensing terms.)
(This file generated from the board:)
(.../Timing-Gate/display-connectors.brd)
(Current profile is .../pcbgcode/profiles/generic.pp  )
(This file generated 18/02/2020 14:06)
(Settings from pcb-machine.h)
(  Tool Size)
(0.1000 )
(Z Axis Settings)
(  High     Up        Down     Drill)
(15.0000 	2.5000 	-0.1000 	-2.5000 )
(spindle on time = 3.0000)
(milling depth = -0.2540)
(text depth = -0.1270)
(tool change at 0.0000 0.0000 25.0000 )
(feed rate xy = F400.00 )
(feed rate z  = F254.00 )
(Settings from pcb-defaults.h)
(isolate min = 0.0200)
(isolate max = 0.2500)
(isolate step = 0.1200)
(Generated top outlines, top drill, )
(Unit of measure: mm)
( Tool|       Size       |  Min Sub |  Max Sub |   Count )
( T01  0.800mm 0.0315in 0.0000in 0.0000in )
(Metric Mode)
G21
(Absolute Coordinates)
G90
M05
G00 Z25.0000 
G00 X0.0000 Y0.0000 
M06 T01  ; 0.8000 
G01 Z0.0000 F254.00 
M06 T01  ; 0.8000 
G00 Z2.5000 
M03
G04 P3.000000
G00 Z2.500000
G00 X3.5000 Y46.0000 
G01 Z-2.5000 F254.00 
G01 Z2.500000
(R2.5000  P1.000000)
(G00 Z2.500000)
G00 X46.0000 Y47.5000 
G01 Z-2.500000
G01 Z2.500000
(G00 Z2.500000)
G00 X46.0000 Y50.0000 
G01 Z-2.500000
G01 Z2.500000
(G00 Z2.500000)
G00 X46.0000 Y52.5000 
G01 Z-2.500000
G01 Z2.500000
(G00 Z2.500000)
G00 X6.0000 Y46.0000 
G01 Z-2.500000
G01 Z2.500000
(G00 Z2.500000)
G00 X8.5000 Y46.0000 
G01 Z-2.500000
G01 Z2.500000
T01 
G00 Z15.0000 
M05
M02
