(.../eagle/ulps/pcbgcode/pcb-gcode.ulp)
(Copyright 2005 - 2012 by John Johnson)
(See readme.txt for licensing terms.)
(This file generated from the board:)
(.../Timing-Gate/display-connectors.brd)
(Current profile is .../pcbgcode/profiles/generic.pp  )
(This file generated 18/02/2020 14:05)
(Settings from pcb-machine.h)
(  Tool Size)
(0.1000 )
(Z Axis Settings)
(  High     Up        Down     Drill)
(15.0000 	2.5000 	-0.1000 	-2.5000 )
(spindle on time = 3.0000)
(milling depth = -0.2540)
(text depth = -0.1270)
(tool change at 0.0000 0.0000 25.0000 )
(feed rate xy = F400.00 )
(feed rate z  = F254.00 )
(Settings from pcb-defaults.h)
(isolate min = 0.0200)
(isolate max = 0.2500)
(isolate step = 0.1200)
(Generated top outlines, top drill, )
(Unit of measure: mm)
(Metric Mode)
G21
(Absolute Coordinates)
G90
G00 X0.0000 Y0.0000 
M03
G04 P3.000000
G00 Z2.5000 
G00 X6.9082 Y40.4105 
G01 Z-0.1000 F254.00 
G01 X6.9082 Y46.0894 F400.00 
G01 X6.8733 Y46.2649 
G01 X6.8048 Y46.4302 
G01 X6.7054 Y46.5789 
G01 X6.5789 Y46.7054 
G01 X6.4302 Y46.8048 
G01 X6.2649 Y46.8733 
G01 X6.0895 Y46.9082 
G01 X5.9105 Y46.9082 
G01 X5.7351 Y46.8733 
G01 X5.5698 Y46.8048 
G01 X5.4211 Y46.7054 
G01 X5.2946 Y46.5789 
G01 X5.1952 Y46.4302 
G01 X5.1267 Y46.2649 
G01 X5.0918 Y46.0894 
G01 X5.0918 Y40.4105 
G01 X5.1267 Y40.2351 
G01 X5.1952 Y40.0698 
G01 X5.2946 Y39.9211 
G01 X5.4211 Y39.7946 
G01 X5.5698 Y39.6952 
G01 X5.7351 Y39.6267 
G01 X5.9105 Y39.5918 
G01 X6.0895 Y39.5918 
G01 X6.2649 Y39.6267 
G01 X6.4302 Y39.6952 
G01 X6.5789 Y39.7946 
G01 X6.7054 Y39.9211 
G01 X6.8048 Y40.0698 
G01 X6.8733 Y40.2351 
G01 X6.9082 Y40.4105 
G00 Z2.5000 
G00 X5.5236 Y71.0627 
G01 Z-0.1000 F254.00 
G01 X5.5236 Y71.0587 F400.00 
G01 X5.0388 Y69.1194 
G01 X5.0236 Y69.0627 
G01 X5.0236 Y69.0586 
G01 X5.0226 Y69.0547 
G01 X5.0236 Y68.9960 
G01 X5.0236 Y68.9373 
G01 X5.0247 Y68.9333 
G01 X5.0247 Y68.9293 
G01 X5.0409 Y68.8728 
G01 X5.0561 Y68.8161 
G01 X5.0581 Y68.8126 
G01 X5.0592 Y68.8087 
G01 X5.0894 Y68.7584 
G01 X5.1188 Y68.7075 
G01 X5.1217 Y68.7046 
G01 X5.1238 Y68.7011 
G01 X5.1659 Y68.6604 
G01 X5.2075 Y68.6188 
G01 X5.2110 Y68.6168 
G01 X5.2139 Y68.6139 
G01 X5.2653 Y68.5854 
G01 X5.3161 Y68.5561 
G01 X5.3200 Y68.5550 
G01 X5.3236 Y68.5530 
G01 X5.3806 Y68.5388 
G01 X5.4373 Y68.5236 
G01 X5.4413 Y68.5236 
G01 X5.4453 Y68.5226 
G01 X5.5040 Y68.5236 
G01 X5.5236 Y68.5236 
G01 X5.5236 Y67.1873 
G01 X5.5561 Y67.0661 
G01 X5.6188 Y66.9575 
G01 X5.7075 Y66.8688 
G01 X5.8161 Y66.8061 
G01 X5.9373 Y66.7736 
G01 X6.0627 Y66.7736 
G01 X6.1839 Y66.8061 
G01 X6.2925 Y66.8688 
G01 X6.3812 Y66.9575 
G01 X6.4439 Y67.0661 
G01 X6.4764 Y67.1873 
G01 X6.4764 Y68.5236 
G01 X6.4960 Y68.5236 
G01 X6.5547 Y68.5226 
G01 X6.5586 Y68.5236 
G01 X6.5627 Y68.5236 
G01 X6.6194 Y68.5388 
G01 X6.6764 Y68.5530 
G01 X6.6800 Y68.5550 
G01 X6.6839 Y68.5561 
G01 X6.7347 Y68.5854 
G01 X6.7861 Y68.6139 
G01 X6.7890 Y68.6168 
G01 X6.7925 Y68.6188 
G01 X6.8341 Y68.6604 
G01 X6.8762 Y68.7011 
G01 X6.8783 Y68.7046 
G01 X6.8812 Y68.7075 
G01 X6.9106 Y68.7584 
G01 X6.9408 Y68.8087 
G01 X6.9419 Y68.8126 
G01 X6.9439 Y68.8161 
G01 X6.9591 Y68.8728 
G01 X6.9753 Y68.9293 
G01 X6.9753 Y68.9334 
G01 X6.9764 Y68.9373 
G01 X6.9764 Y68.9960 
G01 X6.9774 Y69.0547 
G01 X6.9764 Y69.0586 
G01 X6.9764 Y69.0627 
G01 X6.9612 Y69.1194 
G01 X6.4764 Y71.0587 
G01 X6.4764 Y71.0627 
G01 X6.4753 Y71.0666 
G01 X6.4753 Y71.0707 
G01 X6.4602 Y71.1233 
G01 X6.4470 Y71.1764 
G01 X6.4450 Y71.1800 
G01 X6.4439 Y71.1839 
G01 X6.4419 Y71.1874 
G01 X6.4408 Y71.1913 
G01 X6.4127 Y71.2382 
G01 X6.3861 Y71.2861 
G01 X6.3832 Y71.2890 
G01 X6.3812 Y71.2925 
G01 X6.3783 Y71.2954 
G01 X6.3762 Y71.2989 
G01 X6.3369 Y71.3369 
G01 X6.2989 Y71.3762 
G01 X6.2954 Y71.3783 
G01 X6.2925 Y71.3812 
G01 X6.2890 Y71.3832 
G01 X6.2861 Y71.3861 
G01 X6.2382 Y71.4127 
G01 X6.1913 Y71.4408 
G01 X6.1874 Y71.4419 
G01 X6.1839 Y71.4439 
G01 X6.1800 Y71.4450 
G01 X6.1764 Y71.4470 
G01 X6.1233 Y71.4602 
G01 X6.0707 Y71.4753 
G01 X6.0666 Y71.4753 
G01 X6.0627 Y71.4764 
G01 X6.0586 Y71.4764 
G01 X6.0547 Y71.4774 
G01 X6.0000 Y71.4765 
G01 X5.9453 Y71.4774 
G01 X5.9413 Y71.4764 
G01 X5.9373 Y71.4764 
G01 X5.9333 Y71.4753 
G01 X5.9293 Y71.4753 
G01 X5.8767 Y71.4602 
G01 X5.8236 Y71.4470 
G01 X5.8200 Y71.4450 
G01 X5.8161 Y71.4439 
G01 X5.8126 Y71.4419 
G01 X5.8087 Y71.4408 
G01 X5.7618 Y71.4127 
G01 X5.7139 Y71.3861 
G01 X5.7110 Y71.3832 
G01 X5.7075 Y71.3812 
G01 X5.7046 Y71.3783 
G01 X5.7011 Y71.3762 
G01 X5.6631 Y71.3369 
G01 X5.6238 Y71.2989 
G01 X5.6217 Y71.2954 
G01 X5.6188 Y71.2925 
G01 X5.6168 Y71.2890 
G01 X5.6139 Y71.2861 
G01 X5.5873 Y71.2382 
G01 X5.5592 Y71.1913 
G01 X5.5581 Y71.1874 
G01 X5.5561 Y71.1839 
G01 X5.5550 Y71.1800 
G01 X5.5530 Y71.1764 
G01 X5.5398 Y71.1233 
G01 X5.5247 Y71.0707 
G01 X5.5247 Y71.0666 
G01 X5.5236 Y71.0627 
G00 Z2.5000 
G00 X50.4764 Y70.9373 
G01 Z-0.1000 F254.00 
G01 X50.4764 Y70.9413 F400.00 
G01 X50.9612 Y72.8806 
G01 X50.9764 Y72.9373 
G01 X50.9764 Y72.9413 
G01 X50.9774 Y72.9453 
G01 X50.9764 Y73.0040 
G01 X50.9764 Y73.0627 
G01 X50.9753 Y73.0666 
G01 X50.9753 Y73.0707 
G01 X50.9591 Y73.1272 
G01 X50.9439 Y73.1839 
G01 X50.9419 Y73.1874 
G01 X50.9408 Y73.1913 
G01 X50.9106 Y73.2416 
G01 X50.8812 Y73.2925 
G01 X50.8783 Y73.2954 
G01 X50.8762 Y73.2989 
G01 X50.8341 Y73.3396 
G01 X50.7925 Y73.3812 
G01 X50.7890 Y73.3832 
G01 X50.7861 Y73.3861 
G01 X50.7347 Y73.4146 
G01 X50.6839 Y73.4439 
G01 X50.6800 Y73.4450 
G01 X50.6764 Y73.4470 
G01 X50.6194 Y73.4612 
G01 X50.5627 Y73.4764 
G01 X50.5586 Y73.4764 
G01 X50.5547 Y73.4774 
G01 X50.4960 Y73.4764 
G01 X50.4764 Y73.4764 
G01 X50.4764 Y75.0627 
G01 X50.4439 Y75.1839 
G01 X50.3812 Y75.2925 
G01 X50.2925 Y75.3812 
G01 X50.1839 Y75.4439 
G01 X50.0627 Y75.4764 
G01 X49.9373 Y75.4764 
G01 X49.8161 Y75.4439 
G01 X49.7075 Y75.3812 
G01 X49.6188 Y75.2925 
G01 X49.5561 Y75.1839 
G01 X49.5236 Y75.0627 
G01 X49.5236 Y73.4764 
G01 X49.5040 Y73.4764 
G01 X49.4453 Y73.4774 
G01 X49.4413 Y73.4764 
G01 X49.4373 Y73.4764 
G01 X49.3806 Y73.4612 
G01 X49.3236 Y73.4470 
G01 X49.3200 Y73.4450 
G01 X49.3161 Y73.4439 
G01 X49.2653 Y73.4146 
G01 X49.2139 Y73.3861 
G01 X49.2110 Y73.3832 
G01 X49.2075 Y73.3812 
G01 X49.1659 Y73.3396 
G01 X49.1238 Y73.2989 
G01 X49.1217 Y73.2954 
G01 X49.1188 Y73.2925 
G01 X49.0894 Y73.2416 
G01 X49.0592 Y73.1913 
G01 X49.0581 Y73.1874 
G01 X49.0561 Y73.1839 
G01 X49.0409 Y73.1272 
G01 X49.0247 Y73.0707 
G01 X49.0247 Y73.0667 
G01 X49.0236 Y73.0627 
G01 X49.0236 Y73.0040 
G01 X49.0226 Y72.9453 
G01 X49.0236 Y72.9414 
G01 X49.0236 Y72.9373 
G01 X49.0388 Y72.8806 
G01 X49.5236 Y70.9413 
G01 X49.5236 Y70.9373 
G01 X49.5247 Y70.9334 
G01 X49.5247 Y70.9293 
G01 X49.5398 Y70.8767 
G01 X49.5530 Y70.8236 
G01 X49.5550 Y70.8200 
G01 X49.5561 Y70.8161 
G01 X49.5581 Y70.8126 
G01 X49.5592 Y70.8087 
G01 X49.5873 Y70.7618 
G01 X49.6139 Y70.7139 
G01 X49.6168 Y70.7110 
G01 X49.6188 Y70.7075 
G01 X49.6217 Y70.7046 
G01 X49.6238 Y70.7011 
G01 X49.6631 Y70.6631 
G01 X49.7011 Y70.6238 
G01 X49.7046 Y70.6217 
G01 X49.7075 Y70.6188 
G01 X49.7110 Y70.6168 
G01 X49.7139 Y70.6139 
G01 X49.7618 Y70.5873 
G01 X49.8087 Y70.5592 
G01 X49.8126 Y70.5581 
G01 X49.8161 Y70.5561 
G01 X49.8200 Y70.5550 
G01 X49.8236 Y70.5530 
G01 X49.8767 Y70.5398 
G01 X49.9293 Y70.5247 
G01 X49.9334 Y70.5247 
G01 X49.9373 Y70.5236 
G01 X49.9413 Y70.5236 
G01 X49.9453 Y70.5226 
G01 X50.0000 Y70.5235 
G01 X50.0547 Y70.5226 
G01 X50.0586 Y70.5236 
G01 X50.0627 Y70.5236 
G01 X50.0666 Y70.5247 
G01 X50.0707 Y70.5247 
G01 X50.1233 Y70.5398 
G01 X50.1764 Y70.5530 
G01 X50.1800 Y70.5550 
G01 X50.1839 Y70.5561 
G01 X50.1874 Y70.5581 
G01 X50.1913 Y70.5592 
G01 X50.2382 Y70.5873 
G01 X50.2861 Y70.6139 
G01 X50.2890 Y70.6168 
G01 X50.2925 Y70.6188 
G01 X50.2954 Y70.6217 
G01 X50.2989 Y70.6238 
G01 X50.3369 Y70.6631 
G01 X50.3762 Y70.7011 
G01 X50.3783 Y70.7046 
G01 X50.3812 Y70.7075 
G01 X50.3832 Y70.7110 
G01 X50.3861 Y70.7139 
G01 X50.4127 Y70.7618 
G01 X50.4408 Y70.8087 
G01 X50.4419 Y70.8126 
G01 X50.4439 Y70.8161 
G01 X50.4450 Y70.8200 
G01 X50.4470 Y70.8236 
G01 X50.4602 Y70.8767 
G01 X50.4753 Y70.9293 
G01 X50.4753 Y70.9334 
G01 X50.4764 Y70.9373 
G00 Z2.5000 
G00 X28.8161 Y5.0561 
G01 Z-0.1000 F254.00 
G01 X28.8729 Y5.0409 F400.00 
G01 X28.9294 Y5.0247 
G01 X28.9334 Y5.0246 
G01 X28.9373 Y5.0236 
G01 X28.9961 Y5.0236 
G01 X29.0549 Y5.0226 
G01 X29.0587 Y5.0236 
G01 X29.0627 Y5.0236 
G01 X29.1195 Y5.0388 
G01 X29.1765 Y5.0531 
G01 X29.1800 Y5.0550 
G01 X29.1839 Y5.0561 
G01 X29.2348 Y5.0854 
G01 X29.2862 Y5.1140 
G01 X29.2891 Y5.1168 
G01 X29.2925 Y5.1188 
G01 X29.3341 Y5.1604 
G01 X29.3763 Y5.2012 
G01 X29.3784 Y5.2047 
G01 X29.3812 Y5.2075 
G01 X29.4106 Y5.2584 
G01 X29.4408 Y5.3088 
G01 X29.4419 Y5.3127 
G01 X29.4439 Y5.3161 
G01 X29.4591 Y5.3729 
G01 X29.4753 Y5.4294 
G01 X29.4754 Y5.4334 
G01 X29.4764 Y5.4373 
G01 X29.4764 Y5.4961 
G01 X29.4769 Y5.5236 
G01 X31.3127 Y5.5236 
G01 X31.4339 Y5.5561 
G01 X31.5425 Y5.6188 
G01 X31.6312 Y5.7075 
G01 X31.6939 Y5.8161 
G01 X31.7264 Y5.9373 
G01 X31.7264 Y6.0627 
G01 X31.6939 Y6.1839 
G01 X31.6312 Y6.2925 
G01 X31.5425 Y6.3812 
G01 X31.4339 Y6.4439 
G01 X31.3127 Y6.4764 
G01 X29.4769 Y6.4764 
G01 X29.4764 Y6.5039 
G01 X29.4764 Y6.5627 
G01 X29.4754 Y6.5666 
G01 X29.4753 Y6.5706 
G01 X29.4591 Y6.6271 
G01 X29.4439 Y6.6839 
G01 X29.4419 Y6.6873 
G01 X29.4408 Y6.6912 
G01 X29.4106 Y6.7416 
G01 X29.3812 Y6.7925 
G01 X29.3784 Y6.7953 
G01 X29.3763 Y6.7988 
G01 X29.3341 Y6.8396 
G01 X29.2925 Y6.8812 
G01 X29.2891 Y6.8832 
G01 X29.2862 Y6.8860 
G01 X29.2348 Y6.9146 
G01 X29.1839 Y6.9439 
G01 X29.1800 Y6.9450 
G01 X29.1765 Y6.9469 
G01 X29.1195 Y6.9612 
G01 X29.0627 Y6.9764 
G01 X29.0587 Y6.9764 
G01 X29.0549 Y6.9774 
G01 X28.9961 Y6.9764 
G01 X28.9373 Y6.9764 
G01 X28.9334 Y6.9754 
G01 X28.9294 Y6.9753 
G01 X28.8729 Y6.9591 
G01 X28.8161 Y6.9439 
G01 X28.8127 Y6.9419 
G01 X27.1267 Y6.4602 
G01 X27.0735 Y6.4469 
G01 X27.0700 Y6.4450 
G01 X27.0661 Y6.4439 
G01 X27.0627 Y6.4419 
G01 X27.0588 Y6.4408 
G01 X27.0118 Y6.4126 
G01 X26.9638 Y6.3860 
G01 X26.9609 Y6.3832 
G01 X26.9575 Y6.3812 
G01 X26.9547 Y6.3784 
G01 X26.9512 Y6.3763 
G01 X26.9131 Y6.3369 
G01 X26.8737 Y6.2988 
G01 X26.8716 Y6.2953 
G01 X26.8688 Y6.2925 
G01 X26.8668 Y6.2891 
G01 X26.8640 Y6.2862 
G01 X26.8374 Y6.2382 
G01 X26.8092 Y6.1912 
G01 X26.8081 Y6.1873 
G01 X26.8061 Y6.1839 
G01 X26.8050 Y6.1800 
G01 X26.8031 Y6.1765 
G01 X26.7898 Y6.1233 
G01 X26.7747 Y6.0706 
G01 X26.7746 Y6.0666 
G01 X26.7736 Y6.0627 
G01 X26.7736 Y6.0587 
G01 X26.7726 Y6.0549 
G01 X26.7735 Y6.0000 
G01 X26.7726 Y5.9451 
G01 X26.7736 Y5.9413 
G01 X26.7736 Y5.9373 
G01 X26.7746 Y5.9334 
G01 X26.7747 Y5.9294 
G01 X26.7898 Y5.8767 
G01 X26.8031 Y5.8235 
G01 X26.8050 Y5.8200 
G01 X26.8061 Y5.8161 
G01 X26.8081 Y5.8127 
G01 X26.8092 Y5.8088 
G01 X26.8374 Y5.7618 
G01 X26.8640 Y5.7138 
G01 X26.8668 Y5.7109 
G01 X26.8688 Y5.7075 
G01 X26.8716 Y5.7047 
G01 X26.8737 Y5.7012 
G01 X26.9131 Y5.6631 
G01 X26.9512 Y5.6237 
G01 X26.9547 Y5.6216 
G01 X26.9575 Y5.6188 
G01 X26.9609 Y5.6168 
G01 X26.9638 Y5.6140 
G01 X27.0118 Y5.5874 
G01 X27.0588 Y5.5592 
G01 X27.0627 Y5.5581 
G01 X27.0661 Y5.5561 
G01 X27.0700 Y5.5550 
G01 X27.0735 Y5.5531 
G01 X27.1267 Y5.5398 
G01 X28.8127 Y5.0581 
G01 X28.8161 Y5.0561 
G00 Z2.5000 
G00 X27.9373 Y49.5236 
G01 Z-0.1000 F254.00 
G01 X27.9413 Y49.5236 F400.00 
G01 X29.8806 Y49.0388 
G01 X29.9373 Y49.0236 
G01 X29.9413 Y49.0236 
G01 X29.9453 Y49.0226 
G01 X30.0040 Y49.0236 
G01 X30.0627 Y49.0236 
G01 X30.0667 Y49.0247 
G01 X30.0707 Y49.0247 
G01 X30.1272 Y49.0409 
G01 X30.1839 Y49.0561 
G01 X30.1874 Y49.0581 
G01 X30.1913 Y49.0592 
G01 X30.2416 Y49.0894 
G01 X30.2925 Y49.1188 
G01 X30.2954 Y49.1217 
G01 X30.2989 Y49.1238 
G01 X30.3396 Y49.1659 
G01 X30.3812 Y49.2075 
G01 X30.3832 Y49.2110 
G01 X30.3861 Y49.2139 
G01 X30.4146 Y49.2653 
G01 X30.4439 Y49.3161 
G01 X30.4450 Y49.3200 
G01 X30.4470 Y49.3236 
G01 X30.4612 Y49.3806 
G01 X30.4764 Y49.4373 
G01 X30.4764 Y49.4413 
G01 X30.4774 Y49.4453 
G01 X30.4764 Y49.5040 
G01 X30.4764 Y49.5236 
G01 X33.0627 Y49.5236 
G01 X33.1839 Y49.5561 
G01 X33.2925 Y49.6188 
G01 X33.3812 Y49.7075 
G01 X33.4439 Y49.8161 
G01 X33.4764 Y49.9373 
G01 X33.4764 Y50.0627 
G01 X33.4439 Y50.1839 
G01 X33.3812 Y50.2925 
G01 X33.2925 Y50.3812 
G01 X33.1839 Y50.4439 
G01 X33.0627 Y50.4764 
G01 X30.4764 Y50.4764 
G01 X30.4764 Y50.4960 
G01 X30.4774 Y50.5547 
G01 X30.4764 Y50.5586 
G01 X30.4764 Y50.5627 
G01 X30.4612 Y50.6194 
G01 X30.4470 Y50.6764 
G01 X30.4450 Y50.6800 
G01 X30.4439 Y50.6839 
G01 X30.4146 Y50.7347 
G01 X30.3861 Y50.7861 
G01 X30.3832 Y50.7890 
G01 X30.3812 Y50.7925 
G01 X30.3396 Y50.8341 
G01 X30.2989 Y50.8762 
G01 X30.2954 Y50.8783 
G01 X30.2925 Y50.8812 
G01 X30.2416 Y50.9106 
G01 X30.1913 Y50.9408 
G01 X30.1874 Y50.9419 
G01 X30.1839 Y50.9439 
G01 X30.1272 Y50.9591 
G01 X30.0707 Y50.9753 
G01 X30.0667 Y50.9753 
G01 X30.0627 Y50.9764 
G01 X30.0040 Y50.9764 
G01 X29.9453 Y50.9774 
G01 X29.9414 Y50.9764 
G01 X29.9373 Y50.9764 
G01 X29.8806 Y50.9612 
G01 X27.9413 Y50.4764 
G01 X27.9373 Y50.4764 
G01 X27.9334 Y50.4753 
G01 X27.9293 Y50.4753 
G01 X27.8767 Y50.4602 
G01 X27.8236 Y50.4470 
G01 X27.8200 Y50.4450 
G01 X27.8161 Y50.4439 
G01 X27.8126 Y50.4419 
G01 X27.8087 Y50.4408 
G01 X27.7618 Y50.4127 
G01 X27.7139 Y50.3861 
G01 X27.7110 Y50.3832 
G01 X27.7075 Y50.3812 
G01 X27.7046 Y50.3783 
G01 X27.7011 Y50.3762 
G01 X27.6631 Y50.3369 
G01 X27.6238 Y50.2989 
G01 X27.6217 Y50.2954 
G01 X27.6188 Y50.2925 
G01 X27.6167 Y50.2890 
G01 X27.6139 Y50.2861 
G01 X27.5873 Y50.2382 
G01 X27.5592 Y50.1913 
G01 X27.5581 Y50.1874 
G01 X27.5561 Y50.1839 
G01 X27.5550 Y50.1800 
G01 X27.5530 Y50.1764 
G01 X27.5398 Y50.1233 
G01 X27.5247 Y50.0707 
G01 X27.5247 Y50.0667 
G01 X27.5236 Y50.0627 
G01 X27.5236 Y50.0586 
G01 X27.5226 Y50.0547 
G01 X27.5235 Y50.0000 
G01 X27.5226 Y49.9453 
G01 X27.5236 Y49.9413 
G01 X27.5236 Y49.9373 
G01 X27.5247 Y49.9334 
G01 X27.5247 Y49.9293 
G01 X27.5398 Y49.8767 
G01 X27.5530 Y49.8236 
G01 X27.5550 Y49.8200 
G01 X27.5561 Y49.8161 
G01 X27.5581 Y49.8126 
G01 X27.5592 Y49.8087 
G01 X27.5873 Y49.7618 
G01 X27.6139 Y49.7139 
G01 X27.6167 Y49.7110 
G01 X27.6188 Y49.7075 
G01 X27.6217 Y49.7046 
G01 X27.6238 Y49.7011 
G01 X27.6631 Y49.6631 
G01 X27.7011 Y49.6238 
G01 X27.7046 Y49.6217 
G01 X27.7075 Y49.6188 
G01 X27.7110 Y49.6168 
G01 X27.7139 Y49.6139 
G01 X27.7618 Y49.5873 
G01 X27.8087 Y49.5592 
G01 X27.8126 Y49.5581 
G01 X27.8161 Y49.5561 
G01 X27.8200 Y49.5550 
G01 X27.8236 Y49.5530 
G01 X27.8767 Y49.5398 
G01 X27.9293 Y49.5247 
G01 X27.9333 Y49.5247 
G01 X27.9373 Y49.5236 
G00 Z2.5000 
G00 X50.9082 Y44.1605 
G01 Z-0.1000 F254.00 
G01 X50.9082 Y55.8394 F400.00 
G01 X50.8733 Y56.0149 
G01 X50.8048 Y56.1802 
G01 X50.7054 Y56.3289 
G01 X50.5789 Y56.4554 
G01 X50.4302 Y56.5548 
G01 X50.2649 Y56.6233 
G01 X50.0894 Y56.6582 
G01 X49.9105 Y56.6582 
G01 X49.7351 Y56.6233 
G01 X49.5698 Y56.5548 
G01 X49.4211 Y56.4554 
G01 X49.2946 Y56.3289 
G01 X49.1952 Y56.1802 
G01 X49.1267 Y56.0149 
G01 X49.0918 Y55.8394 
G01 X49.0918 Y44.1605 
G01 X49.1267 Y43.9851 
G01 X49.1952 Y43.8198 
G01 X49.2946 Y43.6711 
G01 X49.4211 Y43.5446 
G01 X49.5698 Y43.4452 
G01 X49.7351 Y43.3767 
G01 X49.9105 Y43.3418 
G01 X50.0894 Y43.3418 
G01 X50.2649 Y43.3767 
G01 X50.4302 Y43.4452 
G01 X50.5789 Y43.5446 
G01 X50.7054 Y43.6711 
G01 X50.8048 Y43.8198 
G01 X50.8733 Y43.9851 
G01 X50.9082 Y44.1605 
G00 Z2.5000 
G00 X9.4082 Y54.9105 
G01 Z-0.1000 F254.00 
G01 X9.4082 Y89.0894 F400.00 
G01 X9.3733 Y89.2649 
G01 X9.3048 Y89.4302 
G01 X9.2333 Y89.5372 
G01 X9.2654 Y89.6777 
G01 X9.3226 Y89.8412 
G01 X9.3978 Y89.9973 
G01 X9.4900 Y90.1441 
G01 X9.5980 Y90.2795 
G01 X9.7205 Y90.4020 
G01 X9.8559 Y90.5100 
G01 X10.0027 Y90.6022 
G01 X10.1588 Y90.6774 
G01 X10.3223 Y90.7346 
G01 X10.4912 Y90.7732 
G01 X10.6634 Y90.7926 
G01 X10.6736 Y90.7929 
G01 X10.8198 Y90.6952 
G01 X10.9851 Y90.6267 
G01 X11.1605 Y90.5918 
G01 X45.2182 Y90.5918 
G01 X45.2790 Y90.5870 
G01 X45.4310 Y90.5629 
G01 X45.5796 Y90.5230 
G01 X45.7232 Y90.4679 
G01 X45.8603 Y90.3980 
G01 X45.9894 Y90.3141 
G01 X46.1089 Y90.2173 
G01 X46.2177 Y90.1084 
G01 X46.3145 Y89.9888 
G01 X46.3983 Y89.8598 
G01 X46.4681 Y89.7226 
G01 X46.5232 Y89.5790 
G01 X46.5630 Y89.4303 
G01 X46.5871 Y89.2783 
G01 X46.5951 Y89.1247 
G01 X46.5945 Y89.1031 
G01 X46.5918 Y89.0894 
G01 X46.5918 Y89.0239 
G01 X46.5884 Y88.9584 
G01 X46.5918 Y88.9346 
G01 X46.5918 Y54.9105 
G01 X46.6267 Y54.7351 
G01 X46.6952 Y54.5698 
G01 X46.7946 Y54.4211 
G01 X46.9211 Y54.2946 
G01 X46.9554 Y54.2716 
G01 X47.2950 Y52.9132 
G01 X47.2950 Y47.0868 
G01 X46.9554 Y45.7284 
G01 X46.9211 Y45.7054 
G01 X46.7946 Y45.5789 
G01 X46.6952 Y45.4302 
G01 X46.6267 Y45.2649 
G01 X46.5918 Y45.0894 
G01 X46.5918 Y11.0000 
G01 X46.5896 Y10.9167 
G01 X46.5722 Y10.7510 
G01 X46.5376 Y10.5880 
G01 X46.4861 Y10.4295 
G01 X46.4183 Y10.2773 
G01 X46.3350 Y10.1330 
G01 X46.2371 Y9.9982 
G01 X46.1256 Y9.8744 
G01 X46.0018 Y9.7629 
G01 X45.8670 Y9.6650 
G01 X45.7227 Y9.5817 
G01 X45.5704 Y9.5139 
G01 X45.4120 Y9.4624 
G01 X45.2490 Y9.4278 
G01 X45.0833 Y9.4104 
G01 X45.0000 Y9.4082 
G01 X10.7500 Y9.4082 
G01 X10.6798 Y9.4100 
G01 X10.5401 Y9.4247 
G01 X10.4027 Y9.4539 
G01 X10.2691 Y9.4973 
G01 X10.1408 Y9.5544 
G01 X10.0192 Y9.6247 
G01 X9.9056 Y9.7072 
G01 X9.8012 Y9.8012 
G01 X9.7072 Y9.9056 
G01 X9.6247 Y10.0192 
G01 X9.5544 Y10.1408 
G01 X9.4973 Y10.2691 
G01 X9.4539 Y10.4027 
G01 X9.4247 Y10.5401 
G01 X9.4100 Y10.6798 
G01 X9.4082 Y10.7500 
G01 X9.4082 Y46.0894 
G01 X9.3733 Y46.2649 
G01 X9.3048 Y46.4302 
G01 X9.2054 Y46.5789 
G01 X9.0789 Y46.7054 
G01 X8.9302 Y46.8048 
G01 X8.7649 Y46.8733 
G01 X8.5895 Y46.9082 
G01 X8.4105 Y46.9082 
G01 X8.2351 Y46.8733 
G01 X8.0698 Y46.8048 
G01 X7.9211 Y46.7054 
G01 X7.7946 Y46.5789 
G01 X7.6952 Y46.4302 
G01 X7.6267 Y46.2649 
G01 X7.5918 Y46.0894 
G01 X7.5918 Y10.5845 
G01 X7.6264 Y10.2553 
G01 X7.6952 Y9.9315 
G01 X7.7975 Y9.6166 
G01 X7.9322 Y9.3142 
G01 X8.0977 Y9.0276 
G01 X8.2923 Y8.7598 
G01 X8.5137 Y8.5138 
G01 X8.7598 Y8.2923 
G01 X9.0276 Y8.0977 
G01 X9.3142 Y7.9322 
G01 X9.6166 Y7.7975 
G01 X9.9315 Y7.6952 
G01 X10.2553 Y7.6264 
G01 X10.5845 Y7.5918 
G01 X45.1786 Y7.5918 
G01 X45.5339 Y7.6291 
G01 X45.8833 Y7.7034 
G01 X46.2231 Y7.8138 
G01 X46.5494 Y7.9591 
G01 X46.8588 Y8.1377 
G01 X47.1478 Y8.3477 
G01 X47.4133 Y8.5867 
G01 X47.6523 Y8.8522 
G01 X47.8623 Y9.1412 
G01 X48.0409 Y9.4506 
G01 X48.1862 Y9.7769 
G01 X48.2966 Y10.1167 
G01 X48.3709 Y10.4661 
G01 X48.4082 Y10.8214 
G01 X48.4082 Y45.0894 
G01 X48.3733 Y45.2649 
G01 X48.3232 Y45.3859 
G01 X48.6713 Y46.7784 
G01 X48.6779 Y46.7944 
G01 X48.6881 Y46.8456 
G01 X48.7008 Y46.8964 
G01 X48.7016 Y46.9136 
G01 X48.7050 Y46.9306 
G01 X48.7050 Y46.9829 
G01 X48.7075 Y47.0351 
G01 X48.7050 Y47.0522 
G01 X48.7050 Y52.9478 
G01 X48.7075 Y52.9649 
G01 X48.7050 Y53.0171 
G01 X48.7050 Y53.0694 
G01 X48.7016 Y53.0864 
G01 X48.7008 Y53.1036 
G01 X48.6881 Y53.1544 
G01 X48.6779 Y53.2056 
G01 X48.6713 Y53.2216 
G01 X48.3232 Y54.6141 
G01 X48.3733 Y54.7351 
G01 X48.4082 Y54.9105 
G01 X48.4082 Y88.9761 
G01 X48.4160 Y89.1243 
G01 X48.3980 Y89.4683 
G01 X48.3442 Y89.8085 
G01 X48.2551 Y90.1413 
G01 X48.1318 Y90.4629 
G01 X47.9755 Y90.7699 
G01 X47.7879 Y91.0588 
G01 X47.5712 Y91.3266 
G01 X47.3277 Y91.5702 
G01 X47.0600 Y91.7870 
G01 X46.7711 Y91.9747 
G01 X46.4642 Y92.1312 
G01 X46.1427 Y92.2547 
G01 X45.8100 Y92.3439 
G01 X45.4697 Y92.3979 
G01 X45.3630 Y92.4035 
G01 X45.3394 Y92.4082 
G01 X45.2739 Y92.4082 
G01 X45.2084 Y92.4116 
G01 X45.1846 Y92.4082 
G01 X11.1605 Y92.4082 
G01 X10.9851 Y92.3733 
G01 X10.8198 Y92.3048 
G01 X10.6711 Y92.2054 
G01 X10.5841 Y92.2050 
G01 X10.2542 Y92.1678 
G01 X9.9307 Y92.0940 
G01 X9.6174 Y91.9844 
G01 X9.3184 Y91.8404 
G01 X9.0373 Y91.6638 
G01 X8.7778 Y91.4568 
G01 X8.5432 Y91.2222 
G01 X8.3362 Y90.9627 
G01 X8.1596 Y90.6816 
G01 X8.0156 Y90.3826 
G01 X7.9060 Y90.0693 
G01 X7.8322 Y89.7458 
G01 X7.8158 Y89.6001 
G01 X7.7946 Y89.5789 
G01 X7.6952 Y89.4302 
G01 X7.6267 Y89.2649 
G01 X7.5918 Y89.0894 
G01 X7.5918 Y54.9105 
G01 X7.6267 Y54.7351 
G01 X7.6952 Y54.5698 
G01 X7.7946 Y54.4211 
G01 X7.9211 Y54.2946 
G01 X8.0698 Y54.1952 
G01 X8.1258 Y54.1720 
G01 X8.6202 Y53.1831 
G01 X8.6501 Y53.1232 
G01 X8.6937 Y53.0670 
G01 X8.7351 Y53.0134 
G01 X8.7886 Y52.9669 
G01 X8.8399 Y52.9223 
G01 X8.9022 Y52.8868 
G01 X10.1528 Y52.1721 
G01 X10.1952 Y52.0698 
G01 X10.2946 Y51.9211 
G01 X10.4211 Y51.7946 
G01 X10.5698 Y51.6952 
G01 X10.7351 Y51.6267 
G01 X10.9105 Y51.5918 
G01 X46.0894 Y51.5918 
G01 X46.2649 Y51.6267 
G01 X46.4302 Y51.6952 
G01 X46.5789 Y51.7946 
G01 X46.7054 Y51.9211 
G01 X46.8048 Y52.0698 
G01 X46.8733 Y52.2351 
G01 X46.9082 Y52.4105 
G01 X46.9082 Y52.5894 
G01 X46.8733 Y52.7649 
G01 X46.8048 Y52.9302 
G01 X46.7054 Y53.0789 
G01 X46.5789 Y53.2054 
G01 X46.4302 Y53.3048 
G01 X46.2649 Y53.3733 
G01 X46.0894 Y53.4082 
G01 X10.9105 Y53.4082 
G01 X10.8520 Y53.3966 
G01 X9.7851 Y54.0062 
G01 X9.3868 Y54.8029 
G01 X9.4082 Y54.9105 
G00 Z2.5000 
G00 X50.9082 Y88.9105 
G01 Z-0.1000 F254.00 
G01 X50.9082 Y89.2321 F400.00 
G01 X50.8718 Y89.6950 
G01 X50.7991 Y90.1535 
G01 X50.6908 Y90.6050 
G01 X50.5473 Y91.0465 
G01 X50.3696 Y91.4754 
G01 X50.1589 Y91.8891 
G01 X49.9163 Y92.2849 
G01 X49.6434 Y92.6605 
G01 X49.3419 Y93.0136 
G01 X49.0136 Y93.3419 
G01 X48.6606 Y93.6434 
G01 X48.2850 Y93.9163 
G01 X47.8891 Y94.1589 
G01 X47.4754 Y94.3696 
G01 X47.0465 Y94.5473 
G01 X46.6050 Y94.6908 
G01 X46.1535 Y94.7991 
G01 X45.6950 Y94.8718 
G01 X45.2321 Y94.9082 
G01 X42.1605 Y94.9082 
G01 X41.9851 Y94.8733 
G01 X41.8198 Y94.8048 
G01 X41.6711 Y94.7054 
G01 X41.5446 Y94.5789 
G01 X41.4452 Y94.4302 
G01 X41.3767 Y94.2649 
G01 X41.3418 Y94.0894 
G01 X41.3418 Y93.9105 
G01 X41.3767 Y93.7351 
G01 X41.4452 Y93.5698 
G01 X41.5446 Y93.4211 
G01 X41.6711 Y93.2946 
G01 X41.8198 Y93.1952 
G01 X41.9851 Y93.1267 
G01 X42.1605 Y93.0918 
G01 X45.0000 Y93.0918 
G01 X45.1606 Y93.0886 
G01 X45.4809 Y93.0634 
G01 X45.7983 Y93.0132 
G01 X46.1107 Y92.9382 
G01 X46.4162 Y92.8389 
G01 X46.7131 Y92.7159 
G01 X46.9993 Y92.5701 
G01 X47.2733 Y92.4022 
G01 X47.5332 Y92.2134 
G01 X47.7775 Y92.0047 
G01 X48.0047 Y91.7775 
G01 X48.2134 Y91.5332 
G01 X48.4022 Y91.2733 
G01 X48.5701 Y90.9993 
G01 X48.7159 Y90.7131 
G01 X48.8389 Y90.4162 
G01 X48.9382 Y90.1107 
G01 X49.0132 Y89.7983 
G01 X49.0634 Y89.4809 
G01 X49.0886 Y89.1606 
G01 X49.0918 Y89.0000 
G01 X49.0918 Y85.6605 
G01 X49.1267 Y85.4851 
G01 X49.1952 Y85.3198 
G01 X49.2946 Y85.1711 
G01 X49.4211 Y85.0446 
G01 X49.5698 Y84.9452 
G01 X49.7351 Y84.8767 
G01 X49.9105 Y84.8418 
G01 X50.0894 Y84.8418 
G01 X50.2649 Y84.8767 
G01 X50.4302 Y84.9452 
G01 X50.5789 Y85.0446 
G01 X50.7054 Y85.1711 
G01 X50.8048 Y85.3198 
G01 X50.8733 Y85.4851 
G01 X50.9082 Y85.6605 
G01 X50.9082 Y88.9105 
G00 Z2.5000 
G00 X5.0918 Y11.0895 
G01 Z-0.1000 F254.00 
G01 X5.0918 Y10.7679 F400.00 
G01 X5.1282 Y10.3050 
G01 X5.2009 Y9.8465 
G01 X5.3092 Y9.3950 
G01 X5.4527 Y8.9535 
G01 X5.6304 Y8.5246 
G01 X5.8411 Y8.1109 
G01 X6.0837 Y7.7150 
G01 X6.3566 Y7.3395 
G01 X6.6581 Y6.9864 
G01 X6.9864 Y6.6581 
G01 X7.3394 Y6.3566 
G01 X7.7150 Y6.0837 
G01 X8.1109 Y5.8411 
G01 X8.5246 Y5.6304 
G01 X8.9535 Y5.4527 
G01 X9.3950 Y5.3092 
G01 X9.8465 Y5.2009 
G01 X10.3050 Y5.1282 
G01 X10.7679 Y5.0918 
G01 X13.8395 Y5.0918 
G01 X14.0149 Y5.1267 
G01 X14.1802 Y5.1952 
G01 X14.3289 Y5.2946 
G01 X14.4554 Y5.4211 
G01 X14.5548 Y5.5698 
G01 X14.6233 Y5.7351 
G01 X14.6582 Y5.9105 
G01 X14.6582 Y6.0895 
G01 X14.6233 Y6.2649 
G01 X14.5548 Y6.4302 
G01 X14.4554 Y6.5789 
G01 X14.3289 Y6.7054 
G01 X14.1802 Y6.8048 
G01 X14.0149 Y6.8733 
G01 X13.8395 Y6.9082 
G01 X11.0000 Y6.9082 
G01 X10.8394 Y6.9114 
G01 X10.5191 Y6.9366 
G01 X10.2017 Y6.9868 
G01 X9.8893 Y7.0618 
G01 X9.5838 Y7.1611 
G01 X9.2869 Y7.2841 
G01 X9.0007 Y7.4299 
G01 X8.7267 Y7.5978 
G01 X8.4668 Y7.7866 
G01 X8.2225 Y7.9953 
G01 X7.9953 Y8.2225 
G01 X7.7866 Y8.4668 
G01 X7.5978 Y8.7267 
G01 X7.4299 Y9.0007 
G01 X7.2841 Y9.2869 
G01 X7.1611 Y9.5838 
G01 X7.0618 Y9.8893 
G01 X6.9868 Y10.2017 
G01 X6.9366 Y10.5191 
G01 X6.9114 Y10.8394 
G01 X6.9082 Y11.0000 
G01 X6.9082 Y13.8395 
G01 X6.8733 Y14.0149 
G01 X6.8048 Y14.1802 
G01 X6.7054 Y14.3289 
G01 X6.5789 Y14.4554 
G01 X6.4302 Y14.5548 
G01 X6.2649 Y14.6233 
G01 X6.0895 Y14.6582 
G01 X5.9105 Y14.6582 
G01 X5.7351 Y14.6233 
G01 X5.5698 Y14.5548 
G01 X5.4211 Y14.4554 
G01 X5.2946 Y14.3289 
G01 X5.1952 Y14.1802 
G01 X5.1267 Y14.0149 
G01 X5.0918 Y13.8395 
G01 X5.0918 Y11.0895 
G00 Z2.5000 
G00 X45.2321 Y5.0918 
G01 Z-0.1000 F254.00 
G01 X45.6950 Y5.1282 F400.00 
G01 X46.1535 Y5.2009 
G01 X46.6050 Y5.3092 
G01 X47.0465 Y5.4527 
G01 X47.4754 Y5.6304 
G01 X47.8891 Y5.8411 
G01 X48.2849 Y6.0837 
G01 X48.6605 Y6.3566 
G01 X49.0136 Y6.6581 
G01 X49.3419 Y6.9864 
G01 X49.6434 Y7.3394 
G01 X49.9163 Y7.7150 
G01 X50.1589 Y8.1109 
G01 X50.3696 Y8.5246 
G01 X50.5473 Y8.9535 
G01 X50.6908 Y9.3950 
G01 X50.7991 Y9.8465 
G01 X50.8718 Y10.3050 
G01 X50.9082 Y10.7679 
G01 X50.9082 Y14.0895 
G01 X50.8733 Y14.2649 
G01 X50.8048 Y14.4302 
G01 X50.7054 Y14.5789 
G01 X50.5789 Y14.7054 
G01 X50.4302 Y14.8048 
G01 X50.2649 Y14.8733 
G01 X50.0894 Y14.9082 
G01 X49.9105 Y14.9082 
G01 X49.7351 Y14.8733 
G01 X49.5698 Y14.8048 
G01 X49.4211 Y14.7054 
G01 X49.2946 Y14.5789 
G01 X49.1952 Y14.4302 
G01 X49.1267 Y14.2649 
G01 X49.0918 Y14.0895 
G01 X49.0918 Y11.0000 
G01 X49.0886 Y10.8394 
G01 X49.0634 Y10.5191 
G01 X49.0132 Y10.2017 
G01 X48.9382 Y9.8893 
G01 X48.8389 Y9.5838 
G01 X48.7159 Y9.2869 
G01 X48.5701 Y9.0007 
G01 X48.4022 Y8.7267 
G01 X48.2134 Y8.4668 
G01 X48.0047 Y8.2225 
G01 X47.7775 Y7.9953 
G01 X47.5332 Y7.7866 
G01 X47.2733 Y7.5978 
G01 X46.9993 Y7.4299 
G01 X46.7131 Y7.2841 
G01 X46.4162 Y7.1611 
G01 X46.1107 Y7.0618 
G01 X45.7983 Y6.9868 
G01 X45.4809 Y6.9366 
G01 X45.1606 Y6.9114 
G01 X45.0000 Y6.9082 
G01 X41.9105 Y6.9082 
G01 X41.7351 Y6.8733 
G01 X41.5698 Y6.8048 
G01 X41.4211 Y6.7054 
G01 X41.2946 Y6.5789 
G01 X41.1952 Y6.4302 
G01 X41.1267 Y6.2649 
G01 X41.0918 Y6.0895 
G01 X41.0918 Y5.9105 
G01 X41.1267 Y5.7351 
G01 X41.1952 Y5.5698 
G01 X41.2946 Y5.4211 
G01 X41.4211 Y5.2946 
G01 X41.5698 Y5.1952 
G01 X41.7351 Y5.1267 
G01 X41.9105 Y5.0918 
G01 X45.0894 Y5.0918 
G01 X45.2321 Y5.0918 
G00 Z2.5000 
G00 X2.5918 Y10.7247 
G01 Z-0.1000 F254.00 
G01 X2.6278 Y10.1754 F400.00 
G01 X2.6997 Y9.6296 
G01 X2.8071 Y9.0897 
G01 X2.9495 Y8.5579 
G01 X3.1265 Y8.0366 
G01 X3.3372 Y7.5280 
G01 X3.5807 Y7.0343 
G01 X3.8559 Y6.5575 
G01 X4.1618 Y6.0998 
G01 X4.4969 Y5.6630 
G01 X4.8599 Y5.2491 
G01 X5.2491 Y4.8599 
G01 X5.6630 Y4.4969 
G01 X6.0998 Y4.1618 
G01 X6.5575 Y3.8559 
G01 X7.0343 Y3.5807 
G01 X7.5280 Y3.3372 
G01 X8.0366 Y3.1265 
G01 X8.5579 Y2.9495 
G01 X9.0897 Y2.8071 
G01 X9.6296 Y2.6997 
G01 X10.1754 Y2.6278 
G01 X10.7247 Y2.5918 
G01 X45.2753 Y2.5918 
G01 X45.8246 Y2.6278 
G01 X46.3704 Y2.6997 
G01 X46.9103 Y2.8071 
G01 X47.4421 Y2.9495 
G01 X47.9634 Y3.1265 
G01 X48.4720 Y3.3372 
G01 X48.9657 Y3.5807 
G01 X49.4425 Y3.8559 
G01 X49.9002 Y4.1618 
G01 X50.3370 Y4.4969 
G01 X50.7509 Y4.8599 
G01 X51.1401 Y5.2491 
G01 X51.5031 Y5.6630 
G01 X51.8382 Y6.0998 
G01 X52.1441 Y6.5575 
G01 X52.4193 Y7.0343 
G01 X52.6628 Y7.5280 
G01 X52.8735 Y8.0366 
G01 X53.0505 Y8.5579 
G01 X53.1929 Y9.0897 
G01 X53.3003 Y9.6296 
G01 X53.3722 Y10.1754 
G01 X53.4082 Y10.7247 
G01 X53.4082 Y89.5287 
G01 X53.3702 Y90.0848 
G01 X53.2943 Y90.6370 
G01 X53.1809 Y91.1827 
G01 X53.0305 Y91.7194 
G01 X52.8438 Y92.2446 
G01 X52.6218 Y92.7559 
G01 X52.3653 Y93.2507 
G01 X52.0757 Y93.7270 
G01 X51.7543 Y94.1824 
G01 X51.4025 Y94.6147 
G01 X51.0221 Y95.0221 
G01 X50.6147 Y95.4025 
G01 X50.1824 Y95.7543 
G01 X49.7270 Y96.0757 
G01 X49.2507 Y96.3653 
G01 X48.7559 Y96.6218 
G01 X48.2446 Y96.8438 
G01 X47.7194 Y97.0305 
G01 X47.1827 Y97.1809 
G01 X46.6370 Y97.2943 
G01 X46.0848 Y97.3702 
G01 X45.5287 Y97.4082 
G01 X10.7247 Y97.4082 
G01 X10.1754 Y97.3722 
G01 X9.6296 Y97.3003 
G01 X9.0897 Y97.1929 
G01 X8.5579 Y97.0505 
G01 X8.0366 Y96.8735 
G01 X7.5280 Y96.6628 
G01 X7.0343 Y96.4193 
G01 X6.5575 Y96.1441 
G01 X6.0998 Y95.8382 
G01 X5.6630 Y95.5031 
G01 X5.2491 Y95.1401 
G01 X4.8599 Y94.7509 
G01 X4.4969 Y94.3370 
G01 X4.1618 Y93.9002 
G01 X3.8559 Y93.4425 
G01 X3.5807 Y92.9657 
G01 X3.3372 Y92.4720 
G01 X3.1265 Y91.9634 
G01 X2.9495 Y91.4421 
G01 X2.8071 Y90.9103 
G01 X2.6997 Y90.3704 
G01 X2.6278 Y89.8246 
G01 X2.5918 Y89.2753 
G01 X2.5918 Y53.9105 
G01 X2.6267 Y53.7351 
G01 X2.6952 Y53.5698 
G01 X2.7946 Y53.4211 
G01 X2.9211 Y53.2946 
G01 X3.0698 Y53.1952 
G01 X3.2351 Y53.1267 
G01 X3.2464 Y53.1245 
G01 X5.6332 Y49.6528 
G01 X5.6357 Y49.6472 
G01 X5.6725 Y49.5956 
G01 X5.7084 Y49.5434 
G01 X5.7128 Y49.5391 
G01 X5.7163 Y49.5341 
G01 X5.7624 Y49.4908 
G01 X5.8079 Y49.4465 
G01 X5.8130 Y49.4431 
G01 X5.8175 Y49.4390 
G01 X5.8711 Y49.4054 
G01 X5.9244 Y49.3709 
G01 X5.9300 Y49.3686 
G01 X9.3882 Y47.2072 
G01 X9.4452 Y47.0698 
G01 X9.5446 Y46.9211 
G01 X9.6711 Y46.7946 
G01 X9.8198 Y46.6952 
G01 X9.9851 Y46.6267 
G01 X10.1605 Y46.5918 
G01 X46.0894 Y46.5918 
G01 X46.2649 Y46.6267 
G01 X46.4302 Y46.6952 
G01 X46.5789 Y46.7946 
G01 X46.7054 Y46.9211 
G01 X46.8048 Y47.0698 
G01 X46.8733 Y47.2351 
G01 X46.9082 Y47.4105 
G01 X46.9082 Y47.5894 
G01 X46.8733 Y47.7649 
G01 X46.8048 Y47.9302 
G01 X46.7054 Y48.0789 
G01 X46.5789 Y48.2054 
G01 X46.4302 Y48.3048 
G01 X46.2649 Y48.3733 
G01 X46.0894 Y48.4082 
G01 X10.1605 Y48.4082 
G01 X10.1351 Y48.4031 
G01 X6.7479 Y50.5202 
G01 X4.4082 Y53.9234 
G01 X4.4082 Y89.0000 
G01 X4.4117 Y89.2157 
G01 X4.4399 Y89.6461 
G01 X4.4962 Y90.0738 
G01 X4.5804 Y90.4968 
G01 X4.6920 Y90.9135 
G01 X4.8307 Y91.3220 
G01 X4.9958 Y91.7205 
G01 X5.1866 Y92.1074 
G01 X5.4022 Y92.4809 
G01 X5.6419 Y92.8396 
G01 X5.9045 Y93.1818 
G01 X6.1889 Y93.5061 
G01 X6.4939 Y93.8111 
G01 X6.8182 Y94.0955 
G01 X7.1604 Y94.3581 
G01 X7.5191 Y94.5978 
G01 X7.8926 Y94.8134 
G01 X8.2795 Y95.0042 
G01 X8.6780 Y95.1693 
G01 X9.0865 Y95.3080 
G01 X9.5032 Y95.4196 
G01 X9.9262 Y95.5038 
G01 X10.3539 Y95.5601 
G01 X10.7843 Y95.5883 
G01 X11.0000 Y95.5918 
G01 X45.2500 Y95.5918 
G01 X45.4665 Y95.5881 
G01 X45.8985 Y95.5586 
G01 X46.3275 Y95.4996 
G01 X46.7515 Y95.4115 
G01 X47.1685 Y95.2947 
G01 X47.5765 Y95.1496 
G01 X47.9737 Y94.9771 
G01 X48.3582 Y94.7779 
G01 X48.7282 Y94.5529 
G01 X49.0819 Y94.3032 
G01 X49.4179 Y94.0299 
G01 X49.7343 Y93.7343 
G01 X50.0299 Y93.4179 
G01 X50.3032 Y93.0819 
G01 X50.5529 Y92.7282 
G01 X50.7779 Y92.3582 
G01 X50.9771 Y91.9737 
G01 X51.1496 Y91.5765 
G01 X51.2947 Y91.1685 
G01 X51.4115 Y90.7515 
G01 X51.4996 Y90.3275 
G01 X51.5586 Y89.8985 
G01 X51.5881 Y89.4665 
G01 X51.5918 Y89.2500 
G01 X51.5918 Y11.0000 
G01 X51.5883 Y10.7843 
G01 X51.5601 Y10.3539 
G01 X51.5038 Y9.9262 
G01 X51.4196 Y9.5032 
G01 X51.3080 Y9.0865 
G01 X51.1693 Y8.6780 
G01 X51.0042 Y8.2795 
G01 X50.8134 Y7.8926 
G01 X50.5978 Y7.5191 
G01 X50.3581 Y7.1604 
G01 X50.0955 Y6.8182 
G01 X49.8111 Y6.4939 
G01 X49.5061 Y6.1889 
G01 X49.1818 Y5.9045 
G01 X48.8396 Y5.6419 
G01 X48.4809 Y5.4022 
G01 X48.1074 Y5.1866 
G01 X47.7205 Y4.9958 
G01 X47.3220 Y4.8307 
G01 X46.9135 Y4.6920 
G01 X46.4968 Y4.5804 
G01 X46.0738 Y4.4962 
G01 X45.6461 Y4.4399 
G01 X45.2157 Y4.4117 
G01 X45.0000 Y4.4082 
G01 X11.0000 Y4.4082 
G01 X10.7843 Y4.4117 
G01 X10.3539 Y4.4399 
G01 X9.9262 Y4.4962 
G01 X9.5032 Y4.5804 
G01 X9.0865 Y4.6920 
G01 X8.6780 Y4.8307 
G01 X8.2795 Y4.9958 
G01 X7.8926 Y5.1866 
G01 X7.5191 Y5.4022 
G01 X7.1604 Y5.6419 
G01 X6.8182 Y5.9045 
G01 X6.4939 Y6.1889 
G01 X6.1889 Y6.4939 
G01 X5.9045 Y6.8182 
G01 X5.6419 Y7.1604 
G01 X5.4022 Y7.5191 
G01 X5.1866 Y7.8926 
G01 X4.9958 Y8.2795 
G01 X4.8307 Y8.6780 
G01 X4.6920 Y9.0865 
G01 X4.5804 Y9.5032 
G01 X4.4962 Y9.9262 
G01 X4.4399 Y10.3539 
G01 X4.4117 Y10.7843 
G01 X4.4082 Y10.9999 
G01 X4.4082 Y46.0894 
G01 X4.3733 Y46.2649 
G01 X4.3048 Y46.4302 
G01 X4.2054 Y46.5789 
G01 X4.0789 Y46.7054 
G01 X3.9302 Y46.8048 
G01 X3.7649 Y46.8733 
G01 X3.5895 Y46.9082 
G01 X3.4105 Y46.9082 
G01 X3.2351 Y46.8733 
G01 X3.0698 Y46.8048 
G01 X2.9211 Y46.7054 
G01 X2.7946 Y46.5789 
G01 X2.6952 Y46.4302 
G01 X2.6267 Y46.2649 
G01 X2.5918 Y46.0894 
G01 X2.5918 Y10.9105 
G01 X2.5918 Y10.7247 
G00 Z2.5000 
G00 X45.0700 Y54.9861 
G01 Z-0.1000 F254.00 
G01 X45.0700 Y89.0139 F400.00 
G01 X45.0593 Y89.0397 
G01 X45.0397 Y89.0593 
G01 X45.0139 Y89.0700 
G01 X10.9861 Y89.0700 
G01 X10.9603 Y89.0593 
G01 X10.9407 Y89.0397 
G01 X10.9300 Y89.0139 
G01 X10.9300 Y54.9861 
G01 X10.9407 Y54.9603 
G01 X10.9603 Y54.9407 
G01 X10.9861 Y54.9300 
G01 X45.0139 Y54.9300 
G01 X45.0397 Y54.9407 
G01 X45.0593 Y54.9603 
G01 X45.0700 Y54.9861 
G00 Z2.5000 
G00 X45.0700 Y10.9861 
G01 Z-0.1000 F254.00 
G01 X45.0700 Y45.0139 F400.00 
G01 X45.0593 Y45.0397 
G01 X45.0397 Y45.0593 
G01 X45.0139 Y45.0700 
G01 X10.9861 Y45.0700 
G01 X10.9603 Y45.0593 
G01 X10.9407 Y45.0397 
G01 X10.9300 Y45.0139 
G01 X10.9300 Y10.9861 
G01 X10.9407 Y10.9603 
G01 X10.9603 Y10.9407 
G01 X10.9861 Y10.9300 
G01 X45.0139 Y10.9300 
G01 X45.0397 Y10.9407 
G01 X45.0593 Y10.9603 
G01 X45.0700 Y10.9861 
G00 Z2.5000 
G00 X10.7679 Y94.9082 
G01 Z-0.1000 F254.00 
G01 X10.3050 Y94.8718 F400.00 
G01 X9.8465 Y94.7991 
G01 X9.3950 Y94.6908 
G01 X8.9535 Y94.5473 
G01 X8.5246 Y94.3696 
G01 X8.1109 Y94.1589 
G01 X7.7151 Y93.9163 
G01 X7.3395 Y93.6434 
G01 X6.9864 Y93.3419 
G01 X6.6581 Y93.0136 
G01 X6.3566 Y92.6606 
G01 X6.0837 Y92.2850 
G01 X5.8411 Y91.8891 
G01 X5.6304 Y91.4754 
G01 X5.4527 Y91.0465 
G01 X5.3092 Y90.6050 
G01 X5.2009 Y90.1535 
G01 X5.1282 Y89.6950 
G01 X5.0918 Y89.2321 
G01 X5.0918 Y85.4105 
G01 X5.1267 Y85.2351 
G01 X5.1952 Y85.0698 
G01 X5.2946 Y84.9211 
G01 X5.4211 Y84.7946 
G01 X5.5698 Y84.6952 
G01 X5.7351 Y84.6267 
G01 X5.9105 Y84.5918 
G01 X6.0895 Y84.5918 
G01 X6.2649 Y84.6267 
G01 X6.4302 Y84.6952 
G01 X6.5789 Y84.7946 
G01 X6.7054 Y84.9211 
G01 X6.8048 Y85.0698 
G01 X6.8733 Y85.2351 
G01 X6.9082 Y85.4105 
G01 X6.9082 Y89.0000 
G01 X6.9114 Y89.1606 
G01 X6.9366 Y89.4809 
G01 X6.9868 Y89.7983 
G01 X7.0618 Y90.1107 
G01 X7.1611 Y90.4162 
G01 X7.2841 Y90.7131 
G01 X7.4299 Y90.9993 
G01 X7.5978 Y91.2733 
G01 X7.7866 Y91.5332 
G01 X7.9953 Y91.7775 
G01 X8.2225 Y92.0047 
G01 X8.4668 Y92.2134 
G01 X8.7267 Y92.4022 
G01 X9.0007 Y92.5701 
G01 X9.2869 Y92.7159 
G01 X9.5838 Y92.8389 
G01 X9.8893 Y92.9382 
G01 X10.2017 Y93.0132 
G01 X10.5191 Y93.0634 
G01 X10.8394 Y93.0886 
G01 X11.0000 Y93.0918 
G01 X13.8395 Y93.0918 
G01 X14.0149 Y93.1267 
G01 X14.1802 Y93.1952 
G01 X14.3289 Y93.2946 
G01 X14.4554 Y93.4211 
G01 X14.5548 Y93.5698 
G01 X14.6233 Y93.7351 
G01 X14.6582 Y93.9105 
G01 X14.6582 Y94.0894 
G01 X14.6233 Y94.2649 
G01 X14.5548 Y94.4302 
G01 X14.4554 Y94.5789 
G01 X14.3289 Y94.7054 
G01 X14.1802 Y94.8048 
G01 X14.0149 Y94.8733 
G01 X13.8395 Y94.9082 
G01 X10.9105 Y94.9082 
G01 X10.7679 Y94.9082 
G00 Z2.5000 
G00 X13.0895 Y50.9082 
G01 Z-0.1000 F254.00 
G01 X10.4105 Y50.9082 F400.00 
G01 X10.3348 Y50.8931 
G01 X8.1767 Y52.0703 
G01 X8.0703 Y52.1767 
G01 X6.8931 Y54.3348 
G01 X6.9082 Y54.4105 
G01 X6.9082 Y58.0894 
G01 X6.8733 Y58.2649 
G01 X6.8048 Y58.4302 
G01 X6.7054 Y58.5789 
G01 X6.5789 Y58.7054 
G01 X6.4302 Y58.8048 
G01 X6.2649 Y58.8733 
G01 X6.0895 Y58.9082 
G01 X5.9105 Y58.9082 
G01 X5.7351 Y58.8733 
G01 X5.5698 Y58.8048 
G01 X5.4211 Y58.7054 
G01 X5.2946 Y58.5789 
G01 X5.1952 Y58.4302 
G01 X5.1267 Y58.2649 
G01 X5.0918 Y58.0894 
G01 X5.0918 Y54.4105 
G01 X5.1267 Y54.2351 
G01 X5.1952 Y54.0698 
G01 X5.2946 Y53.9211 
G01 X5.4211 Y53.7946 
G01 X5.5698 Y53.6952 
G01 X5.6553 Y53.6598 
G01 X6.8631 Y51.4454 
G01 X6.8752 Y51.4161 
G01 X6.8962 Y51.3846 
G01 X6.9143 Y51.3514 
G01 X6.9347 Y51.3270 
G01 X6.9524 Y51.3006 
G01 X6.9791 Y51.2739 
G01 X7.0033 Y51.2448 
G01 X7.0281 Y51.2249 
G01 X7.2249 Y51.0281 
G01 X7.2449 Y51.0033 
G01 X7.2739 Y50.9791 
G01 X7.3006 Y50.9524 
G01 X7.3270 Y50.9347 
G01 X7.3515 Y50.9143 
G01 X7.3846 Y50.8962 
G01 X7.4161 Y50.8752 
G01 X7.4454 Y50.8631 
G01 X9.6598 Y49.6553 
G01 X9.6952 Y49.5698 
G01 X9.7946 Y49.4211 
G01 X9.9211 Y49.2946 
G01 X10.0698 Y49.1952 
G01 X10.2351 Y49.1267 
G01 X10.4105 Y49.0918 
G01 X13.0895 Y49.0918 
G01 X13.2649 Y49.1267 
G01 X13.4302 Y49.1952 
G01 X13.5789 Y49.2946 
G01 X13.7054 Y49.4211 
G01 X13.8048 Y49.5698 
G01 X13.8733 Y49.7351 
G01 X13.9082 Y49.9105 
G01 X13.9082 Y50.0894 
G01 X13.8733 Y50.2649 
G01 X13.8048 Y50.4302 
G01 X13.7054 Y50.5789 
G01 X13.5789 Y50.7054 
G01 X13.4302 Y50.8048 
G01 X13.2649 Y50.8733 
G01 X13.0895 Y50.9082 
G00 Z2.5000 
G00 X5.5236 Y36.0627 
G01 Z-0.1000 F254.00 
G01 X5.5236 Y36.0587 F400.00 
G01 X5.0388 Y34.1194 
G01 X5.0236 Y34.0627 
G01 X5.0236 Y34.0586 
G01 X5.0226 Y34.0547 
G01 X5.0236 Y33.9960 
G01 X5.0236 Y33.9373 
G01 X5.0247 Y33.9333 
G01 X5.0247 Y33.9293 
G01 X5.0409 Y33.8728 
G01 X5.0561 Y33.8161 
G01 X5.0581 Y33.8126 
G01 X5.0592 Y33.8087 
G01 X5.0894 Y33.7584 
G01 X5.1188 Y33.7075 
G01 X5.1217 Y33.7046 
G01 X5.1238 Y33.7011 
G01 X5.1659 Y33.6604 
G01 X5.2075 Y33.6188 
G01 X5.2110 Y33.6168 
G01 X5.2139 Y33.6139 
G01 X5.2653 Y33.5854 
G01 X5.3161 Y33.5561 
G01 X5.3200 Y33.5550 
G01 X5.3236 Y33.5530 
G01 X5.3806 Y33.5388 
G01 X5.4373 Y33.5236 
G01 X5.4413 Y33.5236 
G01 X5.4453 Y33.5226 
G01 X5.5040 Y33.5236 
G01 X5.5236 Y33.5236 
G01 X5.5236 Y31.9373 
G01 X5.5561 Y31.8161 
G01 X5.6188 Y31.7075 
G01 X5.7075 Y31.6188 
G01 X5.8161 Y31.5561 
G01 X5.9373 Y31.5236 
G01 X6.0627 Y31.5236 
G01 X6.1839 Y31.5561 
G01 X6.2925 Y31.6188 
G01 X6.3812 Y31.7075 
G01 X6.4439 Y31.8161 
G01 X6.4764 Y31.9373 
G01 X6.4764 Y33.5236 
G01 X6.4960 Y33.5236 
G01 X6.5547 Y33.5226 
G01 X6.5586 Y33.5236 
G01 X6.5627 Y33.5236 
G01 X6.6194 Y33.5388 
G01 X6.6764 Y33.5530 
G01 X6.6800 Y33.5550 
G01 X6.6839 Y33.5561 
G01 X6.7347 Y33.5854 
G01 X6.7861 Y33.6139 
G01 X6.7890 Y33.6168 
G01 X6.7925 Y33.6188 
G01 X6.8341 Y33.6603 
G01 X6.8762 Y33.7011 
G01 X6.8783 Y33.7046 
G01 X6.8812 Y33.7075 
G01 X6.9106 Y33.7584 
G01 X6.9408 Y33.8087 
G01 X6.9419 Y33.8126 
G01 X6.9439 Y33.8161 
G01 X6.9591 Y33.8728 
G01 X6.9753 Y33.9293 
G01 X6.9753 Y33.9333 
G01 X6.9764 Y33.9373 
G01 X6.9764 Y33.9960 
G01 X6.9774 Y34.0547 
G01 X6.9764 Y34.0586 
G01 X6.9764 Y34.0627 
G01 X6.9612 Y34.1194 
G01 X6.4764 Y36.0587 
G01 X6.4764 Y36.0627 
G01 X6.4753 Y36.0667 
G01 X6.4753 Y36.0707 
G01 X6.4602 Y36.1233 
G01 X6.4470 Y36.1764 
G01 X6.4450 Y36.1800 
G01 X6.4439 Y36.1839 
G01 X6.4419 Y36.1874 
G01 X6.4408 Y36.1913 
G01 X6.4127 Y36.2382 
G01 X6.3861 Y36.2861 
G01 X6.3832 Y36.2890 
G01 X6.3812 Y36.2925 
G01 X6.3783 Y36.2954 
G01 X6.3762 Y36.2989 
G01 X6.3369 Y36.3369 
G01 X6.2989 Y36.3762 
G01 X6.2954 Y36.3783 
G01 X6.2925 Y36.3812 
G01 X6.2890 Y36.3832 
G01 X6.2861 Y36.3861 
G01 X6.2382 Y36.4127 
G01 X6.1913 Y36.4408 
G01 X6.1874 Y36.4419 
G01 X6.1839 Y36.4439 
G01 X6.1800 Y36.4450 
G01 X6.1764 Y36.4470 
G01 X6.1233 Y36.4602 
G01 X6.0707 Y36.4753 
G01 X6.0666 Y36.4753 
G01 X6.0627 Y36.4764 
G01 X6.0586 Y36.4764 
G01 X6.0547 Y36.4774 
G01 X6.0000 Y36.4765 
G01 X5.9453 Y36.4774 
G01 X5.9413 Y36.4764 
G01 X5.9373 Y36.4764 
G01 X5.9333 Y36.4753 
G01 X5.9293 Y36.4753 
G01 X5.8767 Y36.4602 
G01 X5.8236 Y36.4470 
G01 X5.8200 Y36.4450 
G01 X5.8161 Y36.4439 
G01 X5.8126 Y36.4419 
G01 X5.8087 Y36.4408 
G01 X5.7618 Y36.4127 
G01 X5.7139 Y36.3861 
G01 X5.7110 Y36.3832 
G01 X5.7075 Y36.3812 
G01 X5.7046 Y36.3783 
G01 X5.7011 Y36.3762 
G01 X5.6631 Y36.3369 
G01 X5.6238 Y36.2989 
G01 X5.6217 Y36.2954 
G01 X5.6188 Y36.2925 
G01 X5.6168 Y36.2890 
G01 X5.6139 Y36.2861 
G01 X5.5873 Y36.2382 
G01 X5.5592 Y36.1913 
G01 X5.5581 Y36.1874 
G01 X5.5561 Y36.1839 
G01 X5.5550 Y36.1800 
G01 X5.5530 Y36.1764 
G01 X5.5398 Y36.1233 
G01 X5.5247 Y36.0707 
G01 X5.5247 Y36.0666 
G01 X5.5236 Y36.0627 
G00 Z2.5000 
G00 X50.4764 Y30.9373 
G01 Z-0.1000 F254.00 
G01 X50.4764 Y30.9413 F400.00 
G01 X50.9612 Y32.8806 
G01 X50.9764 Y32.9373 
G01 X50.9764 Y32.9413 
G01 X50.9774 Y32.9453 
G01 X50.9764 Y33.0040 
G01 X50.9764 Y33.0627 
G01 X50.9753 Y33.0666 
G01 X50.9753 Y33.0707 
G01 X50.9591 Y33.1272 
G01 X50.9439 Y33.1839 
G01 X50.9419 Y33.1874 
G01 X50.9408 Y33.1913 
G01 X50.9106 Y33.2416 
G01 X50.8812 Y33.2925 
G01 X50.8783 Y33.2954 
G01 X50.8762 Y33.2989 
G01 X50.8341 Y33.3396 
G01 X50.7925 Y33.3812 
G01 X50.7890 Y33.3832 
G01 X50.7861 Y33.3861 
G01 X50.7347 Y33.4146 
G01 X50.6839 Y33.4439 
G01 X50.6800 Y33.4450 
G01 X50.6764 Y33.4470 
G01 X50.6194 Y33.4612 
G01 X50.5627 Y33.4764 
G01 X50.5586 Y33.4764 
G01 X50.5547 Y33.4774 
G01 X50.4960 Y33.4764 
G01 X50.4764 Y33.4764 
G01 X50.4764 Y35.0627 
G01 X50.4439 Y35.1839 
G01 X50.3812 Y35.2925 
G01 X50.2925 Y35.3812 
G01 X50.1839 Y35.4439 
G01 X50.0627 Y35.4764 
G01 X49.9373 Y35.4764 
G01 X49.8161 Y35.4439 
G01 X49.7075 Y35.3812 
G01 X49.6188 Y35.2925 
G01 X49.5561 Y35.1839 
G01 X49.5236 Y35.0627 
G01 X49.5236 Y33.4764 
G01 X49.5040 Y33.4764 
G01 X49.4453 Y33.4774 
G01 X49.4413 Y33.4764 
G01 X49.4373 Y33.4764 
G01 X49.3806 Y33.4612 
G01 X49.3236 Y33.4470 
G01 X49.3200 Y33.4450 
G01 X49.3161 Y33.4439 
G01 X49.2653 Y33.4146 
G01 X49.2139 Y33.3861 
G01 X49.2110 Y33.3832 
G01 X49.2075 Y33.3812 
G01 X49.1659 Y33.3396 
G01 X49.1238 Y33.2989 
G01 X49.1217 Y33.2954 
G01 X49.1188 Y33.2925 
G01 X49.0894 Y33.2416 
G01 X49.0592 Y33.1913 
G01 X49.0581 Y33.1874 
G01 X49.0561 Y33.1839 
G01 X49.0409 Y33.1272 
G01 X49.0247 Y33.0707 
G01 X49.0247 Y33.0667 
G01 X49.0236 Y33.0627 
G01 X49.0236 Y33.0040 
G01 X49.0226 Y32.9453 
G01 X49.0236 Y32.9414 
G01 X49.0236 Y32.9373 
G01 X49.0388 Y32.8806 
G01 X49.5236 Y30.9413 
G01 X49.5236 Y30.9373 
G01 X49.5247 Y30.9333 
G01 X49.5247 Y30.9293 
G01 X49.5398 Y30.8767 
G01 X49.5530 Y30.8236 
G01 X49.5550 Y30.8200 
G01 X49.5561 Y30.8161 
G01 X49.5581 Y30.8126 
G01 X49.5592 Y30.8087 
G01 X49.5873 Y30.7618 
G01 X49.6139 Y30.7139 
G01 X49.6167 Y30.7110 
G01 X49.6188 Y30.7075 
G01 X49.6217 Y30.7046 
G01 X49.6238 Y30.7011 
G01 X49.6631 Y30.6631 
G01 X49.7011 Y30.6238 
G01 X49.7046 Y30.6217 
G01 X49.7075 Y30.6188 
G01 X49.7110 Y30.6167 
G01 X49.7139 Y30.6139 
G01 X49.7618 Y30.5873 
G01 X49.8087 Y30.5592 
G01 X49.8126 Y30.5581 
G01 X49.8161 Y30.5561 
G01 X49.8200 Y30.5550 
G01 X49.8236 Y30.5530 
G01 X49.8767 Y30.5398 
G01 X49.9293 Y30.5247 
G01 X49.9333 Y30.5247 
G01 X49.9373 Y30.5236 
G01 X49.9414 Y30.5236 
G01 X49.9453 Y30.5226 
G01 X50.0000 Y30.5235 
G01 X50.0547 Y30.5226 
G01 X50.0586 Y30.5236 
G01 X50.0627 Y30.5236 
G01 X50.0667 Y30.5247 
G01 X50.0707 Y30.5247 
G01 X50.1233 Y30.5398 
G01 X50.1764 Y30.5530 
G01 X50.1800 Y30.5550 
G01 X50.1839 Y30.5561 
G01 X50.1874 Y30.5581 
G01 X50.1913 Y30.5592 
G01 X50.2382 Y30.5873 
G01 X50.2861 Y30.6139 
G01 X50.2890 Y30.6167 
G01 X50.2925 Y30.6188 
G01 X50.2954 Y30.6217 
G01 X50.2989 Y30.6238 
G01 X50.3369 Y30.6631 
G01 X50.3762 Y30.7011 
G01 X50.3783 Y30.7046 
G01 X50.3812 Y30.7075 
G01 X50.3833 Y30.7110 
G01 X50.3861 Y30.7139 
G01 X50.4127 Y30.7618 
G01 X50.4408 Y30.8087 
G01 X50.4419 Y30.8126 
G01 X50.4439 Y30.8161 
G01 X50.4450 Y30.8200 
G01 X50.4470 Y30.8236 
G01 X50.4602 Y30.8767 
G01 X50.4753 Y30.9293 
G01 X50.4753 Y30.9333 
G01 X50.4764 Y30.9373 
G00 Z2.5000 
G00 X28.0627 Y94.4764 
G01 Z-0.1000 F254.00 
G01 X28.0587 Y94.4764 F400.00 
G01 X26.1194 Y94.9612 
G01 X26.0627 Y94.9764 
G01 X26.0586 Y94.9764 
G01 X26.0547 Y94.9774 
G01 X25.9960 Y94.9764 
G01 X25.9373 Y94.9764 
G01 X25.9333 Y94.9753 
G01 X25.9293 Y94.9753 
G01 X25.8728 Y94.9591 
G01 X25.8161 Y94.9439 
G01 X25.8126 Y94.9419 
G01 X25.8087 Y94.9408 
G01 X25.7584 Y94.9106 
G01 X25.7075 Y94.8812 
G01 X25.7046 Y94.8783 
G01 X25.7011 Y94.8762 
G01 X25.6604 Y94.8341 
G01 X25.6188 Y94.7925 
G01 X25.6167 Y94.7890 
G01 X25.6139 Y94.7861 
G01 X25.5854 Y94.7347 
G01 X25.5561 Y94.6839 
G01 X25.5550 Y94.6800 
G01 X25.5530 Y94.6764 
G01 X25.5388 Y94.6194 
G01 X25.5236 Y94.5627 
G01 X25.5236 Y94.5586 
G01 X25.5226 Y94.5547 
G01 X25.5236 Y94.4960 
G01 X25.5236 Y94.4764 
G01 X24.1873 Y94.4764 
G01 X24.0661 Y94.4439 
G01 X23.9575 Y94.3812 
G01 X23.8688 Y94.2925 
G01 X23.8061 Y94.1839 
G01 X23.7736 Y94.0627 
G01 X23.7736 Y93.9373 
G01 X23.8061 Y93.8161 
G01 X23.8688 Y93.7075 
G01 X23.9575 Y93.6188 
G01 X24.0661 Y93.5561 
G01 X24.1873 Y93.5236 
G01 X25.5236 Y93.5236 
G01 X25.5236 Y93.5040 
G01 X25.5226 Y93.4453 
G01 X25.5236 Y93.4413 
G01 X25.5236 Y93.4373 
G01 X25.5388 Y93.3806 
G01 X25.5530 Y93.3236 
G01 X25.5550 Y93.3200 
G01 X25.5561 Y93.3161 
G01 X25.5854 Y93.2653 
G01 X25.6139 Y93.2139 
G01 X25.6167 Y93.2110 
G01 X25.6188 Y93.2075 
G01 X25.6604 Y93.1659 
G01 X25.7011 Y93.1238 
G01 X25.7046 Y93.1217 
G01 X25.7075 Y93.1188 
G01 X25.7584 Y93.0894 
G01 X25.8087 Y93.0592 
G01 X25.8126 Y93.0581 
G01 X25.8161 Y93.0561 
G01 X25.8728 Y93.0409 
G01 X25.9293 Y93.0247 
G01 X25.9334 Y93.0247 
G01 X25.9373 Y93.0236 
G01 X25.9960 Y93.0236 
G01 X26.0547 Y93.0226 
G01 X26.0586 Y93.0236 
G01 X26.0627 Y93.0236 
G01 X26.1194 Y93.0388 
G01 X28.0587 Y93.5236 
G01 X28.0627 Y93.5236 
G01 X28.0666 Y93.5247 
G01 X28.0707 Y93.5247 
G01 X28.1233 Y93.5398 
G01 X28.1764 Y93.5530 
G01 X28.1800 Y93.5550 
G01 X28.1839 Y93.5561 
G01 X28.1874 Y93.5581 
G01 X28.1913 Y93.5592 
G01 X28.2382 Y93.5873 
G01 X28.2861 Y93.6139 
G01 X28.2890 Y93.6168 
G01 X28.2925 Y93.6188 
G01 X28.2954 Y93.6217 
G01 X28.2989 Y93.6238 
G01 X28.3369 Y93.6631 
G01 X28.3762 Y93.7011 
G01 X28.3783 Y93.7046 
G01 X28.3812 Y93.7075 
G01 X28.3832 Y93.7110 
G01 X28.3861 Y93.7139 
G01 X28.4127 Y93.7618 
G01 X28.4408 Y93.8087 
G01 X28.4419 Y93.8126 
G01 X28.4439 Y93.8161 
G01 X28.4450 Y93.8200 
G01 X28.4470 Y93.8236 
G01 X28.4602 Y93.8767 
G01 X28.4753 Y93.9293 
G01 X28.4753 Y93.9334 
G01 X28.4764 Y93.9373 
G01 X28.4764 Y93.9413 
G01 X28.4774 Y93.9453 
G01 X28.4765 Y94.0000 
G01 X28.4774 Y94.0547 
G01 X28.4764 Y94.0586 
G01 X28.4764 Y94.0627 
G01 X28.4753 Y94.0666 
G01 X28.4753 Y94.0707 
G01 X28.4602 Y94.1233 
G01 X28.4470 Y94.1764 
G01 X28.4450 Y94.1800 
G01 X28.4439 Y94.1839 
G01 X28.4419 Y94.1874 
G01 X28.4408 Y94.1913 
G01 X28.4127 Y94.2382 
G01 X28.3861 Y94.2861 
G01 X28.3832 Y94.2890 
G01 X28.3812 Y94.2925 
G01 X28.3783 Y94.2954 
G01 X28.3762 Y94.2989 
G01 X28.3369 Y94.3369 
G01 X28.2989 Y94.3762 
G01 X28.2954 Y94.3783 
G01 X28.2925 Y94.3812 
G01 X28.2890 Y94.3832 
G01 X28.2861 Y94.3861 
G01 X28.2382 Y94.4127 
G01 X28.1913 Y94.4408 
G01 X28.1874 Y94.4419 
G01 X28.1839 Y94.4439 
G01 X28.1800 Y94.4450 
G01 X28.1764 Y94.4470 
G01 X28.1233 Y94.4602 
G01 X28.0707 Y94.4753 
G01 X28.0666 Y94.4753 
G01 X28.0627 Y94.4764 
G00 Z2.5000 
G00 X40.4105 Y49.0918 
G01 Z-0.1000 F254.00 
G01 X46.0894 Y49.0918 F400.00 
G01 X46.2649 Y49.1267 
G01 X46.4302 Y49.1952 
G01 X46.5789 Y49.2946 
G01 X46.7054 Y49.4211 
G01 X46.8048 Y49.5698 
G01 X46.8733 Y49.7351 
G01 X46.9082 Y49.9105 
G01 X46.9082 Y50.0894 
G01 X46.8733 Y50.2649 
G01 X46.8048 Y50.4302 
G01 X46.7054 Y50.5789 
G01 X46.5789 Y50.7054 
G01 X46.4302 Y50.8048 
G01 X46.2649 Y50.8733 
G01 X46.0894 Y50.9082 
G01 X40.4105 Y50.9082 
G01 X40.2351 Y50.8733 
G01 X40.0698 Y50.8048 
G01 X39.9211 Y50.7054 
G01 X39.7946 Y50.5789 
G01 X39.6952 Y50.4302 
G01 X39.6267 Y50.2649 
G01 X39.5918 Y50.0894 
G01 X39.5918 Y49.9105 
G01 X39.6267 Y49.7351 
G01 X39.6952 Y49.5698 
G01 X39.7946 Y49.4211 
G01 X39.9211 Y49.2946 
G01 X40.0698 Y49.1952 
G01 X40.2351 Y49.1267 
G01 X40.4105 Y49.0918 
G00 Z2.5000 
G00 X7.0282 Y40.3987 
G01 Z-0.1000 F254.00 
G01 X7.0282 Y46.1013 F400.00 
G01 X6.9887 Y46.2999 
G01 X6.9112 Y46.4870 
G01 X6.7987 Y46.6554 
G01 X6.6554 Y46.7987 
G01 X6.4870 Y46.9112 
G01 X6.2999 Y46.9887 
G01 X6.1013 Y47.0282 
G01 X5.8987 Y47.0282 
G01 X5.7001 Y46.9887 
G01 X5.5130 Y46.9112 
G01 X5.3446 Y46.7987 
G01 X5.2013 Y46.6554 
G01 X5.0888 Y46.4870 
G01 X5.0113 Y46.2999 
G01 X4.9718 Y46.1013 
G01 X4.9718 Y40.3987 
G01 X5.0113 Y40.2001 
G01 X5.0888 Y40.0130 
G01 X5.2013 Y39.8446 
G01 X5.3446 Y39.7013 
G01 X5.5130 Y39.5888 
G01 X5.7001 Y39.5113 
G01 X5.8987 Y39.4718 
G01 X6.1013 Y39.4718 
G01 X6.2999 Y39.5113 
G01 X6.4870 Y39.5888 
G01 X6.6554 Y39.7013 
G01 X6.7987 Y39.8446 
G01 X6.9112 Y40.0130 
G01 X6.9887 Y40.2001 
G01 X7.0282 Y40.3987 
G00 Z2.5000 
G00 X5.4036 Y67.1913 
G01 Z-0.1000 F254.00 
G01 X5.4265 Y67.0760 F400.00 
G01 X5.4715 Y66.9675 
G01 X5.5367 Y66.8698 
G01 X5.6198 Y66.7867 
G01 X5.7175 Y66.7215 
G01 X5.8260 Y66.6765 
G01 X5.9413 Y66.6536 
G01 X6.0587 Y66.6536 
G01 X6.1740 Y66.6765 
G01 X6.2825 Y66.7215 
G01 X6.3802 Y66.7867 
G01 X6.4633 Y66.8698 
G01 X6.5285 Y66.9675 
G01 X6.5735 Y67.0760 
G01 X6.5964 Y67.1913 
G01 X6.5964 Y68.4093 
G01 X6.6306 Y68.4179 
G01 X6.6740 Y68.4265 
G01 X6.6875 Y68.4321 
G01 X6.7016 Y68.4357 
G01 X6.7416 Y68.4546 
G01 X6.7825 Y68.4715 
G01 X6.7946 Y68.4796 
G01 X6.8079 Y68.4858 
G01 X6.8434 Y68.5122 
G01 X6.8802 Y68.5367 
G01 X6.8905 Y68.5471 
G01 X6.9023 Y68.5558 
G01 X6.9320 Y68.5885 
G01 X6.9633 Y68.6198 
G01 X6.9714 Y68.6320 
G01 X6.9812 Y68.6428 
G01 X7.0039 Y68.6807 
G01 X7.0285 Y68.7175 
G01 X7.0341 Y68.7310 
G01 X7.0416 Y68.7435 
G01 X7.0566 Y68.7852 
G01 X7.0735 Y68.8260 
G01 X7.0763 Y68.8404 
G01 X7.0813 Y68.8541 
G01 X7.0878 Y68.8979 
G01 X7.0964 Y68.9413 
G01 X7.0964 Y68.9559 
G01 X7.0985 Y68.9703 
G01 X7.0964 Y69.0145 
G01 X7.0964 Y69.0587 
G01 X7.0935 Y69.0731 
G01 X7.0928 Y69.0877 
G01 X7.0821 Y69.1306 
G01 X7.0735 Y69.1740 
G01 X7.0679 Y69.1875 
G01 X6.5856 Y71.1165 
G01 X6.5813 Y71.1459 
G01 X6.5763 Y71.1596 
G01 X6.5735 Y71.1740 
G01 X6.5679 Y71.1875 
G01 X6.5643 Y71.2016 
G01 X6.5517 Y71.2285 
G01 X6.5416 Y71.2565 
G01 X6.5341 Y71.2690 
G01 X6.5285 Y71.2825 
G01 X6.5204 Y71.2946 
G01 X6.5142 Y71.3079 
G01 X6.4965 Y71.3317 
G01 X6.4812 Y71.3572 
G01 X6.4714 Y71.3680 
G01 X6.4633 Y71.3802 
G01 X6.4529 Y71.3905 
G01 X6.4442 Y71.4023 
G01 X6.4222 Y71.4222 
G01 X6.4023 Y71.4442 
G01 X6.3905 Y71.4529 
G01 X6.3802 Y71.4633 
G01 X6.3680 Y71.4714 
G01 X6.3572 Y71.4812 
G01 X6.3317 Y71.4965 
G01 X6.3079 Y71.5142 
G01 X6.2946 Y71.5204 
G01 X6.2825 Y71.5285 
G01 X6.2690 Y71.5341 
G01 X6.2565 Y71.5416 
G01 X6.2285 Y71.5517 
G01 X6.2016 Y71.5643 
G01 X6.1875 Y71.5679 
G01 X6.1740 Y71.5735 
G01 X6.1596 Y71.5763 
G01 X6.1459 Y71.5813 
G01 X6.1165 Y71.5856 
G01 X6.0877 Y71.5928 
G01 X6.0731 Y71.5935 
G01 X6.0587 Y71.5964 
G01 X6.0441 Y71.5964 
G01 X6.0297 Y71.5985 
G01 X6.0000 Y71.5971 
G01 X5.9703 Y71.5985 
G01 X5.9559 Y71.5964 
G01 X5.9413 Y71.5964 
G01 X5.9269 Y71.5935 
G01 X5.9123 Y71.5928 
G01 X5.8835 Y71.5856 
G01 X5.8541 Y71.5813 
G01 X5.8404 Y71.5763 
G01 X5.8260 Y71.5735 
G01 X5.8125 Y71.5679 
G01 X5.7984 Y71.5643 
G01 X5.7715 Y71.5517 
G01 X5.7435 Y71.5416 
G01 X5.7310 Y71.5341 
G01 X5.7175 Y71.5285 
G01 X5.7054 Y71.5204 
G01 X5.6921 Y71.5142 
G01 X5.6683 Y71.4965 
G01 X5.6428 Y71.4812 
G01 X5.6320 Y71.4714 
G01 X5.6198 Y71.4633 
G01 X5.6095 Y71.4529 
G01 X5.5977 Y71.4442 
G01 X5.5778 Y71.4222 
G01 X5.5558 Y71.4023 
G01 X5.5471 Y71.3905 
G01 X5.5367 Y71.3802 
G01 X5.5286 Y71.3680 
G01 X5.5188 Y71.3572 
G01 X5.5035 Y71.3317 
G01 X5.4858 Y71.3079 
G01 X5.4796 Y71.2946 
G01 X5.4715 Y71.2825 
G01 X5.4659 Y71.2690 
G01 X5.4584 Y71.2565 
G01 X5.4483 Y71.2285 
G01 X5.4357 Y71.2016 
G01 X5.4321 Y71.1875 
G01 X5.4265 Y71.1740 
G01 X5.4237 Y71.1596 
G01 X5.4187 Y71.1459 
G01 X5.4144 Y71.1165 
G01 X4.9321 Y69.1875 
G01 X4.9265 Y69.1740 
G01 X4.9179 Y69.1306 
G01 X4.9072 Y69.0877 
G01 X4.9065 Y69.0731 
G01 X4.9036 Y69.0587 
G01 X4.9036 Y69.0145 
G01 X4.9015 Y68.9703 
G01 X4.9036 Y68.9559 
G01 X4.9036 Y68.9413 
G01 X4.9122 Y68.8979 
G01 X4.9187 Y68.8541 
G01 X4.9237 Y68.8404 
G01 X4.9265 Y68.8260 
G01 X4.9434 Y68.7852 
G01 X4.9584 Y68.7435 
G01 X4.9659 Y68.7310 
G01 X4.9715 Y68.7175 
G01 X4.9961 Y68.6807 
G01 X5.0188 Y68.6428 
G01 X5.0286 Y68.6320 
G01 X5.0367 Y68.6198 
G01 X5.0680 Y68.5885 
G01 X5.0977 Y68.5558 
G01 X5.1095 Y68.5471 
G01 X5.1198 Y68.5367 
G01 X5.1566 Y68.5122 
G01 X5.1921 Y68.4858 
G01 X5.2054 Y68.4796 
G01 X5.2175 Y68.4715 
G01 X5.2584 Y68.4546 
G01 X5.2984 Y68.4357 
G01 X5.3125 Y68.4321 
G01 X5.3260 Y68.4265 
G01 X5.3694 Y68.4179 
G01 X5.4036 Y68.4093 
G01 X5.4036 Y67.1913 
G00 Z2.5000 
G00 X51.0735 Y72.8260 
G01 Z-0.1000 F254.00 
G01 X51.0821 Y72.8694 F400.00 
G01 X51.0928 Y72.9123 
G01 X51.0935 Y72.9269 
G01 X51.0964 Y72.9413 
G01 X51.0964 Y72.9855 
G01 X51.0985 Y73.0297 
G01 X51.0964 Y73.0441 
G01 X51.0964 Y73.0587 
G01 X51.0878 Y73.1021 
G01 X51.0813 Y73.1459 
G01 X51.0763 Y73.1596 
G01 X51.0735 Y73.1740 
G01 X51.0566 Y73.2148 
G01 X51.0416 Y73.2565 
G01 X51.0341 Y73.2690 
G01 X51.0285 Y73.2825 
G01 X51.0039 Y73.3193 
G01 X50.9812 Y73.3572 
G01 X50.9714 Y73.3680 
G01 X50.9633 Y73.3802 
G01 X50.9320 Y73.4115 
G01 X50.9023 Y73.4442 
G01 X50.8905 Y73.4529 
G01 X50.8802 Y73.4633 
G01 X50.8434 Y73.4878 
G01 X50.8079 Y73.5142 
G01 X50.7946 Y73.5204 
G01 X50.7825 Y73.5285 
G01 X50.7416 Y73.5454 
G01 X50.7016 Y73.5643 
G01 X50.6875 Y73.5679 
G01 X50.6740 Y73.5735 
G01 X50.6306 Y73.5821 
G01 X50.5964 Y73.5907 
G01 X50.5964 Y75.0587 
G01 X50.5735 Y75.1740 
G01 X50.5285 Y75.2825 
G01 X50.4633 Y75.3802 
G01 X50.3802 Y75.4633 
G01 X50.2825 Y75.5285 
G01 X50.1740 Y75.5735 
G01 X50.0587 Y75.5964 
G01 X49.9413 Y75.5964 
G01 X49.8260 Y75.5735 
G01 X49.7175 Y75.5285 
G01 X49.6198 Y75.4633 
G01 X49.5367 Y75.3802 
G01 X49.4715 Y75.2825 
G01 X49.4265 Y75.1740 
G01 X49.4036 Y75.0587 
G01 X49.4036 Y73.5907 
G01 X49.3694 Y73.5821 
G01 X49.3260 Y73.5735 
G01 X49.3125 Y73.5679 
G01 X49.2984 Y73.5643 
G01 X49.2584 Y73.5454 
G01 X49.2175 Y73.5285 
G01 X49.2054 Y73.5204 
G01 X49.1921 Y73.5142 
G01 X49.1566 Y73.4878 
G01 X49.1198 Y73.4633 
G01 X49.1095 Y73.4529 
G01 X49.0977 Y73.4442 
G01 X49.0680 Y73.4115 
G01 X49.0367 Y73.3802 
G01 X49.0286 Y73.3680 
G01 X49.0188 Y73.3572 
G01 X48.9961 Y73.3193 
G01 X48.9715 Y73.2825 
G01 X48.9659 Y73.2690 
G01 X48.9584 Y73.2565 
G01 X48.9434 Y73.2148 
G01 X48.9265 Y73.1740 
G01 X48.9237 Y73.1596 
G01 X48.9187 Y73.1459 
G01 X48.9122 Y73.1021 
G01 X48.9036 Y73.0587 
G01 X48.9036 Y73.0441 
G01 X48.9015 Y73.0297 
G01 X48.9036 Y72.9855 
G01 X48.9036 Y72.9413 
G01 X48.9064 Y72.9269 
G01 X48.9072 Y72.9123 
G01 X48.9179 Y72.8694 
G01 X48.9265 Y72.8260 
G01 X48.9321 Y72.8125 
G01 X49.4144 Y70.8835 
G01 X49.4187 Y70.8541 
G01 X49.4237 Y70.8404 
G01 X49.4265 Y70.8260 
G01 X49.4321 Y70.8125 
G01 X49.4357 Y70.7984 
G01 X49.4483 Y70.7715 
G01 X49.4584 Y70.7435 
G01 X49.4659 Y70.7310 
G01 X49.4715 Y70.7175 
G01 X49.4796 Y70.7054 
G01 X49.4858 Y70.6921 
G01 X49.5035 Y70.6683 
G01 X49.5188 Y70.6428 
G01 X49.5286 Y70.6320 
G01 X49.5367 Y70.6198 
G01 X49.5471 Y70.6095 
G01 X49.5558 Y70.5977 
G01 X49.5778 Y70.5778 
G01 X49.5977 Y70.5558 
G01 X49.6095 Y70.5471 
G01 X49.6198 Y70.5367 
G01 X49.6320 Y70.5286 
G01 X49.6428 Y70.5188 
G01 X49.6683 Y70.5035 
G01 X49.6921 Y70.4858 
G01 X49.7054 Y70.4796 
G01 X49.7175 Y70.4715 
G01 X49.7310 Y70.4659 
G01 X49.7435 Y70.4584 
G01 X49.7715 Y70.4483 
G01 X49.7984 Y70.4357 
G01 X49.8125 Y70.4321 
G01 X49.8260 Y70.4265 
G01 X49.8404 Y70.4237 
G01 X49.8541 Y70.4187 
G01 X49.8835 Y70.4144 
G01 X49.9123 Y70.4072 
G01 X49.9269 Y70.4065 
G01 X49.9413 Y70.4036 
G01 X49.9559 Y70.4036 
G01 X49.9703 Y70.4014 
G01 X50.0000 Y70.4029 
G01 X50.0297 Y70.4014 
G01 X50.0441 Y70.4036 
G01 X50.0587 Y70.4036 
G01 X50.0731 Y70.4065 
G01 X50.0877 Y70.4072 
G01 X50.1165 Y70.4144 
G01 X50.1459 Y70.4187 
G01 X50.1596 Y70.4237 
G01 X50.1740 Y70.4265 
G01 X50.1875 Y70.4321 
G01 X50.2016 Y70.4357 
G01 X50.2285 Y70.4483 
G01 X50.2565 Y70.4584 
G01 X50.2690 Y70.4659 
G01 X50.2825 Y70.4715 
G01 X50.2946 Y70.4796 
G01 X50.3079 Y70.4858 
G01 X50.3317 Y70.5035 
G01 X50.3572 Y70.5188 
G01 X50.3680 Y70.5286 
G01 X50.3802 Y70.5367 
G01 X50.3905 Y70.5471 
G01 X50.4023 Y70.5558 
G01 X50.4222 Y70.5778 
G01 X50.4442 Y70.5977 
G01 X50.4529 Y70.6095 
G01 X50.4633 Y70.6198 
G01 X50.4714 Y70.6320 
G01 X50.4812 Y70.6428 
G01 X50.4965 Y70.6683 
G01 X50.5142 Y70.6921 
G01 X50.5204 Y70.7054 
G01 X50.5285 Y70.7175 
G01 X50.5341 Y70.7310 
G01 X50.5416 Y70.7435 
G01 X50.5517 Y70.7715 
G01 X50.5643 Y70.7984 
G01 X50.5679 Y70.8125 
G01 X50.5735 Y70.8260 
G01 X50.5763 Y70.8404 
G01 X50.5813 Y70.8541 
G01 X50.5856 Y70.8835 
G01 X51.0679 Y72.8125 
G01 X51.0735 Y72.8260 
G00 Z2.5000 
G00 X28.8260 Y4.9265 
G01 Z-0.1000 F254.00 
G01 X28.8597 Y4.9198 F400.00 
G01 X28.8926 Y4.9104 
G01 X28.9171 Y4.9084 
G01 X28.9413 Y4.9036 
G01 X28.9756 Y4.9036 
G01 X29.0097 Y4.9008 
G01 X29.0341 Y4.9036 
G01 X29.0587 Y4.9036 
G01 X29.0924 Y4.9103 
G01 X29.1264 Y4.9142 
G01 X29.1498 Y4.9217 
G01 X29.1740 Y4.9265 
G01 X29.2056 Y4.9396 
G01 X29.2383 Y4.9501 
G01 X29.2598 Y4.9621 
G01 X29.2825 Y4.9715 
G01 X29.3110 Y4.9905 
G01 X29.3410 Y5.0072 
G01 X29.3597 Y5.0231 
G01 X29.3802 Y5.0367 
G01 X29.4044 Y5.0610 
G01 X29.4306 Y5.0832 
G01 X29.4459 Y5.1024 
G01 X29.4633 Y5.1198 
G01 X29.4823 Y5.1483 
G01 X29.5036 Y5.1752 
G01 X29.5149 Y5.1971 
G01 X29.5285 Y5.2175 
G01 X29.5416 Y5.2492 
G01 X29.5573 Y5.2797 
G01 X29.5641 Y5.3033 
G01 X29.5735 Y5.3260 
G01 X29.5802 Y5.3597 
G01 X29.5896 Y5.3926 
G01 X29.5905 Y5.4036 
G01 X31.3087 Y5.4036 
G01 X31.4240 Y5.4265 
G01 X31.5325 Y5.4715 
G01 X31.6302 Y5.5367 
G01 X31.7133 Y5.6198 
G01 X31.7785 Y5.7175 
G01 X31.8235 Y5.8260 
G01 X31.8464 Y5.9413 
G01 X31.8464 Y6.0587 
G01 X31.8235 Y6.1740 
G01 X31.7785 Y6.2825 
G01 X31.7133 Y6.3802 
G01 X31.6302 Y6.4633 
G01 X31.5325 Y6.5285 
G01 X31.4240 Y6.5735 
G01 X31.3087 Y6.5964 
G01 X29.5905 Y6.5964 
G01 X29.5896 Y6.6074 
G01 X29.5802 Y6.6403 
G01 X29.5735 Y6.6740 
G01 X29.5641 Y6.6967 
G01 X29.5573 Y6.7203 
G01 X29.5416 Y6.7508 
G01 X29.5285 Y6.7825 
G01 X29.5149 Y6.8029 
G01 X29.5036 Y6.8248 
G01 X29.4823 Y6.8517 
G01 X29.4633 Y6.8802 
G01 X29.4459 Y6.8976 
G01 X29.4306 Y6.9168 
G01 X29.4044 Y6.9390 
G01 X29.3802 Y6.9633 
G01 X29.3597 Y6.9769 
G01 X29.3410 Y6.9928 
G01 X29.3110 Y7.0095 
G01 X29.2825 Y7.0285 
G01 X29.2598 Y7.0379 
G01 X29.2383 Y7.0499 
G01 X29.2056 Y7.0604 
G01 X29.1740 Y7.0735 
G01 X29.1498 Y7.0783 
G01 X29.1264 Y7.0858 
G01 X29.0924 Y7.0897 
G01 X29.0587 Y7.0964 
G01 X29.0341 Y7.0964 
G01 X29.0097 Y7.0992 
G01 X28.9756 Y7.0964 
G01 X28.9413 Y7.0964 
G01 X28.9171 Y7.0916 
G01 X28.8926 Y7.0896 
G01 X28.8597 Y7.0802 
G01 X28.8260 Y7.0735 
G01 X28.8033 Y7.0641 
G01 X27.1333 Y6.5869 
G01 X27.1236 Y6.5858 
G01 X27.1002 Y6.5783 
G01 X27.0760 Y6.5735 
G01 X27.0533 Y6.5641 
G01 X27.0297 Y6.5573 
G01 X27.0210 Y6.5529 
G01 X27.0117 Y6.5499 
G01 X26.9902 Y6.5379 
G01 X26.9675 Y6.5285 
G01 X26.9471 Y6.5149 
G01 X26.9252 Y6.5036 
G01 X26.9175 Y6.4976 
G01 X26.9090 Y6.4928 
G01 X26.8903 Y6.4769 
G01 X26.8698 Y6.4633 
G01 X26.8524 Y6.4459 
G01 X26.8332 Y6.4306 
G01 X26.8269 Y6.4231 
G01 X26.8194 Y6.4168 
G01 X26.8041 Y6.3976 
G01 X26.7867 Y6.3802 
G01 X26.7731 Y6.3597 
G01 X26.7572 Y6.3410 
G01 X26.7524 Y6.3325 
G01 X26.7464 Y6.3248 
G01 X26.7351 Y6.3029 
G01 X26.7215 Y6.2825 
G01 X26.7121 Y6.2598 
G01 X26.7001 Y6.2383 
G01 X26.6971 Y6.2290 
G01 X26.6927 Y6.2203 
G01 X26.6859 Y6.1967 
G01 X26.6765 Y6.1740 
G01 X26.6717 Y6.1498 
G01 X26.6642 Y6.1264 
G01 X26.6631 Y6.1167 
G01 X26.6604 Y6.1074 
G01 X26.6584 Y6.0829 
G01 X26.6536 Y6.0587 
G01 X26.6536 Y6.0341 
G01 X26.6508 Y6.0097 
G01 X26.6516 Y6.0000 
G01 X26.6508 Y5.9903 
G01 X26.6536 Y5.9659 
G01 X26.6536 Y5.9413 
G01 X26.6584 Y5.9171 
G01 X26.6604 Y5.8926 
G01 X26.6631 Y5.8833 
G01 X26.6642 Y5.8736 
G01 X26.6717 Y5.8502 
G01 X26.6765 Y5.8260 
G01 X26.6859 Y5.8033 
G01 X26.6927 Y5.7797 
G01 X26.6971 Y5.7710 
G01 X26.7001 Y5.7617 
G01 X26.7121 Y5.7402 
G01 X26.7215 Y5.7175 
G01 X26.7351 Y5.6971 
G01 X26.7464 Y5.6752 
G01 X26.7524 Y5.6675 
G01 X26.7572 Y5.6590 
G01 X26.7731 Y5.6403 
G01 X26.7867 Y5.6198 
G01 X26.8041 Y5.6024 
G01 X26.8194 Y5.5832 
G01 X26.8269 Y5.5769 
G01 X26.8332 Y5.5694 
G01 X26.8524 Y5.5541 
G01 X26.8698 Y5.5367 
G01 X26.8903 Y5.5231 
G01 X26.9090 Y5.5072 
G01 X26.9175 Y5.5024 
G01 X26.9252 Y5.4964 
G01 X26.9471 Y5.4851 
G01 X26.9675 Y5.4715 
G01 X26.9902 Y5.4621 
G01 X27.0117 Y5.4501 
G01 X27.0210 Y5.4471 
G01 X27.0297 Y5.4427 
G01 X27.0533 Y5.4359 
G01 X27.0760 Y5.4265 
G01 X27.1002 Y5.4217 
G01 X27.1236 Y5.4142 
G01 X27.1333 Y5.4131 
G01 X28.8033 Y4.9359 
G01 X28.8260 Y4.9265 
G00 Z2.5000 
G00 X29.8260 Y48.9265 
G01 Z-0.1000 F254.00 
G01 X29.8694 Y48.9179 F400.00 
G01 X29.9123 Y48.9072 
G01 X29.9269 Y48.9064 
G01 X29.9413 Y48.9036 
G01 X29.9855 Y48.9036 
G01 X30.0297 Y48.9015 
G01 X30.0441 Y48.9036 
G01 X30.0587 Y48.9036 
G01 X30.1021 Y48.9122 
G01 X30.1459 Y48.9187 
G01 X30.1596 Y48.9237 
G01 X30.1740 Y48.9265 
G01 X30.2148 Y48.9434 
G01 X30.2565 Y48.9584 
G01 X30.2690 Y48.9659 
G01 X30.2825 Y48.9715 
G01 X30.3193 Y48.9961 
G01 X30.3572 Y49.0188 
G01 X30.3680 Y49.0286 
G01 X30.3802 Y49.0367 
G01 X30.4115 Y49.0680 
G01 X30.4442 Y49.0977 
G01 X30.4529 Y49.1095 
G01 X30.4633 Y49.1198 
G01 X30.4878 Y49.1566 
G01 X30.5142 Y49.1921 
G01 X30.5204 Y49.2054 
G01 X30.5285 Y49.2175 
G01 X30.5454 Y49.2584 
G01 X30.5643 Y49.2984 
G01 X30.5679 Y49.3125 
G01 X30.5735 Y49.3260 
G01 X30.5821 Y49.3694 
G01 X30.5907 Y49.4036 
G01 X33.0587 Y49.4036 
G01 X33.1740 Y49.4265 
G01 X33.2825 Y49.4715 
G01 X33.3802 Y49.5367 
G01 X33.4633 Y49.6198 
G01 X33.5285 Y49.7175 
G01 X33.5735 Y49.8260 
G01 X33.5964 Y49.9413 
G01 X33.5964 Y50.0587 
G01 X33.5735 Y50.1740 
G01 X33.5285 Y50.2825 
G01 X33.4633 Y50.3802 
G01 X33.3802 Y50.4633 
G01 X33.2825 Y50.5285 
G01 X33.1740 Y50.5735 
G01 X33.0587 Y50.5964 
G01 X30.5907 Y50.5964 
G01 X30.5821 Y50.6306 
G01 X30.5735 Y50.6740 
G01 X30.5679 Y50.6875 
G01 X30.5643 Y50.7016 
G01 X30.5454 Y50.7416 
G01 X30.5285 Y50.7825 
G01 X30.5204 Y50.7946 
G01 X30.5142 Y50.8079 
G01 X30.4878 Y50.8434 
G01 X30.4633 Y50.8802 
G01 X30.4529 Y50.8905 
G01 X30.4442 Y50.9023 
G01 X30.4115 Y50.9320 
G01 X30.3802 Y50.9633 
G01 X30.3680 Y50.9714 
G01 X30.3572 Y50.9812 
G01 X30.3193 Y51.0039 
G01 X30.2825 Y51.0285 
G01 X30.2690 Y51.0341 
G01 X30.2565 Y51.0416 
G01 X30.2148 Y51.0566 
G01 X30.1740 Y51.0735 
G01 X30.1596 Y51.0763 
G01 X30.1459 Y51.0813 
G01 X30.1021 Y51.0878 
G01 X30.0587 Y51.0964 
G01 X30.0441 Y51.0964 
G01 X30.0297 Y51.0985 
G01 X29.9855 Y51.0964 
G01 X29.9413 Y51.0964 
G01 X29.9269 Y51.0935 
G01 X29.9123 Y51.0928 
G01 X29.8694 Y51.0821 
G01 X29.8260 Y51.0735 
G01 X29.8125 Y51.0679 
G01 X27.8835 Y50.5856 
G01 X27.8541 Y50.5813 
G01 X27.8404 Y50.5763 
G01 X27.8260 Y50.5735 
G01 X27.8125 Y50.5679 
G01 X27.7984 Y50.5643 
G01 X27.7715 Y50.5517 
G01 X27.7435 Y50.5416 
G01 X27.7310 Y50.5341 
G01 X27.7175 Y50.5285 
G01 X27.7054 Y50.5204 
G01 X27.6921 Y50.5142 
G01 X27.6683 Y50.4965 
G01 X27.6428 Y50.4812 
G01 X27.6320 Y50.4714 
G01 X27.6198 Y50.4633 
G01 X27.6095 Y50.4529 
G01 X27.5977 Y50.4442 
G01 X27.5778 Y50.4222 
G01 X27.5558 Y50.4023 
G01 X27.5471 Y50.3905 
G01 X27.5367 Y50.3802 
G01 X27.5286 Y50.3680 
G01 X27.5188 Y50.3572 
G01 X27.5035 Y50.3317 
G01 X27.4858 Y50.3079 
G01 X27.4796 Y50.2946 
G01 X27.4715 Y50.2825 
G01 X27.4659 Y50.2690 
G01 X27.4584 Y50.2565 
G01 X27.4483 Y50.2285 
G01 X27.4357 Y50.2016 
G01 X27.4321 Y50.1875 
G01 X27.4265 Y50.1740 
G01 X27.4237 Y50.1596 
G01 X27.4187 Y50.1459 
G01 X27.4144 Y50.1165 
G01 X27.4072 Y50.0877 
G01 X27.4065 Y50.0731 
G01 X27.4036 Y50.0587 
G01 X27.4036 Y50.0441 
G01 X27.4015 Y50.0297 
G01 X27.4029 Y50.0000 
G01 X27.4015 Y49.9703 
G01 X27.4036 Y49.9559 
G01 X27.4036 Y49.9413 
G01 X27.4065 Y49.9269 
G01 X27.4072 Y49.9123 
G01 X27.4144 Y49.8835 
G01 X27.4187 Y49.8541 
G01 X27.4237 Y49.8404 
G01 X27.4265 Y49.8260 
G01 X27.4321 Y49.8125 
G01 X27.4357 Y49.7984 
G01 X27.4483 Y49.7715 
G01 X27.4584 Y49.7435 
G01 X27.4659 Y49.7310 
G01 X27.4715 Y49.7175 
G01 X27.4796 Y49.7054 
G01 X27.4858 Y49.6921 
G01 X27.5035 Y49.6683 
G01 X27.5188 Y49.6428 
G01 X27.5286 Y49.6320 
G01 X27.5367 Y49.6198 
G01 X27.5471 Y49.6095 
G01 X27.5558 Y49.5977 
G01 X27.5778 Y49.5778 
G01 X27.5977 Y49.5558 
G01 X27.6095 Y49.5471 
G01 X27.6198 Y49.5367 
G01 X27.6320 Y49.5286 
G01 X27.6428 Y49.5188 
G01 X27.6683 Y49.5035 
G01 X27.6921 Y49.4858 
G01 X27.7054 Y49.4796 
G01 X27.7175 Y49.4715 
G01 X27.7310 Y49.4659 
G01 X27.7435 Y49.4584 
G01 X27.7715 Y49.4483 
G01 X27.7984 Y49.4357 
G01 X27.8125 Y49.4321 
G01 X27.8260 Y49.4265 
G01 X27.8404 Y49.4237 
G01 X27.8541 Y49.4187 
G01 X27.8835 Y49.4144 
G01 X29.8125 Y48.9321 
G01 X29.8260 Y48.9265 
G00 Z2.5000 
G00 X51.0282 Y44.1487 
G01 Z-0.1000 F254.00 
G01 X51.0282 Y55.8513 F400.00 
G01 X50.9887 Y56.0499 
G01 X50.9112 Y56.2370 
G01 X50.7987 Y56.4054 
G01 X50.6554 Y56.5487 
G01 X50.4870 Y56.6612 
G01 X50.2999 Y56.7387 
G01 X50.1013 Y56.7782 
G01 X49.8987 Y56.7782 
G01 X49.7001 Y56.7387 
G01 X49.5130 Y56.6612 
G01 X49.3446 Y56.5487 
G01 X49.2013 Y56.4054 
G01 X49.0888 Y56.2370 
G01 X49.0113 Y56.0499 
G01 X48.9718 Y55.8513 
G01 X48.9718 Y44.1487 
G01 X49.0113 Y43.9501 
G01 X49.0888 Y43.7630 
G01 X49.2013 Y43.5946 
G01 X49.3446 Y43.4513 
G01 X49.5130 Y43.3388 
G01 X49.7001 Y43.2613 
G01 X49.8987 Y43.2218 
G01 X50.1013 Y43.2218 
G01 X50.2999 Y43.2613 
G01 X50.4870 Y43.3388 
G01 X50.6554 Y43.4513 
G01 X50.7987 Y43.5946 
G01 X50.9112 Y43.7630 
G01 X50.9887 Y43.9501 
G01 X51.0282 Y44.1487 
G00 Z2.5000 
G00 X13.1013 Y51.0282 
G01 Z-0.1000 F254.00 
G01 X10.3987 Y51.0282 F400.00 
G01 X10.3541 Y51.0193 
G01 X8.2494 Y52.1674 
G01 X8.1674 Y52.2494 
G01 X7.0193 Y54.3541 
G01 X7.0282 Y54.3987 
G01 X7.0282 Y58.1013 
G01 X6.9887 Y58.2999 
G01 X6.9112 Y58.4870 
G01 X6.7987 Y58.6554 
G01 X6.6554 Y58.7987 
G01 X6.4870 Y58.9112 
G01 X6.2999 Y58.9887 
G01 X6.1013 Y59.0282 
G01 X5.8987 Y59.0282 
G01 X5.7001 Y58.9887 
G01 X5.5130 Y58.9112 
G01 X5.3446 Y58.7987 
G01 X5.2013 Y58.6554 
G01 X5.0888 Y58.4870 
G01 X5.0113 Y58.2999 
G01 X4.9718 Y58.1013 
G01 X4.9718 Y54.3987 
G01 X5.0113 Y54.2001 
G01 X5.0888 Y54.0130 
G01 X5.2013 Y53.8446 
G01 X5.3446 Y53.7013 
G01 X5.5130 Y53.5888 
G01 X5.5702 Y53.5651 
G01 X6.7547 Y51.3936 
G01 X6.7689 Y51.3592 
G01 X6.7935 Y51.3225 
G01 X6.8146 Y51.2836 
G01 X6.8385 Y51.2550 
G01 X6.8592 Y51.2241 
G01 X6.8905 Y51.1928 
G01 X6.9188 Y51.1589 
G01 X6.9478 Y51.1355 
G01 X7.1355 Y50.9478 
G01 X7.1589 Y50.9188 
G01 X7.1928 Y50.8905 
G01 X7.2241 Y50.8592 
G01 X7.2550 Y50.8385 
G01 X7.2836 Y50.8146 
G01 X7.3225 Y50.7935 
G01 X7.3592 Y50.7689 
G01 X7.3936 Y50.7547 
G01 X9.5651 Y49.5702 
G01 X9.5888 Y49.5130 
G01 X9.7013 Y49.3446 
G01 X9.8446 Y49.2013 
G01 X10.0130 Y49.0888 
G01 X10.2001 Y49.0113 
G01 X10.3987 Y48.9718 
G01 X13.1013 Y48.9718 
G01 X13.2999 Y49.0113 
G01 X13.4870 Y49.0888 
G01 X13.6554 Y49.2013 
G01 X13.7987 Y49.3446 
G01 X13.9112 Y49.5130 
G01 X13.9887 Y49.7001 
G01 X14.0282 Y49.8987 
G01 X14.0282 Y50.1013 
G01 X13.9887 Y50.2999 
G01 X13.9112 Y50.4870 
G01 X13.7987 Y50.6554 
G01 X13.6554 Y50.7987 
G01 X13.4870 Y50.9112 
G01 X13.2999 Y50.9887 
G01 X13.1013 Y51.0282 
G00 Z2.5000 
G00 X10.7632 Y95.0282 
G01 Z-0.1000 F254.00 
G01 X10.2909 Y94.9910 F400.00 
G01 X9.8231 Y94.9169 
G01 X9.3624 Y94.8063 
G01 X8.9119 Y94.6600 
G01 X8.4743 Y94.4787 
G01 X8.0522 Y94.2636 
G01 X7.6483 Y94.0161 
G01 X7.2651 Y93.7377 
G01 X6.9049 Y93.4301 
G01 X6.5699 Y93.0951 
G01 X6.2623 Y92.7349 
G01 X5.9839 Y92.3517 
G01 X5.7364 Y91.9478 
G01 X5.5213 Y91.5257 
G01 X5.3400 Y91.0881 
G01 X5.1936 Y90.6376 
G01 X5.0831 Y90.1770 
G01 X5.0090 Y89.7091 
G01 X4.9718 Y89.2369 
G01 X4.9718 Y85.3987 
G01 X5.0113 Y85.2001 
G01 X5.0888 Y85.0130 
G01 X5.2013 Y84.8446 
G01 X5.3446 Y84.7013 
G01 X5.5130 Y84.5888 
G01 X5.7001 Y84.5113 
G01 X5.8987 Y84.4718 
G01 X6.1013 Y84.4718 
G01 X6.2999 Y84.5113 
G01 X6.4870 Y84.5888 
G01 X6.6554 Y84.7013 
G01 X6.7987 Y84.8446 
G01 X6.9112 Y85.0130 
G01 X6.9887 Y85.2001 
G01 X7.0282 Y85.3987 
G01 X7.0282 Y89.0000 
G01 X7.0313 Y89.1559 
G01 X7.0557 Y89.4668 
G01 X7.1045 Y89.7749 
G01 X7.1773 Y90.0781 
G01 X7.2737 Y90.3747 
G01 X7.3930 Y90.6628 
G01 X7.5346 Y90.9407 
G01 X7.6976 Y91.2066 
G01 X7.8809 Y91.4589 
G01 X8.0834 Y91.6961 
G01 X8.3039 Y91.9166 
G01 X8.5411 Y92.1191 
G01 X8.7934 Y92.3024 
G01 X9.0593 Y92.4654 
G01 X9.3372 Y92.6070 
G01 X9.6253 Y92.7263 
G01 X9.9219 Y92.8227 
G01 X10.2251 Y92.8955 
G01 X10.5332 Y92.9443 
G01 X10.8441 Y92.9687 
G01 X11.0000 Y92.9718 
G01 X13.8513 Y92.9718 
G01 X14.0499 Y93.0113 
G01 X14.2370 Y93.0888 
G01 X14.4054 Y93.2013 
G01 X14.5487 Y93.3446 
G01 X14.6612 Y93.5130 
G01 X14.7387 Y93.7001 
G01 X14.7782 Y93.8987 
G01 X14.7782 Y94.1013 
G01 X14.7387 Y94.2999 
G01 X14.6612 Y94.4870 
G01 X14.5487 Y94.6554 
G01 X14.4054 Y94.7987 
G01 X14.2370 Y94.9112 
G01 X14.0499 Y94.9887 
G01 X13.8513 Y95.0282 
G01 X10.8987 Y95.0282 
G01 X10.7632 Y95.0282 
G00 Z2.5000 
G00 X45.1900 Y10.9622 
G01 Z-0.1000 F254.00 
G01 X45.1900 Y45.0378 F400.00 
G01 X45.1611 Y45.1076 
G01 X45.1076 Y45.1611 
G01 X45.0378 Y45.1900 
G01 X10.9622 Y45.1900 
G01 X10.8924 Y45.1611 
G01 X10.8389 Y45.1076 
G01 X10.8100 Y45.0378 
G01 X10.8100 Y10.9622 
G01 X10.8389 Y10.8924 
G01 X10.8924 Y10.8389 
G01 X10.9622 Y10.8100 
G01 X45.0378 Y10.8100 
G01 X45.1076 Y10.8389 
G01 X45.1611 Y10.8924 
G01 X45.1900 Y10.9622 
G00 Z2.5000 
G00 X45.1900 Y54.9622 
G01 Z-0.1000 F254.00 
G01 X45.1900 Y89.0378 F400.00 
G01 X45.1611 Y89.1076 
G01 X45.1076 Y89.1611 
G01 X45.0378 Y89.1900 
G01 X10.9622 Y89.1900 
G01 X10.8924 Y89.1611 
G01 X10.8389 Y89.1076 
G01 X10.8100 Y89.0378 
G01 X10.8100 Y54.9622 
G01 X10.8389 Y54.8924 
G01 X10.8924 Y54.8389 
G01 X10.9622 Y54.8100 
G01 X45.0378 Y54.8100 
G01 X45.1076 Y54.8389 
G01 X45.1611 Y54.8924 
G01 X45.1900 Y54.9622 
G00 Z2.5000 
G00 X2.4718 Y10.7208 
G01 Z-0.1000 F254.00 
G01 X2.5083 Y10.1636 F400.00 
G01 X2.5812 Y9.6101 
G01 X2.6901 Y9.0624 
G01 X2.8347 Y8.5231 
G01 X3.0141 Y7.9943 
G01 X3.2278 Y7.4785 
G01 X3.4748 Y6.9777 
G01 X3.7540 Y6.4941 
G01 X4.0642 Y6.0299 
G01 X4.4041 Y5.5869 
G01 X4.7722 Y5.1671 
G01 X5.1671 Y4.7722 
G01 X5.5869 Y4.4041 
G01 X6.0299 Y4.0642 
G01 X6.4941 Y3.7540 
G01 X6.9777 Y3.4748 
G01 X7.4785 Y3.2278 
G01 X7.9943 Y3.0141 
G01 X8.5231 Y2.8347 
G01 X9.0624 Y2.6901 
G01 X9.6100 Y2.5812 
G01 X10.1636 Y2.5083 
G01 X10.7208 Y2.4718 
G01 X45.2792 Y2.4718 
G01 X45.8364 Y2.5083 
G01 X46.3899 Y2.5812 
G01 X46.9376 Y2.6901 
G01 X47.4769 Y2.8347 
G01 X48.0057 Y3.0141 
G01 X48.5215 Y3.2278 
G01 X49.0223 Y3.4748 
G01 X49.5059 Y3.7540 
G01 X49.9701 Y4.0642 
G01 X50.4131 Y4.4041 
G01 X50.8329 Y4.7722 
G01 X51.2278 Y5.1671 
G01 X51.5959 Y5.5869 
G01 X51.9358 Y6.0299 
G01 X52.2460 Y6.4941 
G01 X52.5252 Y6.9777 
G01 X52.7722 Y7.4785 
G01 X52.9859 Y7.9943 
G01 X53.1653 Y8.5231 
G01 X53.3099 Y9.0624 
G01 X53.4188 Y9.6100 
G01 X53.4917 Y10.1636 
G01 X53.5282 Y10.7208 
G01 X53.5282 Y89.5328 
G01 X53.4896 Y90.0971 
G01 X53.4126 Y90.6574 
G01 X53.2975 Y91.2111 
G01 X53.1449 Y91.7557 
G01 X52.9555 Y92.2887 
G01 X52.7302 Y92.8074 
G01 X52.4700 Y93.3096 
G01 X52.1761 Y93.7928 
G01 X51.8500 Y94.2549 
G01 X51.4930 Y94.6936 
G01 X51.1070 Y95.1070 
G01 X50.6936 Y95.4930 
G01 X50.2549 Y95.8500 
G01 X49.7928 Y96.1761 
G01 X49.3096 Y96.4700 
G01 X48.8074 Y96.7302 
G01 X48.2887 Y96.9555 
G01 X47.7557 Y97.1449 
G01 X47.2111 Y97.2975 
G01 X46.6574 Y97.4126 
G01 X46.0971 Y97.4896 
G01 X45.5328 Y97.5282 
G01 X10.7208 Y97.5282 
G01 X10.1636 Y97.4917 
G01 X9.6101 Y97.4188 
G01 X9.0624 Y97.3099 
G01 X8.5231 Y97.1653 
G01 X7.9943 Y96.9859 
G01 X7.4785 Y96.7722 
G01 X6.9777 Y96.5252 
G01 X6.4941 Y96.2460 
G01 X6.0299 Y95.9358 
G01 X5.5869 Y95.5959 
G01 X5.1671 Y95.2278 
G01 X4.7722 Y94.8329 
G01 X4.4041 Y94.4131 
G01 X4.0642 Y93.9701 
G01 X3.7540 Y93.5059 
G01 X3.4748 Y93.0223 
G01 X3.2278 Y92.5215 
G01 X3.0141 Y92.0057 
G01 X2.8347 Y91.4769 
G01 X2.6901 Y90.9376 
G01 X2.5812 Y90.3899 
G01 X2.5083 Y89.8364 
G01 X2.4718 Y89.2792 
G01 X2.4718 Y53.8987 
G01 X2.5113 Y53.7001 
G01 X2.5888 Y53.5130 
G01 X2.7013 Y53.3446 
G01 X2.8446 Y53.2013 
G01 X3.0130 Y53.0888 
G01 X3.1700 Y53.0238 
G01 X5.5282 Y49.5937 
G01 X5.5311 Y49.5871 
G01 X5.5742 Y49.5268 
G01 X5.6162 Y49.4657 
G01 X5.6213 Y49.4607 
G01 X5.6255 Y49.4548 
G01 X5.6796 Y49.4039 
G01 X5.7326 Y49.3523 
G01 X5.7386 Y49.3484 
G01 X5.7438 Y49.3435 
G01 X5.8068 Y49.3041 
G01 X5.8689 Y49.2638 
G01 X5.8756 Y49.2611 
G01 X9.2921 Y47.1258 
G01 X9.3388 Y47.0130 
G01 X9.4513 Y46.8446 
G01 X9.5946 Y46.7013 
G01 X9.7630 Y46.5888 
G01 X9.9501 Y46.5113 
G01 X10.1487 Y46.4718 
G01 X46.1013 Y46.4718 
G01 X46.2999 Y46.5113 
G01 X46.4870 Y46.5888 
G01 X46.6554 Y46.7013 
G01 X46.7987 Y46.8446 
G01 X46.9112 Y47.0130 
G01 X46.9887 Y47.2001 
G01 X47.0282 Y47.3987 
G01 X47.0282 Y47.6013 
G01 X46.9887 Y47.7999 
G01 X46.9112 Y47.9870 
G01 X46.7987 Y48.1554 
G01 X46.6554 Y48.2987 
G01 X46.4870 Y48.4112 
G01 X46.2999 Y48.4887 
G01 X46.1013 Y48.5282 
G01 X10.1615 Y48.5282 
G01 X6.8327 Y50.6087 
G01 X4.5282 Y53.9607 
G01 X4.5282 Y89.0000 
G01 X4.5317 Y89.2118 
G01 X4.5594 Y89.6343 
G01 X4.6146 Y90.0542 
G01 X4.6973 Y90.4696 
G01 X4.8069 Y90.8787 
G01 X4.9430 Y91.2797 
G01 X5.1051 Y91.6710 
G01 X5.2924 Y92.0508 
G01 X5.5041 Y92.4176 
G01 X5.7394 Y92.7697 
G01 X5.9972 Y93.1057 
G01 X6.2765 Y93.4241 
G01 X6.5759 Y93.7235 
G01 X6.8943 Y94.0028 
G01 X7.2303 Y94.2606 
G01 X7.5825 Y94.4959 
G01 X7.9492 Y94.7076 
G01 X8.3290 Y94.8949 
G01 X8.7203 Y95.0570 
G01 X9.1213 Y95.1931 
G01 X9.5304 Y95.3027 
G01 X9.9458 Y95.3854 
G01 X10.3657 Y95.4406 
G01 X10.7882 Y95.4683 
G01 X11.0000 Y95.4718 
G01 X45.2500 Y95.4718 
G01 X45.4624 Y95.4682 
G01 X45.8863 Y95.4392 
G01 X46.3072 Y95.3813 
G01 X46.7231 Y95.2949 
G01 X47.1322 Y95.1803 
G01 X47.5325 Y95.0380 
G01 X47.9222 Y94.8688 
G01 X48.2994 Y94.6733 
G01 X48.6624 Y94.4526 
G01 X49.0094 Y94.2076 
G01 X49.3390 Y93.9395 
G01 X49.6495 Y93.6495 
G01 X49.9395 Y93.3390 
G01 X50.2076 Y93.0094 
G01 X50.4526 Y92.6624 
G01 X50.6733 Y92.2994 
G01 X50.8688 Y91.9222 
G01 X51.0380 Y91.5325 
G01 X51.1803 Y91.1322 
G01 X51.2949 Y90.7231 
G01 X51.3813 Y90.3071 
G01 X51.4392 Y89.8863 
G01 X51.4682 Y89.4624 
G01 X51.4718 Y89.2500 
G01 X51.4718 Y11.0000 
G01 X51.4683 Y10.7882 
G01 X51.4406 Y10.3657 
G01 X51.3854 Y9.9458 
G01 X51.3027 Y9.5304 
G01 X51.1931 Y9.1213 
G01 X51.0570 Y8.7203 
G01 X50.8949 Y8.3290 
G01 X50.7076 Y7.9492 
G01 X50.4959 Y7.5825 
G01 X50.2606 Y7.2303 
G01 X50.0028 Y6.8943 
G01 X49.7235 Y6.5759 
G01 X49.4241 Y6.2765 
G01 X49.1057 Y5.9972 
G01 X48.7697 Y5.7394 
G01 X48.4175 Y5.5041 
G01 X48.0508 Y5.2924 
G01 X47.6710 Y5.1051 
G01 X47.2797 Y4.9430 
G01 X46.8787 Y4.8069 
G01 X46.4696 Y4.6973 
G01 X46.0542 Y4.6146 
G01 X45.6343 Y4.5594 
G01 X45.2117 Y4.5317 
G01 X45.0000 Y4.5282 
G01 X11.0000 Y4.5282 
G01 X10.7882 Y4.5317 
G01 X10.3657 Y4.5594 
G01 X9.9458 Y4.6146 
G01 X9.5304 Y4.6973 
G01 X9.1213 Y4.8069 
G01 X8.7203 Y4.9430 
G01 X8.3290 Y5.1051 
G01 X7.9492 Y5.2924 
G01 X7.5824 Y5.5041 
G01 X7.2303 Y5.7394 
G01 X6.8943 Y5.9972 
G01 X6.5759 Y6.2765 
G01 X6.2765 Y6.5759 
G01 X5.9972 Y6.8943 
G01 X5.7394 Y7.2303 
G01 X5.5041 Y7.5825 
G01 X5.2924 Y7.9492 
G01 X5.1051 Y8.3290 
G01 X4.9430 Y8.7203 
G01 X4.8069 Y9.1213 
G01 X4.6973 Y9.5304 
G01 X4.6146 Y9.9458 
G01 X4.5594 Y10.3657 
G01 X4.5317 Y10.7882 
G01 X4.5282 Y10.9999 
G01 X4.5282 Y46.1013 
G01 X4.4887 Y46.2999 
G01 X4.4112 Y46.4870 
G01 X4.2987 Y46.6554 
G01 X4.1554 Y46.7987 
G01 X3.9870 Y46.9112 
G01 X3.7999 Y46.9887 
G01 X3.6013 Y47.0282 
G01 X3.3987 Y47.0282 
G01 X3.2001 Y46.9887 
G01 X3.0130 Y46.9112 
G01 X2.8446 Y46.7987 
G01 X2.7013 Y46.6554 
G01 X2.5888 Y46.4870 
G01 X2.5113 Y46.2999 
G01 X2.4718 Y46.1013 
G01 X2.4718 Y10.8987 
G01 X2.4718 Y10.7208 
G00 Z2.5000 
G00 X45.2368 Y4.9718 
G01 Z-0.1000 F254.00 
G01 X45.7091 Y5.0090 F400.00 
G01 X46.1769 Y5.0831 
G01 X46.6376 Y5.1936 
G01 X47.0881 Y5.3400 
G01 X47.5257 Y5.5213 
G01 X47.9478 Y5.7364 
G01 X48.3517 Y5.9839 
G01 X48.7349 Y6.2623 
G01 X49.0951 Y6.5699 
G01 X49.4301 Y6.9049 
G01 X49.7377 Y7.2651 
G01 X50.0161 Y7.6483 
G01 X50.2636 Y8.0522 
G01 X50.4787 Y8.4743 
G01 X50.6600 Y8.9119 
G01 X50.8063 Y9.3624 
G01 X50.9169 Y9.8230 
G01 X50.9910 Y10.2909 
G01 X51.0282 Y10.7631 
G01 X51.0282 Y14.1013 
G01 X50.9887 Y14.2999 
G01 X50.9112 Y14.4870 
G01 X50.7987 Y14.6554 
G01 X50.6554 Y14.7987 
G01 X50.4870 Y14.9112 
G01 X50.2999 Y14.9887 
G01 X50.1013 Y15.0282 
G01 X49.8987 Y15.0282 
G01 X49.7001 Y14.9887 
G01 X49.5130 Y14.9112 
G01 X49.3446 Y14.7987 
G01 X49.2013 Y14.6554 
G01 X49.0888 Y14.4870 
G01 X49.0113 Y14.2999 
G01 X48.9718 Y14.1013 
G01 X48.9718 Y11.0000 
G01 X48.9687 Y10.8441 
G01 X48.9443 Y10.5332 
G01 X48.8955 Y10.2251 
G01 X48.8227 Y9.9219 
G01 X48.7263 Y9.6253 
G01 X48.6070 Y9.3372 
G01 X48.4654 Y9.0593 
G01 X48.3024 Y8.7934 
G01 X48.1191 Y8.5411 
G01 X47.9166 Y8.3039 
G01 X47.6961 Y8.0834 
G01 X47.4589 Y7.8809 
G01 X47.2066 Y7.6976 
G01 X46.9407 Y7.5346 
G01 X46.6628 Y7.3930 
G01 X46.3747 Y7.2737 
G01 X46.0781 Y7.1773 
G01 X45.7749 Y7.1045 
G01 X45.4668 Y7.0557 
G01 X45.1559 Y7.0313 
G01 X45.0000 Y7.0282 
G01 X41.8987 Y7.0282 
G01 X41.7001 Y6.9887 
G01 X41.5130 Y6.9112 
G01 X41.3446 Y6.7987 
G01 X41.2013 Y6.6554 
G01 X41.0888 Y6.4870 
G01 X41.0113 Y6.2999 
G01 X40.9718 Y6.1013 
G01 X40.9718 Y5.8987 
G01 X41.0113 Y5.7001 
G01 X41.0888 Y5.5130 
G01 X41.2013 Y5.3446 
G01 X41.3446 Y5.2013 
G01 X41.5130 Y5.0888 
G01 X41.7001 Y5.0113 
G01 X41.8987 Y4.9718 
G01 X45.1013 Y4.9718 
G01 X45.2368 Y4.9718 
G00 Z2.5000 
G00 X4.9718 Y11.1013 
G01 Z-0.1000 F254.00 
G01 X4.9718 Y10.7631 F400.00 
G01 X5.0090 Y10.2909 
G01 X5.0831 Y9.8231 
G01 X5.1936 Y9.3624 
G01 X5.3400 Y8.9119 
G01 X5.5213 Y8.4743 
G01 X5.7364 Y8.0522 
G01 X5.9839 Y7.6483 
G01 X6.2623 Y7.2651 
G01 X6.5699 Y6.9049 
G01 X6.9049 Y6.5699 
G01 X7.2651 Y6.2623 
G01 X7.6483 Y5.9839 
G01 X8.0522 Y5.7364 
G01 X8.4743 Y5.5213 
G01 X8.9119 Y5.3400 
G01 X9.3624 Y5.1936 
G01 X9.8230 Y5.0831 
G01 X10.2909 Y5.0090 
G01 X10.7631 Y4.9718 
G01 X13.8513 Y4.9718 
G01 X14.0499 Y5.0113 
G01 X14.2370 Y5.0888 
G01 X14.4054 Y5.2013 
G01 X14.5487 Y5.3446 
G01 X14.6612 Y5.5130 
G01 X14.7387 Y5.7001 
G01 X14.7782 Y5.8987 
G01 X14.7782 Y6.1013 
G01 X14.7387 Y6.2999 
G01 X14.6612 Y6.4870 
G01 X14.5487 Y6.6554 
G01 X14.4054 Y6.7987 
G01 X14.2370 Y6.9112 
G01 X14.0499 Y6.9887 
G01 X13.8513 Y7.0282 
G01 X11.0000 Y7.0282 
G01 X10.8441 Y7.0313 
G01 X10.5332 Y7.0557 
G01 X10.2251 Y7.1045 
G01 X9.9219 Y7.1773 
G01 X9.6253 Y7.2737 
G01 X9.3372 Y7.3930 
G01 X9.0593 Y7.5346 
G01 X8.7934 Y7.6976 
G01 X8.5411 Y7.8809 
G01 X8.3039 Y8.0834 
G01 X8.0834 Y8.3039 
G01 X7.8809 Y8.5411 
G01 X7.6976 Y8.7934 
G01 X7.5346 Y9.0593 
G01 X7.3930 Y9.3372 
G01 X7.2737 Y9.6253 
G01 X7.1773 Y9.9219 
G01 X7.1045 Y10.2251 
G01 X7.0557 Y10.5332 
G01 X7.0313 Y10.8441 
G01 X7.0282 Y11.0000 
G01 X7.0282 Y13.8513 
G01 X6.9887 Y14.0499 
G01 X6.9112 Y14.2370 
G01 X6.7987 Y14.4054 
G01 X6.6554 Y14.5487 
G01 X6.4870 Y14.6612 
G01 X6.2999 Y14.7387 
G01 X6.1013 Y14.7782 
G01 X5.8987 Y14.7782 
G01 X5.7001 Y14.7387 
G01 X5.5130 Y14.6612 
G01 X5.3446 Y14.5487 
G01 X5.2013 Y14.4054 
G01 X5.0888 Y14.2370 
G01 X5.0113 Y14.0499 
G01 X4.9718 Y13.8513 
G01 X4.9718 Y11.1013 
G00 Z2.5000 
G00 X42.1487 Y92.9718 
G01 Z-0.1000 F254.00 
G01 X45.0000 Y92.9718 F400.00 
G01 X45.1559 Y92.9687 
G01 X45.4668 Y92.9443 
G01 X45.7749 Y92.8955 
G01 X46.0781 Y92.8227 
G01 X46.3747 Y92.7263 
G01 X46.6628 Y92.6070 
G01 X46.9407 Y92.4654 
G01 X47.2066 Y92.3024 
G01 X47.4589 Y92.1191 
G01 X47.6961 Y91.9166 
G01 X47.9166 Y91.6961 
G01 X48.1191 Y91.4589 
G01 X48.3024 Y91.2066 
G01 X48.4654 Y90.9407 
G01 X48.6070 Y90.6628 
G01 X48.7263 Y90.3747 
G01 X48.8227 Y90.0781 
G01 X48.8955 Y89.7749 
G01 X48.9443 Y89.4668 
G01 X48.9687 Y89.1559 
G01 X48.9718 Y89.0000 
G01 X48.9718 Y85.6487 
G01 X49.0113 Y85.4501 
G01 X49.0888 Y85.2630 
G01 X49.2013 Y85.0946 
G01 X49.3446 Y84.9513 
G01 X49.5130 Y84.8388 
G01 X49.7001 Y84.7613 
G01 X49.8987 Y84.7218 
G01 X50.1013 Y84.7218 
G01 X50.2999 Y84.7613 
G01 X50.4870 Y84.8388 
G01 X50.6554 Y84.9513 
G01 X50.7987 Y85.0946 
G01 X50.9112 Y85.2630 
G01 X50.9887 Y85.4501 
G01 X51.0282 Y85.6487 
G01 X51.0282 Y89.2369 
G01 X50.9910 Y89.7091 
G01 X50.9169 Y90.1769 
G01 X50.8063 Y90.6376 
G01 X50.6600 Y91.0881 
G01 X50.4787 Y91.5257 
G01 X50.2636 Y91.9478 
G01 X50.0161 Y92.3517 
G01 X49.7377 Y92.7349 
G01 X49.4301 Y93.0951 
G01 X49.0951 Y93.4301 
G01 X48.7349 Y93.7377 
G01 X48.3517 Y94.0161 
G01 X47.9478 Y94.2636 
G01 X47.5257 Y94.4787 
G01 X47.0881 Y94.6600 
G01 X46.6376 Y94.8063 
G01 X46.1770 Y94.9169 
G01 X45.7091 Y94.9910 
G01 X45.2369 Y95.0282 
G01 X42.1487 Y95.0282 
G01 X41.9501 Y94.9887 
G01 X41.7630 Y94.9112 
G01 X41.5946 Y94.7987 
G01 X41.4513 Y94.6554 
G01 X41.3388 Y94.4870 
G01 X41.2613 Y94.2999 
G01 X41.2218 Y94.1013 
G01 X41.2218 Y93.8987 
G01 X41.2613 Y93.7001 
G01 X41.3388 Y93.5130 
G01 X41.4513 Y93.3446 
G01 X41.5946 Y93.2013 
G01 X41.7630 Y93.0888 
G01 X41.9501 Y93.0113 
G01 X42.1487 Y92.9718 
G00 Z2.5000 
G00 X7.4718 Y10.5782 
G01 Z-0.1000 F254.00 
G01 X7.4718 Y10.5782 F400.00 
G01 X7.5077 Y10.2365 
G01 X7.5792 Y9.9004 
G01 X7.6853 Y9.5736 
G01 X7.8251 Y9.2597 
G01 X7.9969 Y8.9621 
G01 X8.1989 Y8.6841 
G01 X8.4288 Y8.4288 
G01 X8.6841 Y8.1989 
G01 X8.9621 Y7.9969 
G01 X9.2597 Y7.8251 
G01 X9.5736 Y7.6853 
G01 X9.9004 Y7.5792 
G01 X10.2365 Y7.5077 
G01 X10.5782 Y7.4718 
G01 X45.1849 Y7.4718 
G01 X45.5527 Y7.5105 
G01 X45.9144 Y7.5873 
G01 X46.2661 Y7.7016 
G01 X46.6040 Y7.8520 
G01 X46.9242 Y8.0369 
G01 X47.2234 Y8.2543 
G01 X47.4982 Y8.5018 
G01 X47.7457 Y8.7766 
G01 X47.9631 Y9.0758 
G01 X48.1480 Y9.3960 
G01 X48.2984 Y9.7339 
G01 X48.4127 Y10.0856 
G01 X48.4895 Y10.4473 
G01 X48.5282 Y10.8151 
G01 X48.5282 Y45.1013 
G01 X48.4887 Y45.2999 
G01 X48.4492 Y45.3952 
G01 X48.7856 Y46.7407 
G01 X48.7933 Y46.7594 
G01 X48.8052 Y46.8194 
G01 X48.8201 Y46.8787 
G01 X48.8211 Y46.8989 
G01 X48.8250 Y46.9187 
G01 X48.8250 Y46.9799 
G01 X48.8280 Y47.0411 
G01 X48.8250 Y47.0610 
G01 X48.8250 Y52.9390 
G01 X48.8280 Y52.9589 
G01 X48.8250 Y53.0201 
G01 X48.8250 Y53.0813 
G01 X48.8211 Y53.1011 
G01 X48.8201 Y53.1213 
G01 X48.8052 Y53.1806 
G01 X48.7933 Y53.2406 
G01 X48.7856 Y53.2593 
G01 X48.4492 Y54.6048 
G01 X48.4887 Y54.7001 
G01 X48.5282 Y54.8987 
G01 X48.5282 Y88.9730 
G01 X48.5362 Y89.1242 
G01 X48.5176 Y89.4808 
G01 X48.4618 Y89.8335 
G01 X48.3694 Y90.1784 
G01 X48.2416 Y90.5117 
G01 X48.0795 Y90.8299 
G01 X47.8851 Y91.1294 
G01 X47.6605 Y91.4069 
G01 X47.4081 Y91.6595 
G01 X47.1306 Y91.8842 
G01 X46.8312 Y92.0788 
G01 X46.5131 Y92.2409 
G01 X46.1798 Y92.3690 
G01 X45.8350 Y92.4615 
G01 X45.4823 Y92.5174 
G01 X45.3780 Y92.5229 
G01 X45.3513 Y92.5282 
G01 X45.2770 Y92.5282 
G01 X45.2029 Y92.5321 
G01 X45.1760 Y92.5282 
G01 X11.1487 Y92.5282 
G01 X10.9501 Y92.4887 
G01 X10.7630 Y92.4112 
G01 X10.6340 Y92.3250 
G01 X10.5888 Y92.3250 
G01 X10.2683 Y92.2913 
G01 X9.9530 Y92.2243 
G01 X9.6465 Y92.1247 
G01 X9.3521 Y91.9936 
G01 X9.0729 Y91.8325 
G01 X8.8122 Y91.6430 
G01 X8.5727 Y91.4273 
G01 X8.3570 Y91.1878 
G01 X8.1675 Y90.9271 
G01 X8.0064 Y90.6479 
G01 X7.8753 Y90.3535 
G01 X7.7757 Y90.0470 
G01 X7.7087 Y89.7317 
G01 X7.7006 Y89.6543 
G01 X7.5888 Y89.4870 
G01 X7.5113 Y89.2999 
G01 X7.4718 Y89.1013 
G01 X7.4718 Y54.8987 
G01 X7.5113 Y54.7001 
G01 X7.5888 Y54.5130 
G01 X7.7013 Y54.3446 
G01 X7.8446 Y54.2013 
G01 X8.0130 Y54.0888 
G01 X8.0385 Y54.0782 
G01 X8.5134 Y53.1285 
G01 X8.5480 Y53.0591 
G01 X8.6000 Y52.9919 
G01 X8.6475 Y52.9306 
G01 X8.7107 Y52.8757 
G01 X8.7701 Y52.8240 
G01 X8.8415 Y52.7832 
G01 X10.0576 Y52.0883 
G01 X10.0888 Y52.0130 
G01 X10.2013 Y51.8446 
G01 X10.3446 Y51.7013 
G01 X10.5130 Y51.5888 
G01 X10.7001 Y51.5113 
G01 X10.8987 Y51.4718 
G01 X46.1013 Y51.4718 
G01 X46.2999 Y51.5113 
G01 X46.4870 Y51.5888 
G01 X46.6554 Y51.7013 
G01 X46.7987 Y51.8446 
G01 X46.9112 Y52.0130 
G01 X46.9887 Y52.2001 
G01 X47.0282 Y52.3987 
G01 X47.0282 Y52.6013 
G01 X46.9887 Y52.7999 
G01 X46.9112 Y52.9870 
G01 X46.7987 Y53.1554 
G01 X46.6554 Y53.2987 
G01 X46.4870 Y53.4112 
G01 X46.2999 Y53.4887 
G01 X46.1013 Y53.5282 
G01 X10.8987 Y53.5282 
G01 X10.8726 Y53.5230 
G01 X9.8762 Y54.0924 
G01 X9.5125 Y54.8198 
G01 X9.5282 Y54.8987 
G01 X9.5282 Y89.1013 
G01 X9.4887 Y89.2999 
G01 X9.4112 Y89.4870 
G01 X9.3614 Y89.5616 
G01 X9.3736 Y89.6188 
G01 X9.4196 Y89.7607 
G01 X9.4803 Y89.8969 
G01 X9.5549 Y90.0261 
G01 X9.6426 Y90.1468 
G01 X9.7424 Y90.2576 
G01 X9.8532 Y90.3574 
G01 X9.9739 Y90.4451 
G01 X10.1031 Y90.5197 
G01 X10.2393 Y90.5804 
G01 X10.3812 Y90.6264 
G01 X10.5271 Y90.6575 
G01 X10.6421 Y90.6696 
G01 X10.7630 Y90.5888 
G01 X10.9501 Y90.5113 
G01 X11.1487 Y90.4718 
G01 X45.2140 Y90.4718 
G01 X45.2664 Y90.4677 
G01 X45.4060 Y90.4455 
G01 X45.5425 Y90.4089 
G01 X45.6744 Y90.3582 
G01 X45.8003 Y90.2941 
G01 X45.9188 Y90.2171 
G01 X46.0286 Y90.1281 
G01 X46.1285 Y90.0282 
G01 X46.2174 Y89.9183 
G01 X46.2944 Y89.7998 
G01 X46.3585 Y89.6739 
G01 X46.4091 Y89.5419 
G01 X46.4456 Y89.4054 
G01 X46.4677 Y89.2658 
G01 X46.4751 Y89.1247 
G01 X46.4749 Y89.1167 
G01 X46.4718 Y89.1013 
G01 X46.4718 Y89.0270 
G01 X46.4679 Y88.9529 
G01 X46.4718 Y88.9260 
G01 X46.4718 Y54.8987 
G01 X46.5113 Y54.7001 
G01 X46.5888 Y54.5130 
G01 X46.7013 Y54.3446 
G01 X46.8446 Y54.2013 
G01 X46.8502 Y54.1976 
G01 X47.1750 Y52.8984 
G01 X47.1750 Y47.1016 
G01 X46.8502 Y45.8024 
G01 X46.8446 Y45.7987 
G01 X46.7013 Y45.6554 
G01 X46.5888 Y45.4870 
G01 X46.5113 Y45.2999 
G01 X46.4718 Y45.1013 
G01 X46.4718 Y11.0000 
G01 X46.4698 Y10.9230 
G01 X46.4537 Y10.7698 
G01 X46.4216 Y10.6191 
G01 X46.3740 Y10.4726 
G01 X46.3114 Y10.3318 
G01 X46.2344 Y10.1984 
G01 X46.1438 Y10.0738 
G01 X46.0407 Y9.9593 
G01 X45.9262 Y9.8562 
G01 X45.8016 Y9.7656 
G01 X45.6682 Y9.6886 
G01 X45.5274 Y9.6260 
G01 X45.3809 Y9.5783 
G01 X45.2302 Y9.5463 
G01 X45.0770 Y9.5302 
G01 X45.0000 Y9.5282 
G01 X10.7500 Y9.5282 
G01 X10.6861 Y9.5299 
G01 X10.5589 Y9.5432 
G01 X10.4338 Y9.5698 
G01 X10.3121 Y9.6094 
G01 X10.1953 Y9.6614 
G01 X10.0846 Y9.7253 
G01 X9.9811 Y9.8005 
G01 X9.8861 Y9.8861 
G01 X9.8005 Y9.9811 
G01 X9.7253 Y10.0846 
G01 X9.6614 Y10.1953 
G01 X9.6094 Y10.3121 
G01 X9.5698 Y10.4338 
G01 X9.5432 Y10.5589 
G01 X9.5299 Y10.6861 
G01 X9.5282 Y10.7500 
G01 X9.5282 Y46.1013 
G01 X9.4887 Y46.2999 
G01 X9.4112 Y46.4870 
G01 X9.2987 Y46.6554 
G01 X9.1554 Y46.7987 
G01 X8.9870 Y46.9112 
G01 X8.7999 Y46.9887 
G01 X8.6013 Y47.0282 
G01 X8.3987 Y47.0282 
G01 X8.2001 Y46.9887 
G01 X8.0130 Y46.9112 
G01 X7.8446 Y46.7987 
G01 X7.7013 Y46.6554 
G01 X7.5888 Y46.4870 
G01 X7.5113 Y46.2999 
G01 X7.4718 Y46.1013 
G01 X7.4718 Y10.6487 
G01 X7.4718 Y10.5782 
G00 Z2.5000 
G00 X5.4036 Y31.9413 
G01 Z-0.1000 F254.00 
G01 X5.4265 Y31.8260 F400.00 
G01 X5.4715 Y31.7175 
G01 X5.5367 Y31.6198 
G01 X5.6198 Y31.5367 
G01 X5.7175 Y31.4715 
G01 X5.8260 Y31.4265 
G01 X5.9413 Y31.4036 
G01 X6.0587 Y31.4036 
G01 X6.1740 Y31.4265 
G01 X6.2825 Y31.4715 
G01 X6.3802 Y31.5367 
G01 X6.4633 Y31.6198 
G01 X6.5285 Y31.7175 
G01 X6.5735 Y31.8260 
G01 X6.5964 Y31.9413 
G01 X6.5964 Y33.4093 
G01 X6.6306 Y33.4179 
G01 X6.6740 Y33.4265 
G01 X6.6875 Y33.4321 
G01 X6.7016 Y33.4357 
G01 X6.7416 Y33.4546 
G01 X6.7825 Y33.4715 
G01 X6.7946 Y33.4796 
G01 X6.8079 Y33.4858 
G01 X6.8434 Y33.5122 
G01 X6.8802 Y33.5367 
G01 X6.8905 Y33.5471 
G01 X6.9023 Y33.5558 
G01 X6.9320 Y33.5885 
G01 X6.9633 Y33.6198 
G01 X6.9714 Y33.6320 
G01 X6.9812 Y33.6428 
G01 X7.0039 Y33.6807 
G01 X7.0285 Y33.7175 
G01 X7.0341 Y33.7310 
G01 X7.0416 Y33.7435 
G01 X7.0566 Y33.7852 
G01 X7.0735 Y33.8260 
G01 X7.0763 Y33.8404 
G01 X7.0813 Y33.8541 
G01 X7.0878 Y33.8979 
G01 X7.0964 Y33.9413 
G01 X7.0964 Y33.9559 
G01 X7.0985 Y33.9703 
G01 X7.0964 Y34.0145 
G01 X7.0964 Y34.0587 
G01 X7.0935 Y34.0731 
G01 X7.0928 Y34.0877 
G01 X7.0821 Y34.1306 
G01 X7.0735 Y34.1740 
G01 X7.0679 Y34.1875 
G01 X6.5856 Y36.1165 
G01 X6.5813 Y36.1459 
G01 X6.5763 Y36.1596 
G01 X6.5735 Y36.1740 
G01 X6.5679 Y36.1875 
G01 X6.5643 Y36.2016 
G01 X6.5517 Y36.2285 
G01 X6.5416 Y36.2565 
G01 X6.5341 Y36.2690 
G01 X6.5285 Y36.2825 
G01 X6.5204 Y36.2946 
G01 X6.5142 Y36.3079 
G01 X6.4965 Y36.3317 
G01 X6.4812 Y36.3572 
G01 X6.4714 Y36.3680 
G01 X6.4633 Y36.3802 
G01 X6.4529 Y36.3905 
G01 X6.4442 Y36.4023 
G01 X6.4222 Y36.4222 
G01 X6.4023 Y36.4442 
G01 X6.3905 Y36.4529 
G01 X6.3802 Y36.4633 
G01 X6.3680 Y36.4714 
G01 X6.3572 Y36.4812 
G01 X6.3317 Y36.4965 
G01 X6.3079 Y36.5142 
G01 X6.2946 Y36.5204 
G01 X6.2825 Y36.5285 
G01 X6.2690 Y36.5341 
G01 X6.2565 Y36.5416 
G01 X6.2285 Y36.5517 
G01 X6.2016 Y36.5643 
G01 X6.1875 Y36.5679 
G01 X6.1740 Y36.5735 
G01 X6.1596 Y36.5763 
G01 X6.1459 Y36.5813 
G01 X6.1165 Y36.5856 
G01 X6.0877 Y36.5928 
G01 X6.0731 Y36.5935 
G01 X6.0587 Y36.5964 
G01 X6.0441 Y36.5964 
G01 X6.0297 Y36.5985 
G01 X6.0000 Y36.5971 
G01 X5.9703 Y36.5985 
G01 X5.9559 Y36.5964 
G01 X5.9413 Y36.5964 
G01 X5.9269 Y36.5935 
G01 X5.9123 Y36.5928 
G01 X5.8835 Y36.5856 
G01 X5.8541 Y36.5813 
G01 X5.8404 Y36.5763 
G01 X5.8260 Y36.5735 
G01 X5.8125 Y36.5679 
G01 X5.7984 Y36.5643 
G01 X5.7715 Y36.5517 
G01 X5.7435 Y36.5416 
G01 X5.7310 Y36.5341 
G01 X5.7175 Y36.5285 
G01 X5.7054 Y36.5204 
G01 X5.6921 Y36.5142 
G01 X5.6683 Y36.4965 
G01 X5.6428 Y36.4812 
G01 X5.6320 Y36.4714 
G01 X5.6198 Y36.4633 
G01 X5.6095 Y36.4529 
G01 X5.5977 Y36.4442 
G01 X5.5778 Y36.4222 
G01 X5.5558 Y36.4023 
G01 X5.5471 Y36.3905 
G01 X5.5367 Y36.3802 
G01 X5.5286 Y36.3680 
G01 X5.5188 Y36.3572 
G01 X5.5035 Y36.3317 
G01 X5.4858 Y36.3079 
G01 X5.4796 Y36.2946 
G01 X5.4715 Y36.2825 
G01 X5.4659 Y36.2690 
G01 X5.4584 Y36.2565 
G01 X5.4483 Y36.2285 
G01 X5.4357 Y36.2016 
G01 X5.4321 Y36.1875 
G01 X5.4265 Y36.1740 
G01 X5.4237 Y36.1596 
G01 X5.4187 Y36.1459 
G01 X5.4144 Y36.1165 
G01 X4.9321 Y34.1875 
G01 X4.9265 Y34.1740 
G01 X4.9179 Y34.1306 
G01 X4.9072 Y34.0877 
G01 X4.9065 Y34.0731 
G01 X4.9036 Y34.0587 
G01 X4.9036 Y34.0145 
G01 X4.9015 Y33.9703 
G01 X4.9036 Y33.9559 
G01 X4.9036 Y33.9413 
G01 X4.9122 Y33.8979 
G01 X4.9187 Y33.8541 
G01 X4.9237 Y33.8404 
G01 X4.9265 Y33.8260 
G01 X4.9434 Y33.7852 
G01 X4.9584 Y33.7435 
G01 X4.9659 Y33.7310 
G01 X4.9715 Y33.7175 
G01 X4.9961 Y33.6807 
G01 X5.0188 Y33.6428 
G01 X5.0286 Y33.6320 
G01 X5.0367 Y33.6198 
G01 X5.0680 Y33.5885 
G01 X5.0977 Y33.5558 
G01 X5.1095 Y33.5471 
G01 X5.1198 Y33.5367 
G01 X5.1566 Y33.5122 
G01 X5.1921 Y33.4858 
G01 X5.2054 Y33.4796 
G01 X5.2175 Y33.4715 
G01 X5.2584 Y33.4546 
G01 X5.2984 Y33.4357 
G01 X5.3125 Y33.4321 
G01 X5.3260 Y33.4265 
G01 X5.3694 Y33.4179 
G01 X5.4036 Y33.4093 
G01 X5.4036 Y31.9413 
G00 Z2.5000 
G00 X51.0735 Y32.8260 
G01 Z-0.1000 F254.00 
G01 X51.0821 Y32.8694 F400.00 
G01 X51.0928 Y32.9123 
G01 X51.0935 Y32.9269 
G01 X51.0964 Y32.9413 
G01 X51.0964 Y32.9855 
G01 X51.0985 Y33.0297 
G01 X51.0964 Y33.0441 
G01 X51.0964 Y33.0587 
G01 X51.0878 Y33.1021 
G01 X51.0813 Y33.1459 
G01 X51.0763 Y33.1596 
G01 X51.0735 Y33.1740 
G01 X51.0566 Y33.2148 
G01 X51.0416 Y33.2565 
G01 X51.0341 Y33.2690 
G01 X51.0285 Y33.2825 
G01 X51.0039 Y33.3193 
G01 X50.9812 Y33.3572 
G01 X50.9714 Y33.3680 
G01 X50.9633 Y33.3802 
G01 X50.9320 Y33.4115 
G01 X50.9023 Y33.4442 
G01 X50.8905 Y33.4529 
G01 X50.8802 Y33.4633 
G01 X50.8434 Y33.4878 
G01 X50.8079 Y33.5142 
G01 X50.7946 Y33.5204 
G01 X50.7825 Y33.5285 
G01 X50.7416 Y33.5454 
G01 X50.7016 Y33.5643 
G01 X50.6875 Y33.5679 
G01 X50.6740 Y33.5735 
G01 X50.6306 Y33.5821 
G01 X50.5964 Y33.5907 
G01 X50.5964 Y35.0587 
G01 X50.5735 Y35.1740 
G01 X50.5285 Y35.2825 
G01 X50.4633 Y35.3802 
G01 X50.3802 Y35.4633 
G01 X50.2825 Y35.5285 
G01 X50.1740 Y35.5735 
G01 X50.0587 Y35.5964 
G01 X49.9413 Y35.5964 
G01 X49.8260 Y35.5735 
G01 X49.7175 Y35.5285 
G01 X49.6198 Y35.4633 
G01 X49.5367 Y35.3802 
G01 X49.4715 Y35.2825 
G01 X49.4265 Y35.1740 
G01 X49.4036 Y35.0587 
G01 X49.4036 Y33.5907 
G01 X49.3694 Y33.5821 
G01 X49.3260 Y33.5735 
G01 X49.3125 Y33.5679 
G01 X49.2984 Y33.5643 
G01 X49.2584 Y33.5454 
G01 X49.2175 Y33.5285 
G01 X49.2054 Y33.5204 
G01 X49.1921 Y33.5142 
G01 X49.1566 Y33.4878 
G01 X49.1198 Y33.4633 
G01 X49.1095 Y33.4529 
G01 X49.0977 Y33.4442 
G01 X49.0680 Y33.4115 
G01 X49.0367 Y33.3802 
G01 X49.0286 Y33.3680 
G01 X49.0188 Y33.3572 
G01 X48.9961 Y33.3193 
G01 X48.9715 Y33.2825 
G01 X48.9659 Y33.2690 
G01 X48.9584 Y33.2565 
G01 X48.9434 Y33.2148 
G01 X48.9265 Y33.1740 
G01 X48.9237 Y33.1596 
G01 X48.9187 Y33.1459 
G01 X48.9122 Y33.1021 
G01 X48.9036 Y33.0587 
G01 X48.9036 Y33.0441 
G01 X48.9015 Y33.0297 
G01 X48.9036 Y32.9855 
G01 X48.9036 Y32.9413 
G01 X48.9064 Y32.9269 
G01 X48.9072 Y32.9123 
G01 X48.9179 Y32.8694 
G01 X48.9265 Y32.8260 
G01 X48.9321 Y32.8125 
G01 X49.4144 Y30.8835 
G01 X49.4187 Y30.8541 
G01 X49.4237 Y30.8404 
G01 X49.4265 Y30.8260 
G01 X49.4321 Y30.8125 
G01 X49.4357 Y30.7984 
G01 X49.4483 Y30.7715 
G01 X49.4584 Y30.7435 
G01 X49.4659 Y30.7310 
G01 X49.4715 Y30.7175 
G01 X49.4796 Y30.7054 
G01 X49.4858 Y30.6921 
G01 X49.5035 Y30.6683 
G01 X49.5188 Y30.6428 
G01 X49.5286 Y30.6320 
G01 X49.5367 Y30.6198 
G01 X49.5471 Y30.6095 
G01 X49.5558 Y30.5977 
G01 X49.5778 Y30.5778 
G01 X49.5977 Y30.5558 
G01 X49.6095 Y30.5471 
G01 X49.6198 Y30.5367 
G01 X49.6320 Y30.5286 
G01 X49.6428 Y30.5188 
G01 X49.6683 Y30.5035 
G01 X49.6921 Y30.4858 
G01 X49.7054 Y30.4796 
G01 X49.7175 Y30.4715 
G01 X49.7310 Y30.4659 
G01 X49.7435 Y30.4584 
G01 X49.7715 Y30.4483 
G01 X49.7984 Y30.4357 
G01 X49.8125 Y30.4321 
G01 X49.8260 Y30.4265 
G01 X49.8404 Y30.4237 
G01 X49.8541 Y30.4187 
G01 X49.8835 Y30.4144 
G01 X49.9123 Y30.4072 
G01 X49.9269 Y30.4065 
G01 X49.9413 Y30.4036 
G01 X49.9559 Y30.4036 
G01 X49.9703 Y30.4015 
G01 X50.0000 Y30.4029 
G01 X50.0297 Y30.4015 
G01 X50.0441 Y30.4036 
G01 X50.0587 Y30.4036 
G01 X50.0731 Y30.4065 
G01 X50.0877 Y30.4072 
G01 X50.1165 Y30.4144 
G01 X50.1459 Y30.4187 
G01 X50.1596 Y30.4237 
G01 X50.1740 Y30.4265 
G01 X50.1875 Y30.4321 
G01 X50.2016 Y30.4357 
G01 X50.2285 Y30.4483 
G01 X50.2565 Y30.4584 
G01 X50.2690 Y30.4659 
G01 X50.2825 Y30.4715 
G01 X50.2946 Y30.4796 
G01 X50.3079 Y30.4858 
G01 X50.3317 Y30.5035 
G01 X50.3572 Y30.5188 
G01 X50.3680 Y30.5286 
G01 X50.3802 Y30.5367 
G01 X50.3905 Y30.5471 
G01 X50.4023 Y30.5558 
G01 X50.4222 Y30.5778 
G01 X50.4442 Y30.5977 
G01 X50.4529 Y30.6095 
G01 X50.4633 Y30.6198 
G01 X50.4714 Y30.6320 
G01 X50.4812 Y30.6428 
G01 X50.4965 Y30.6683 
G01 X50.5142 Y30.6921 
G01 X50.5204 Y30.7054 
G01 X50.5285 Y30.7175 
G01 X50.5341 Y30.7310 
G01 X50.5416 Y30.7435 
G01 X50.5517 Y30.7715 
G01 X50.5643 Y30.7984 
G01 X50.5679 Y30.8125 
G01 X50.5735 Y30.8260 
G01 X50.5763 Y30.8404 
G01 X50.5813 Y30.8541 
G01 X50.5856 Y30.8835 
G01 X51.0679 Y32.8125 
G01 X51.0735 Y32.8260 
G00 Z2.5000 
G00 X24.1913 Y94.5964 
G01 Z-0.1000 F254.00 
G01 X24.0760 Y94.5735 F400.00 
G01 X23.9675 Y94.5285 
G01 X23.8698 Y94.4633 
G01 X23.7867 Y94.3802 
G01 X23.7215 Y94.2825 
G01 X23.6765 Y94.1740 
G01 X23.6536 Y94.0587 
G01 X23.6536 Y93.9413 
G01 X23.6765 Y93.8260 
G01 X23.7215 Y93.7175 
G01 X23.7867 Y93.6198 
G01 X23.8698 Y93.5367 
G01 X23.9675 Y93.4715 
G01 X24.0760 Y93.4265 
G01 X24.1913 Y93.4036 
G01 X25.4093 Y93.4036 
G01 X25.4179 Y93.3694 
G01 X25.4265 Y93.3260 
G01 X25.4321 Y93.3125 
G01 X25.4357 Y93.2984 
G01 X25.4546 Y93.2584 
G01 X25.4715 Y93.2175 
G01 X25.4796 Y93.2054 
G01 X25.4858 Y93.1921 
G01 X25.5122 Y93.1566 
G01 X25.5367 Y93.1198 
G01 X25.5471 Y93.1095 
G01 X25.5558 Y93.0977 
G01 X25.5885 Y93.0680 
G01 X25.6198 Y93.0367 
G01 X25.6320 Y93.0286 
G01 X25.6428 Y93.0188 
G01 X25.6807 Y92.9961 
G01 X25.7175 Y92.9715 
G01 X25.7310 Y92.9659 
G01 X25.7435 Y92.9584 
G01 X25.7852 Y92.9434 
G01 X25.8260 Y92.9265 
G01 X25.8404 Y92.9237 
G01 X25.8541 Y92.9187 
G01 X25.8979 Y92.9122 
G01 X25.9413 Y92.9036 
G01 X25.9559 Y92.9036 
G01 X25.9703 Y92.9015 
G01 X26.0145 Y92.9036 
G01 X26.0587 Y92.9036 
G01 X26.0731 Y92.9065 
G01 X26.0877 Y92.9072 
G01 X26.1306 Y92.9179 
G01 X26.1740 Y92.9265 
G01 X26.1875 Y92.9321 
G01 X28.1165 Y93.4144 
G01 X28.1459 Y93.4187 
G01 X28.1596 Y93.4237 
G01 X28.1740 Y93.4265 
G01 X28.1875 Y93.4321 
G01 X28.2016 Y93.4357 
G01 X28.2285 Y93.4483 
G01 X28.2565 Y93.4584 
G01 X28.2690 Y93.4659 
G01 X28.2825 Y93.4715 
G01 X28.2946 Y93.4796 
G01 X28.3079 Y93.4858 
G01 X28.3317 Y93.5035 
G01 X28.3572 Y93.5188 
G01 X28.3680 Y93.5286 
G01 X28.3802 Y93.5367 
G01 X28.3905 Y93.5471 
G01 X28.4023 Y93.5558 
G01 X28.4222 Y93.5778 
G01 X28.4442 Y93.5977 
G01 X28.4529 Y93.6095 
G01 X28.4633 Y93.6198 
G01 X28.4714 Y93.6320 
G01 X28.4812 Y93.6428 
G01 X28.4965 Y93.6683 
G01 X28.5142 Y93.6921 
G01 X28.5204 Y93.7054 
G01 X28.5285 Y93.7175 
G01 X28.5341 Y93.7310 
G01 X28.5416 Y93.7435 
G01 X28.5517 Y93.7715 
G01 X28.5643 Y93.7984 
G01 X28.5679 Y93.8125 
G01 X28.5735 Y93.8260 
G01 X28.5763 Y93.8404 
G01 X28.5813 Y93.8541 
G01 X28.5856 Y93.8835 
G01 X28.5928 Y93.9123 
G01 X28.5935 Y93.9269 
G01 X28.5964 Y93.9413 
G01 X28.5964 Y93.9559 
G01 X28.5985 Y93.9703 
G01 X28.5971 Y94.0000 
G01 X28.5985 Y94.0297 
G01 X28.5964 Y94.0441 
G01 X28.5964 Y94.0587 
G01 X28.5935 Y94.0731 
G01 X28.5928 Y94.0877 
G01 X28.5856 Y94.1165 
G01 X28.5813 Y94.1459 
G01 X28.5763 Y94.1596 
G01 X28.5735 Y94.1740 
G01 X28.5679 Y94.1875 
G01 X28.5643 Y94.2016 
G01 X28.5517 Y94.2285 
G01 X28.5416 Y94.2565 
G01 X28.5341 Y94.2690 
G01 X28.5285 Y94.2825 
G01 X28.5204 Y94.2946 
G01 X28.5142 Y94.3079 
G01 X28.4965 Y94.3317 
G01 X28.4812 Y94.3572 
G01 X28.4714 Y94.3680 
G01 X28.4633 Y94.3802 
G01 X28.4529 Y94.3905 
G01 X28.4442 Y94.4023 
G01 X28.4222 Y94.4222 
G01 X28.4023 Y94.4442 
G01 X28.3905 Y94.4529 
G01 X28.3802 Y94.4633 
G01 X28.3680 Y94.4714 
G01 X28.3572 Y94.4812 
G01 X28.3317 Y94.4965 
G01 X28.3079 Y94.5142 
G01 X28.2946 Y94.5204 
G01 X28.2825 Y94.5285 
G01 X28.2690 Y94.5341 
G01 X28.2565 Y94.5416 
G01 X28.2285 Y94.5517 
G01 X28.2016 Y94.5643 
G01 X28.1875 Y94.5679 
G01 X28.1740 Y94.5735 
G01 X28.1596 Y94.5763 
G01 X28.1459 Y94.5813 
G01 X28.1165 Y94.5856 
G01 X26.1875 Y95.0679 
G01 X26.1740 Y95.0735 
G01 X26.1306 Y95.0821 
G01 X26.0877 Y95.0928 
G01 X26.0731 Y95.0935 
G01 X26.0587 Y95.0964 
G01 X26.0145 Y95.0964 
G01 X25.9703 Y95.0985 
G01 X25.9559 Y95.0964 
G01 X25.9413 Y95.0964 
G01 X25.8979 Y95.0878 
G01 X25.8541 Y95.0813 
G01 X25.8404 Y95.0763 
G01 X25.8260 Y95.0735 
G01 X25.7852 Y95.0566 
G01 X25.7435 Y95.0416 
G01 X25.7310 Y95.0341 
G01 X25.7175 Y95.0285 
G01 X25.6807 Y95.0039 
G01 X25.6428 Y94.9812 
G01 X25.6320 Y94.9714 
G01 X25.6198 Y94.9633 
G01 X25.5885 Y94.9320 
G01 X25.5558 Y94.9023 
G01 X25.5471 Y94.8905 
G01 X25.5367 Y94.8802 
G01 X25.5122 Y94.8434 
G01 X25.4858 Y94.8079 
G01 X25.4796 Y94.7946 
G01 X25.4715 Y94.7825 
G01 X25.4546 Y94.7416 
G01 X25.4357 Y94.7016 
G01 X25.4321 Y94.6875 
G01 X25.4265 Y94.6740 
G01 X25.4179 Y94.6306 
G01 X25.4093 Y94.5964 
G01 X24.1913 Y94.5964 
G00 Z2.5000 
G00 X40.3987 Y48.9718 
G01 Z-0.1000 F254.00 
G01 X46.1013 Y48.9718 F400.00 
G01 X46.2999 Y49.0113 
G01 X46.4870 Y49.0888 
G01 X46.6554 Y49.2013 
G01 X46.7987 Y49.3446 
G01 X46.9112 Y49.5130 
G01 X46.9887 Y49.7001 
G01 X47.0282 Y49.8987 
G01 X47.0282 Y50.1013 
G01 X46.9887 Y50.2999 
G01 X46.9112 Y50.4870 
G01 X46.7987 Y50.6554 
G01 X46.6554 Y50.7987 
G01 X46.4870 Y50.9112 
G01 X46.2999 Y50.9887 
G01 X46.1013 Y51.0282 
G01 X40.3987 Y51.0282 
G01 X40.2001 Y50.9887 
G01 X40.0130 Y50.9112 
G01 X39.8446 Y50.7987 
G01 X39.7013 Y50.6554 
G01 X39.5888 Y50.4870 
G01 X39.5113 Y50.2999 
G01 X39.4718 Y50.1013 
G01 X39.4718 Y49.8987 
G01 X39.5113 Y49.7001 
G01 X39.5888 Y49.5130 
G01 X39.7013 Y49.3446 
G01 X39.8446 Y49.2013 
G01 X40.0130 Y49.0888 
G01 X40.2001 Y49.0113 
G01 X40.3987 Y48.9718 
G00 Z2.5000 
G00 X9.6555 Y89.9608 
G01 Z-0.1000 F254.00 
G01 X9.7358 Y90.0713 F400.00 
G01 X9.8272 Y90.1728 
G01 X9.9287 Y90.2642 
G01 X10.0392 Y90.3445 
G01 X10.1575 Y90.4128 
G01 X10.2823 Y90.4683 
G01 X10.4122 Y90.5105 
G01 X10.5459 Y90.5389 
G01 X10.6101 Y90.5457 
G01 X10.6482 Y90.5180 
G01 X10.8092 Y90.4359 
G01 X10.9811 Y90.3801 
G01 X11.1596 Y90.3518 
G01 X45.2098 Y90.3518 
G01 X45.2539 Y90.3483 
G01 X45.3810 Y90.3282 
G01 X45.5054 Y90.2948 
G01 X45.6256 Y90.2486 
G01 X45.7403 Y90.1902 
G01 X45.8482 Y90.1200 
G01 X45.9483 Y90.0389 
G01 X46.0393 Y89.9479 
G01 X46.1203 Y89.8478 
G01 X46.1904 Y89.7398 
G01 X46.2489 Y89.6251 
G01 X46.2950 Y89.5049 
G01 X46.3283 Y89.3805 
G01 X46.3484 Y89.2533 
G01 X46.3551 Y89.1247 
G01 X46.3547 Y89.1084 
G01 X46.3518 Y89.0904 
G01 X46.3518 Y89.0302 
G01 X46.3486 Y88.9701 
G01 X46.3518 Y88.9400 
G01 X46.3518 Y54.9096 
G01 X46.3801 Y54.7311 
G01 X46.4359 Y54.5592 
G01 X46.5180 Y54.3982 
G01 X46.6242 Y54.2520 
G01 X46.7425 Y54.1337 
G01 X47.0182 Y53.0307 
G01 X46.9820 Y53.1018 
G01 X46.8758 Y53.2480 
G01 X46.7480 Y53.3758 
G01 X46.6018 Y53.4820 
G01 X46.4408 Y53.5641 
G01 X46.2689 Y53.6199 
G01 X46.0904 Y53.6482 
G01 X10.9096 Y53.6482 
G01 X10.8985 Y53.6464 
G01 X9.9673 Y54.1785 
G01 X9.6370 Y54.8390 
G01 X9.6482 Y54.9096 
G01 X9.6482 Y89.0904 
G01 X9.6199 Y89.2689 
G01 X9.5641 Y89.4408 
G01 X9.4894 Y89.5874 
G01 X9.5317 Y89.7177 
G01 X9.5872 Y89.8425 
G01 X9.6555 Y89.9608 
G00 Z2.5000 
G00 X45.3100 Y54.9592 
G01 Z-0.1000 F254.00 
G01 X45.3100 Y89.0408 F400.00 
G01 X45.2889 Y89.1197 
G01 X45.2481 Y89.1903 
G01 X45.1903 Y89.2481 
G01 X45.1197 Y89.2889 
G01 X45.0408 Y89.3100 
G01 X10.9592 Y89.3100 
G01 X10.8803 Y89.2889 
G01 X10.8097 Y89.2481 
G01 X10.7519 Y89.1903 
G01 X10.7111 Y89.1197 
G01 X10.6900 Y89.0408 
G01 X10.6900 Y54.9592 
G01 X10.7111 Y54.8803 
G01 X10.7519 Y54.8097 
G01 X10.8097 Y54.7519 
G01 X10.8803 Y54.7111 
G01 X10.9592 Y54.6900 
G01 X45.0408 Y54.6900 
G01 X45.1197 Y54.7111 
G01 X45.1903 Y54.7519 
G01 X45.2481 Y54.8097 
G01 X45.2889 Y54.8803 
G01 X45.3100 Y54.9592 
G00 Z2.5000 
G00 X7.1482 Y40.4096 
G01 Z-0.1000 F254.00 
G01 X7.1482 Y46.0904 F400.00 
G01 X7.1199 Y46.2689 
