(Project seven-segment-body-upright-milled-segments)
(Created by Estlcam version 11 build 11.113)
(Machining time about 00:34:57 hours)

(Required tools:)
(endmil 3.2 plastic)

M03 S10000
G00 Z5.0000


(No. 1 Part: Part 2)
G00 X15.5768 Y12.1834
G00 Z0.5000
G01 Z-1.0000 F400 S10000
G01 X7.4464 F800
G03 X5.2579 Y11.2686 I0.0068 J-3.0916
G01 X2.5221 Y8.5327
G03 X1.6248 Y6.4614 I2.1866 J-2.1772
G01 X1.6224 Y6.3040
G03 X2.5362 Y4.1699 I3.0776 J0.0552
G01 X5.2721 Y1.4340
G03 X7.4664 Y0.5334 I2.1812 J2.1909
G01 X15.5968
G01 X20.7468
G01 X26.3021
G01 X31.4521
G01 X39.5825
G03 X41.7710 Y1.4482 I-0.0068 J3.0916
G01 X44.5068 Y4.1840
G03 X44.4927 Y8.5469 I-2.1760 J2.1744
G01 X41.7568 Y11.2827
G03 X39.5625 Y12.1834 I-2.1812 J-2.1909
G01 X31.4321
G01 X26.2821
G01 X20.7268
G01 X15.5768
G01 Z-2.0000 F400
G01 X7.4464 F800
G03 X5.2579 Y11.2686 I0.0068 J-3.0916
G01 X2.5221 Y8.5327
G03 X1.6248 Y6.4614 I2.1866 J-2.1772
G01 X1.6224 Y6.3040
G03 X2.5362 Y4.1699 I3.0776 J0.0552
G01 X5.2721 Y1.4340
G03 X7.4664 Y0.5334 I2.1812 J2.1909
G01 X15.5968
G01 X20.7468
G01 X26.3021
G01 X31.4521
G01 X39.5825
G03 X41.7710 Y1.4482 I-0.0068 J3.0916
G01 X44.5068 Y4.1840
G03 X44.4927 Y8.5469 I-2.1760 J2.1744
G01 X41.7568 Y11.2827
G03 X39.5625 Y12.1834 I-2.1812 J-2.1909
G01 X31.4321
G01 X26.2821
G01 X20.7268
G01 X15.5768
G01 Z-3.0000 F400
G01 X7.4464 F800
G03 X5.2579 Y11.2686 I0.0068 J-3.0916
G01 X2.5221 Y8.5327
G03 X1.6248 Y6.4614 I2.1866 J-2.1772
G01 X1.6224 Y6.3040
G03 X2.5362 Y4.1699 I3.0776 J0.0552
G01 X5.2721 Y1.4340
G03 X7.4664 Y0.5334 I2.1812 J2.1909
G01 X15.5968
G01 X20.7468
G01 X26.3021
G01 X31.4521
G01 X39.5825
G03 X41.7710 Y1.4482 I-0.0068 J3.0916
G01 X44.5068 Y4.1840
G03 X44.4927 Y8.5469 I-2.1760 J2.1744
G01 X41.7568 Y11.2827
G03 X39.5625 Y12.1834 I-2.1812 J-2.1909
G01 X31.4321
G01 X26.2821
G01 X20.7268
G01 X15.5768
G01 Z-4.0000 F400
G01 X7.4464 F800
G03 X5.2579 Y11.2686 I0.0068 J-3.0916
G01 X2.5221 Y8.5327
G03 X1.6248 Y6.4614 I2.1866 J-2.1772
G01 X1.6224 Y6.3040
G03 X2.5362 Y4.1699 I3.0776 J0.0552
G01 X5.2721 Y1.4340
G03 X7.4664 Y0.5334 I2.1812 J2.1909
G01 X15.5968
G01 X20.7468
G01 X26.3021
G01 X31.4521
G01 X39.5825
G03 X41.7710 Y1.4482 I-0.0068 J3.0916
G01 X44.5068 Y4.1840
G03 X44.4927 Y8.5469 I-2.1760 J2.1744
G01 X41.7568 Y11.2827
G03 X39.5625 Y12.1834 I-2.1812 J-2.1909
G01 X31.4321
G01 X26.2821
G01 X20.7268
G01 X15.5768
G01 Z-5.0000 F400
G01 X7.4464 F800
G03 X5.2579 Y11.2686 I0.0068 J-3.0916
G01 X2.5221 Y8.5327
G03 X1.6248 Y6.4614 I2.1866 J-2.1772
G01 X1.6224 Y6.3040
G03 X2.5362 Y4.1699 I3.0776 J0.0552
G01 X5.2721 Y1.4340
G03 X7.4664 Y0.5334 I2.1812 J2.1909
G01 X15.5968
G01 X20.7468
G01 X26.3021
G01 X31.4521
G01 X39.5825
G03 X41.7710 Y1.4482 I-0.0068 J3.0916
G01 X44.5068 Y4.1840
G03 X44.4927 Y8.5469 I-2.1760 J2.1744
G01 X41.7568 Y11.2827
G03 X39.5625 Y12.1834 I-2.1812 J-2.1909
G01 X31.4321
G01 X26.2821
G01 X20.7268
G01 X15.5768
G01 Z-6.0000 F400
G01 X7.4464 F800
G03 X5.2579 Y11.2686 I0.0068 J-3.0916
G01 X2.5221 Y8.5327
G03 X1.6248 Y6.4614 I2.1866 J-2.1772
G01 X1.6224 Y6.3040
G03 X2.5362 Y4.1699 I3.0776 J0.0552
G01 X5.2721 Y1.4340
G03 X7.4664 Y0.5334 I2.1812 J2.1909
G01 X15.5968
G00 Z-5.5000
G01 X20.7468
G01 Z-6.0000 F400
G01 X26.3021 F800
G00 Z-5.5000
G01 X31.4521
G01 Z-6.0000 F400
G01 X39.5825 F800
G03 X41.7710 Y1.4482 I-0.0068 J3.0916
G01 X44.5068 Y4.1840
G03 X44.4927 Y8.5469 I-2.1760 J2.1744
G01 X41.7568 Y11.2827
G03 X39.5625 Y12.1834 I-2.1812 J-2.1909
G01 X31.4321
G00 Z-5.5000
G01 X26.2821
G01 Z-6.0000 F400
G01 X20.7268 F800
G00 Z-5.5000
G01 X15.5768
G01 Z-7.0000 F400
G01 X7.4464 F800
G03 X5.2579 Y11.2686 I0.0068 J-3.0916
G01 X2.5221 Y8.5327
G03 X1.6248 Y6.4614 I2.1866 J-2.1772
G01 X1.6224 Y6.3040
G03 X2.5362 Y4.1699 I3.0776 J0.0552
G01 X5.2721 Y1.4340
G03 X7.4664 Y0.5334 I2.1812 J2.1909
G01 X15.5968
G00 Z-5.5000
G01 X20.7468
G01 Z-7.0000 F400
G01 X26.3021 F800
G00 Z-5.5000
G01 X31.4521
G01 Z-7.0000 F400
G01 X39.5825 F800
G03 X41.7710 Y1.4482 I-0.0068 J3.0916
G01 X44.5068 Y4.1840
G03 X44.4927 Y8.5469 I-2.1760 J2.1744
G01 X41.7568 Y11.2827
G03 X39.5625 Y12.1834 I-2.1812 J-2.1909
G01 X31.4321
G00 Z-5.5000
G01 X26.2821
G01 Z-7.0000 F400
G01 X20.7268 F800
G00 Z-5.5000
G01 X15.5768
G00 Z-6.5000
G01 Z-8.0000 F400
G01 X7.4464 F800
G03 X5.2579 Y11.2686 I0.0068 J-3.0916
G01 X2.5221 Y8.5327
G03 X1.6248 Y6.4614 I2.1866 J-2.1772
G01 X1.6224 Y6.3040
G03 X2.5362 Y4.1699 I3.0776 J0.0552
G01 X5.2721 Y1.4340
G03 X7.4664 Y0.5334 I2.1812 J2.1909
G01 X15.5968
G00 Z-5.5000
G01 X20.7468
G00 Z-6.5000
G01 Z-8.0000 F400
G01 X26.3021 F800
G00 Z-5.5000
G01 X31.4521
G00 Z-6.5000
G01 Z-8.0000 F400
G01 X39.5825 F800
G03 X41.7710 Y1.4482 I-0.0068 J3.0916
G01 X44.5068 Y4.1840
G03 X44.4927 Y8.5469 I-2.1760 J2.1744
G01 X41.7568 Y11.2827
G03 X39.5625 Y12.1834 I-2.1812 J-2.1909
G01 X31.4321
G00 Z-5.5000
G01 X26.2821
G00 Z-6.5000
G01 Z-8.0000 F400
G01 X20.7268 F800
G00 Z-5.5000
G01 X15.5768
G00 Z5.0000


(No. 2 Part: Part 2)
G00 X15.5768 Y29.1834 Z5.0000
G00 Z0.5000
G01 Z-1.0000 F400
G01 X7.4464 F800
G03 X5.2579 Y28.2686 I0.0068 J-3.0916
G01 X2.5221 Y25.5327
G03 X1.6248 Y23.4614 I2.1866 J-2.1772
G01 X1.6224 Y23.3040
G03 X2.5362 Y21.1699 I3.0776 J0.0552
G01 X5.2721 Y18.4340
G03 X7.4664 Y17.5334 I2.1812 J2.1909
G01 X15.5968
G01 X20.7468
G01 X26.3021
G01 X31.4521
G01 X39.5825
G03 X41.7710 Y18.4482 I-0.0068 J3.0916
G01 X44.5068 Y21.1840
G03 X44.4927 Y25.5469 I-2.1760 J2.1744
G01 X41.7568 Y28.2827
G03 X39.5625 Y29.1834 I-2.1812 J-2.1909
G01 X31.4321
G01 X26.2821
G01 X20.7268
G01 X15.5768
G01 Z-2.0000 F400
G01 X7.4464 F800
G03 X5.2579 Y28.2686 I0.0068 J-3.0916
G01 X2.5221 Y25.5327
G03 X1.6248 Y23.4614 I2.1866 J-2.1772
G01 X1.6224 Y23.3040
G03 X2.5362 Y21.1699 I3.0776 J0.0552
G01 X5.2721 Y18.4340
G03 X7.4664 Y17.5334 I2.1812 J2.1909
G01 X15.5968
G01 X20.7468
G01 X26.3021
G01 X31.4521
G01 X39.5825
G03 X41.7710 Y18.4482 I-0.0068 J3.0916
G01 X44.5068 Y21.1840
G03 X44.4927 Y25.5469 I-2.1760 J2.1744
G01 X41.7568 Y28.2827
G03 X39.5625 Y29.1834 I-2.1812 J-2.1909
G01 X31.4321
G01 X26.2821
G01 X20.7268
G01 X15.5768
G01 Z-3.0000 F400
G01 X7.4464 F800
G03 X5.2579 Y28.2686 I0.0068 J-3.0916
G01 X2.5221 Y25.5327
G03 X1.6248 Y23.4614 I2.1866 J-2.1772
G01 X1.6224 Y23.3040
G03 X2.5362 Y21.1699 I3.0776 J0.0552
G01 X5.2721 Y18.4340
G03 X7.4664 Y17.5334 I2.1812 J2.1909
G01 X15.5968
G01 X20.7468
G01 X26.3021
G01 X31.4521
G01 X39.5825
G03 X41.7710 Y18.4482 I-0.0068 J3.0916
G01 X44.5068 Y21.1840
G03 X44.4927 Y25.5469 I-2.1760 J2.1744
G01 X41.7568 Y28.2827
G03 X39.5625 Y29.1834 I-2.1812 J-2.1909
G01 X31.4321
G01 X26.2821
G01 X20.7268
G01 X15.5768
G01 Z-4.0000 F400
G01 X7.4464 F800
G03 X5.2579 Y28.2686 I0.0068 J-3.0916
G01 X2.5221 Y25.5327
G03 X1.6248 Y23.4614 I2.1866 J-2.1772
G01 X1.6224 Y23.3040
G03 X2.5362 Y21.1699 I3.0776 J0.0552
G01 X5.2721 Y18.4340
G03 X7.4664 Y17.5334 I2.1812 J2.1909
G01 X15.5968
G01 X20.7468
G01 X26.3021
G01 X31.4521
G01 X39.5825
G03 X41.7710 Y18.4482 I-0.0068 J3.0916
G01 X44.5068 Y21.1840
G03 X44.4927 Y25.5469 I-2.1760 J2.1744
G01 X41.7568 Y28.2827
G03 X39.5625 Y29.1834 I-2.1812 J-2.1909
G01 X31.4321
G01 X26.2821
G01 X20.7268
G01 X15.5768
G01 Z-5.0000 F400
G01 X7.4464 F800
G03 X5.2579 Y28.2686 I0.0068 J-3.0916
G01 X2.5221 Y25.5327
G03 X1.6248 Y23.4614 I2.1866 J-2.1772
G01 X1.6224 Y23.3040
G03 X2.5362 Y21.1699 I3.0776 J0.0552
G01 X5.2721 Y18.4340
G03 X7.4664 Y17.5334 I2.1812 J2.1909
G01 X15.5968
G01 X20.7468
G01 X26.3021
G01 X31.4521
G01 X39.5825
G03 X41.7710 Y18.4482 I-0.0068 J3.0916
G01 X44.5068 Y21.1840
G03 X44.4927 Y25.5469 I-2.1760 J2.1744
G01 X41.7568 Y28.2827
G03 X39.5625 Y29.1834 I-2.1812 J-2.1909
G01 X31.4321
G01 X26.2821
G01 X20.7268
G01 X15.5768
G01 Z-6.0000 F400
G01 X7.4464 F800
G03 X5.2579 Y28.2686 I0.0068 J-3.0916
G01 X2.5221 Y25.5327
G03 X1.6248 Y23.4614 I2.1866 J-2.1772
G01 X1.6224 Y23.3040
G03 X2.5362 Y21.1699 I3.0776 J0.0552
G01 X5.2721 Y18.4340
G03 X7.4664 Y17.5334 I2.1812 J2.1909
G01 X15.5968
G00 Z-5.5000
G01 X20.7468
G01 Z-6.0000 F400
G01 X26.3021 F800
G00 Z-5.5000
G01 X31.4521
G01 Z-6.0000 F400
G01 X39.5825 F800
G03 X41.7710 Y18.4482 I-0.0068 J3.0916
G01 X44.5068 Y21.1840
G03 X44.4927 Y25.5469 I-2.1760 J2.1744
G01 X41.7568 Y28.2827
G03 X39.5625 Y29.1834 I-2.1812 J-2.1909
G01 X31.4321
G00 Z-5.5000
G01 X26.2821
G01 Z-6.0000 F400
G01 X20.7268 F800
G00 Z-5.5000
G01 X15.5768
G01 Z-7.0000 F400
G01 X7.4464 F800
G03 X5.2579 Y28.2686 I0.0068 J-3.0916
G01 X2.5221 Y25.5327
G03 X1.6248 Y23.4614 I2.1866 J-2.1772
G01 X1.6224 Y23.3040
G03 X2.5362 Y21.1699 I3.0776 J0.0552
G01 X5.2721 Y18.4340
G03 X7.4664 Y17.5334 I2.1812 J2.1909
G01 X15.5968
G00 Z-5.5000
G01 X20.7468
G01 Z-7.0000 F400
G01 X26.3021 F800
G00 Z-5.5000
G01 X31.4521
G01 Z-7.0000 F400
G01 X39.5825 F800
G03 X41.7710 Y18.4482 I-0.0068 J3.0916
G01 X44.5068 Y21.1840
G03 X44.4927 Y25.5469 I-2.1760 J2.1744
G01 X41.7568 Y28.2827
G03 X39.5625 Y29.1834 I-2.1812 J-2.1909
G01 X31.4321
G00 Z-5.5000
G01 X26.2821
G01 Z-7.0000 F400
G01 X20.7268 F800
G00 Z-5.5000
G01 X15.5768
G00 Z-6.5000
G01 Z-8.0000 F400
G01 X7.4464 F800
G03 X5.2579 Y28.2686 I0.0068 J-3.0916
G01 X2.5221 Y25.5327
G03 X1.6248 Y23.4614 I2.1866 J-2.1772
G01 X1.6224 Y23.3040
G03 X2.5362 Y21.1699 I3.0776 J0.0552
G01 X5.2721 Y18.4340
G03 X7.4664 Y17.5334 I2.1812 J2.1909
G01 X15.5968
G00 Z-5.5000
G01 X20.7468
G00 Z-6.5000
G01 Z-8.0000 F400
G01 X26.3021 F800
G00 Z-5.5000
G01 X31.4521
G00 Z-6.5000
G01 Z-8.0000 F400
G01 X39.5825 F800
G03 X41.7710 Y18.4482 I-0.0068 J3.0916
G01 X44.5068 Y21.1840
G03 X44.4927 Y25.5469 I-2.1760 J2.1744
G01 X41.7568 Y28.2827
G03 X39.5625 Y29.1834 I-2.1812 J-2.1909
G01 X31.4321
G00 Z-5.5000
G01 X26.2821
G00 Z-6.5000
G01 Z-8.0000 F400
G01 X20.7268 F800
G00 Z-5.5000
G01 X15.5768
G00 Z5.0000


(No. 3 Part: Part 2)
G00 X15.5768 Y46.1834 Z5.0000
G00 Z0.5000
G01 Z-1.0000 F400
G01 X7.4464 F800
G03 X5.2579 Y45.2686 I0.0068 J-3.0916
G01 X2.5221 Y42.5327
G03 X1.6248 Y40.4614 I2.1866 J-2.1772
G01 X1.6224 Y40.3040
G03 X2.5362 Y38.1699 I3.0776 J0.0552
G01 X5.2721 Y35.4340
G03 X7.4664 Y34.5334 I2.1812 J2.1909
G01 X15.5968
G01 X20.7468
G01 X26.3021
G01 X31.4521
G01 X39.5825
G03 X41.7710 Y35.4482 I-0.0068 J3.0916
G01 X44.5068 Y38.1840
G03 X44.4927 Y42.5469 I-2.1760 J2.1744
G01 X41.7568 Y45.2827
G03 X39.5625 Y46.1834 I-2.1812 J-2.1909
G01 X31.4321
G01 X26.2821
G01 X20.7268
G01 X15.5768
G01 Z-2.0000 F400
G01 X7.4464 F800
G03 X5.2579 Y45.2686 I0.0068 J-3.0916
G01 X2.5221 Y42.5327
G03 X1.6248 Y40.4614 I2.1866 J-2.1772
G01 X1.6224 Y40.3040
G03 X2.5362 Y38.1699 I3.0776 J0.0552
G01 X5.2721 Y35.4340
G03 X7.4664 Y34.5334 I2.1812 J2.1909
G01 X15.5968
G01 X20.7468
G01 X26.3021
G01 X31.4521
G01 X39.5825
G03 X41.7710 Y35.4482 I-0.0068 J3.0916
G01 X44.5068 Y38.1840
G03 X44.4927 Y42.5469 I-2.1760 J2.1744
G01 X41.7568 Y45.2827
G03 X39.5625 Y46.1834 I-2.1812 J-2.1909
G01 X31.4321
G01 X26.2821
G01 X20.7268
G01 X15.5768
G01 Z-3.0000 F400
G01 X7.4464 F800
G03 X5.2579 Y45.2686 I0.0068 J-3.0916
G01 X2.5221 Y42.5327
G03 X1.6248 Y40.4614 I2.1866 J-2.1772
G01 X1.6224 Y40.3040
G03 X2.5362 Y38.1699 I3.0776 J0.0552
G01 X5.2721 Y35.4340
G03 X7.4664 Y34.5334 I2.1812 J2.1909
G01 X15.5968
G01 X20.7468
G01 X26.3021
G01 X31.4521
G01 X39.5825
G03 X41.7710 Y35.4482 I-0.0068 J3.0916
G01 X44.5068 Y38.1840
G03 X44.4927 Y42.5469 I-2.1760 J2.1744
G01 X41.7568 Y45.2827
G03 X39.5625 Y46.1834 I-2.1812 J-2.1909
G01 X31.4321
G01 X26.2821
G01 X20.7268
G01 X15.5768
G01 Z-4.0000 F400
G01 X7.4464 F800
G03 X5.2579 Y45.2686 I0.0068 J-3.0916
G01 X2.5221 Y42.5327
G03 X1.6248 Y40.4614 I2.1866 J-2.1772
G01 X1.6224 Y40.3040
G03 X2.5362 Y38.1699 I3.0776 J0.0552
G01 X5.2721 Y35.4340
G03 X7.4664 Y34.5334 I2.1812 J2.1909
G01 X15.5968
G01 X20.7468
G01 X26.3021
G01 X31.4521
G01 X39.5825
G03 X41.7710 Y35.4482 I-0.0068 J3.0916
G01 X44.5068 Y38.1840
G03 X44.4927 Y42.5469 I-2.1760 J2.1744
G01 X41.7568 Y45.2827
G03 X39.5625 Y46.1834 I-2.1812 J-2.1909
G01 X31.4321
G01 X26.2821
G01 X20.7268
G01 X15.5768
G01 Z-5.0000 F400
G01 X7.4464 F800
G03 X5.2579 Y45.2686 I0.0068 J-3.0916
G01 X2.5221 Y42.5327
G03 X1.6248 Y40.4614 I2.1866 J-2.1772
G01 X1.6224 Y40.3040
G03 X2.5362 Y38.1699 I3.0776 J0.0552
G01 X5.2721 Y35.4340
G03 X7.4664 Y34.5334 I2.1812 J2.1909
G01 X15.5968
G01 X20.7468
G01 X26.3021
G01 X31.4521
G01 X39.5825
G03 X41.7710 Y35.4482 I-0.0068 J3.0916
G01 X44.5068 Y38.1840
G03 X44.4927 Y42.5469 I-2.1760 J2.1744
G01 X41.7568 Y45.2827
G03 X39.5625 Y46.1834 I-2.1812 J-2.1909
G01 X31.4321
G01 X26.2821
G01 X20.7268
G01 X15.5768
G01 Z-6.0000 F400
G01 X7.4464 F800
G03 X5.2579 Y45.2686 I0.0068 J-3.0916
G01 X2.5221 Y42.5327
G03 X1.6248 Y40.4614 I2.1866 J-2.1772
G01 X1.6224 Y40.3040
G03 X2.5362 Y38.1699 I3.0776 J0.0552
G01 X5.2721 Y35.4340
G03 X7.4664 Y34.5334 I2.1812 J2.1909
G01 X15.5968
G00 Z-5.5000
G01 X20.7468
G01 Z-6.0000 F400
G01 X26.3021 F800
G00 Z-5.5000
G01 X31.4521
G01 Z-6.0000 F400
G01 X39.5825 F800
G03 X41.7710 Y35.4482 I-0.0068 J3.0916
G01 X44.5068 Y38.1840
G03 X44.4927 Y42.5469 I-2.1760 J2.1744
G01 X41.7568 Y45.2827
G03 X39.5625 Y46.1834 I-2.1812 J-2.1909
G01 X31.4321
G00 Z-5.5000
G01 X26.2821
G01 Z-6.0000 F400
G01 X20.7268 F800
G00 Z-5.5000
G01 X15.5768
G01 Z-7.0000 F400
G01 X7.4464 F800
G03 X5.2579 Y45.2686 I0.0068 J-3.0916
G01 X2.5221 Y42.5327
G03 X1.6248 Y40.4614 I2.1866 J-2.1772
G01 X1.6224 Y40.3040
G03 X2.5362 Y38.1699 I3.0776 J0.0552
G01 X5.2721 Y35.4340
G03 X7.4664 Y34.5334 I2.1812 J2.1909
G01 X15.5968
G00 Z-5.5000
G01 X20.7468
G01 Z-7.0000 F400
G01 X26.3021 F800
G00 Z-5.5000
G01 X31.4521
G01 Z-7.0000 F400
G01 X39.5825 F800
G03 X41.7710 Y35.4482 I-0.0068 J3.0916
G01 X44.5068 Y38.1840
G03 X44.4927 Y42.5469 I-2.1760 J2.1744
G01 X41.7568 Y45.2827
G03 X39.5625 Y46.1834 I-2.1812 J-2.1909
G01 X31.4321
G00 Z-5.5000
G01 X26.2821
G01 Z-7.0000 F400
G01 X20.7268 F800
G00 Z-5.5000
G01 X15.5768
G00 Z-6.5000
G01 Z-8.0000 F400
G01 X7.4464 F800
G03 X5.2579 Y45.2686 I0.0068 J-3.0916
G01 X2.5221 Y42.5327
G03 X1.6248 Y40.4614 I2.1866 J-2.1772
G01 X1.6224 Y40.3040
G03 X2.5362 Y38.1699 I3.0776 J0.0552
G01 X5.2721 Y35.4340
G03 X7.4664 Y34.5334 I2.1812 J2.1909
G01 X15.5968
G00 Z-5.5000
G01 X20.7468
G00 Z-6.5000
G01 Z-8.0000 F400
G01 X26.3021 F800
G00 Z-5.5000
G01 X31.4521
G00 Z-6.5000
G01 Z-8.0000 F400
G01 X39.5825 F800
G03 X41.7710 Y35.4482 I-0.0068 J3.0916
G01 X44.5068 Y38.1840
G03 X44.4927 Y42.5469 I-2.1760 J2.1744
G01 X41.7568 Y45.2827
G03 X39.5625 Y46.1834 I-2.1812 J-2.1909
G01 X31.4321
G00 Z-5.5000
G01 X26.2821
G00 Z-6.5000
G01 Z-8.0000 F400
G01 X20.7268 F800
G00 Z-5.5000
G01 X15.5768
G00 Z5.0000


(No. 4 Part: Part 2)
G00 X15.5768 Y63.1834 Z5.0000
G00 Z0.5000
G01 Z-1.0000 F400
G01 X7.4464 F800
G03 X5.2579 Y62.2686 I0.0068 J-3.0916
G01 X2.5221 Y59.5327
G03 X1.6248 Y57.4614 I2.1866 J-2.1772
G01 X1.6224 Y57.3040
G03 X2.5362 Y55.1699 I3.0776 J0.0552
G01 X5.2721 Y52.4340
G03 X7.4664 Y51.5334 I2.1812 J2.1909
G01 X15.5968
G01 X20.7468
G01 X26.3021
G01 X31.4521
G01 X39.5825
G03 X41.7710 Y52.4482 I-0.0068 J3.0916
G01 X44.5068 Y55.1840
G03 X44.4927 Y59.5469 I-2.1760 J2.1744
G01 X41.7568 Y62.2827
G03 X39.5625 Y63.1834 I-2.1812 J-2.1909
G01 X31.4321
G01 X26.2821
G01 X20.7268
G01 X15.5768
G01 Z-2.0000 F400
G01 X7.4464 F800
G03 X5.2579 Y62.2686 I0.0068 J-3.0916
G01 X2.5221 Y59.5327
G03 X1.6248 Y57.4614 I2.1866 J-2.1772
G01 X1.6224 Y57.3040
G03 X2.5362 Y55.1699 I3.0776 J0.0552
G01 X5.2721 Y52.4340
G03 X7.4664 Y51.5334 I2.1812 J2.1909
G01 X15.5968
G01 X20.7468
G01 X26.3021
G01 X31.4521
G01 X39.5825
G03 X41.7710 Y52.4482 I-0.0068 J3.0916
G01 X44.5068 Y55.1840
G03 X44.4927 Y59.5469 I-2.1760 J2.1744
G01 X41.7568 Y62.2827
G03 X39.5625 Y63.1834 I-2.1812 J-2.1909
G01 X31.4321
G01 X26.2821
G01 X20.7268
G01 X15.5768
G01 Z-3.0000 F400
G01 X7.4464 F800
G03 X5.2579 Y62.2686 I0.0068 J-3.0916
G01 X2.5221 Y59.5327
G03 X1.6248 Y57.4614 I2.1866 J-2.1772
G01 X1.6224 Y57.3040
G03 X2.5362 Y55.1699 I3.0776 J0.0552
G01 X5.2721 Y52.4340
G03 X7.4664 Y51.5334 I2.1812 J2.1909
G01 X15.5968
G01 X20.7468
G01 X26.3021
G01 X31.4521
G01 X39.5825
G03 X41.7710 Y52.4482 I-0.0068 J3.0916
G01 X44.5068 Y55.1840
G03 X44.4927 Y59.5469 I-2.1760 J2.1744
G01 X41.7568 Y62.2827
G03 X39.5625 Y63.1834 I-2.1812 J-2.1909
G01 X31.4321
G01 X26.2821
G01 X20.7268
G01 X15.5768
G01 Z-4.0000 F400
G01 X7.4464 F800
G03 X5.2579 Y62.2686 I0.0068 J-3.0916
G01 X2.5221 Y59.5327
G03 X1.6248 Y57.4614 I2.1866 J-2.1772
G01 X1.6224 Y57.3040
G03 X2.5362 Y55.1699 I3.0776 J0.0552
G01 X5.2721 Y52.4340
G03 X7.4664 Y51.5334 I2.1812 J2.1909
G01 X15.5968
G01 X20.7468
G01 X26.3021
G01 X31.4521
G01 X39.5825
G03 X41.7710 Y52.4482 I-0.0068 J3.0916
G01 X44.5068 Y55.1840
G03 X44.4927 Y59.5469 I-2.1760 J2.1744
G01 X41.7568 Y62.2827
G03 X39.5625 Y63.1834 I-2.1812 J-2.1909
G01 X31.4321
G01 X26.2821
G01 X20.7268
G01 X15.5768
G01 Z-5.0000 F400
G01 X7.4464 F800
G03 X5.2579 Y62.2686 I0.0068 J-3.0916
G01 X2.5221 Y59.5327
G03 X1.6248 Y57.4614 I2.1866 J-2.1772
G01 X1.6224 Y57.3040
G03 X2.5362 Y55.1699 I3.0776 J0.0552
G01 X5.2721 Y52.4340
G03 X7.4664 Y51.5334 I2.1812 J2.1909
G01 X15.5968
G01 X20.7468
G01 X26.3021
G01 X31.4521
G01 X39.5825
G03 X41.7710 Y52.4482 I-0.0068 J3.0916
G01 X44.5068 Y55.1840
G03 X44.4927 Y59.5469 I-2.1760 J2.1744
G01 X41.7568 Y62.2827
G03 X39.5625 Y63.1834 I-2.1812 J-2.1909
G01 X31.4321
G01 X26.2821
G01 X20.7268
G01 X15.5768
G01 Z-6.0000 F400
G01 X7.4464 F800
G03 X5.2579 Y62.2686 I0.0068 J-3.0916
G01 X2.5221 Y59.5327
G03 X1.6248 Y57.4614 I2.1866 J-2.1772
G01 X1.6224 Y57.3040
G03 X2.5362 Y55.1699 I3.0776 J0.0552
G01 X5.2721 Y52.4340
G03 X7.4664 Y51.5334 I2.1812 J2.1909
G01 X15.5968
G00 Z-5.5000
G01 X20.7468
G01 Z-6.0000 F400
G01 X26.3021 F800
G00 Z-5.5000
G01 X31.4521
G01 Z-6.0000 F400
G01 X39.5825 F800
G03 X41.7710 Y52.4482 I-0.0068 J3.0916
G01 X44.5068 Y55.1840
G03 X44.4927 Y59.5469 I-2.1760 J2.1744
G01 X41.7568 Y62.2827
G03 X39.5625 Y63.1834 I-2.1812 J-2.1909
G01 X31.4321
G00 Z-5.5000
G01 X26.2821
G01 Z-6.0000 F400
G01 X20.7268 F800
G00 Z-5.5000
G01 X15.5768
G01 Z-7.0000 F400
G01 X7.4464 F800
G03 X5.2579 Y62.2686 I0.0068 J-3.0916
G01 X2.5221 Y59.5327
G03 X1.6248 Y57.4614 I2.1866 J-2.1772
G01 X1.6224 Y57.3040
G03 X2.5362 Y55.1699 I3.0776 J0.0552
G01 X5.2721 Y52.4340
G03 X7.4664 Y51.5334 I2.1812 J2.1909
G01 X15.5968
G00 Z-5.5000
G01 X20.7468
G01 Z-7.0000 F400
G01 X26.3021 F800
G00 Z-5.5000
G01 X31.4521
G01 Z-7.0000 F400
G01 X39.5825 F800
G03 X41.7710 Y52.4482 I-0.0068 J3.0916
G01 X44.5068 Y55.1840
G03 X44.4927 Y59.5469 I-2.1760 J2.1744
G01 X41.7568 Y62.2827
G03 X39.5625 Y63.1834 I-2.1812 J-2.1909
G01 X31.4321
G00 Z-5.5000
G01 X26.2821
G01 Z-7.0000 F400
G01 X20.7268 F800
G00 Z-5.5000
G01 X15.5768
G00 Z-6.5000
G01 Z-8.0000 F400
G01 X7.4464 F800
G03 X5.2579 Y62.2686 I0.0068 J-3.0916
G01 X2.5221 Y59.5327
G03 X1.6248 Y57.4614 I2.1866 J-2.1772
G01 X1.6224 Y57.3040
G03 X2.5362 Y55.1699 I3.0776 J0.0552
G01 X5.2721 Y52.4340
G03 X7.4664 Y51.5334 I2.1812 J2.1909
G01 X15.5968
G00 Z-5.5000
G01 X20.7468
G00 Z-6.5000
G01 Z-8.0000 F400
G01 X26.3021 F800
G00 Z-5.5000
G01 X31.4521
G00 Z-6.5000
G01 Z-8.0000 F400
G01 X39.5825 F800
G03 X41.7710 Y52.4482 I-0.0068 J3.0916
G01 X44.5068 Y55.1840
G03 X44.4927 Y59.5469 I-2.1760 J2.1744
G01 X41.7568 Y62.2827
G03 X39.5625 Y63.1834 I-2.1812 J-2.1909
G01 X31.4321
G00 Z-5.5000
G01 X26.2821
G00 Z-6.5000
G01 Z-8.0000 F400
G01 X20.7268 F800
G00 Z-5.5000
G01 X15.5768
G00 Z5.0000


(No. 5 Part: Part 2)
G00 X15.5768 Y80.1834 Z5.0000
G00 Z0.5000
G01 Z-1.0000 F400
G01 X7.4464 F800
G03 X5.2579 Y79.2686 I0.0068 J-3.0916
G01 X2.5221 Y76.5327
G03 X1.6248 Y74.4614 I2.1866 J-2.1772
G01 X1.6224 Y74.3040
G03 X2.5362 Y72.1699 I3.0776 J0.0552
G01 X5.2721 Y69.4340
G03 X7.4664 Y68.5334 I2.1812 J2.1909
G01 X15.5968
G01 X20.7468
G01 X26.3021
G01 X31.4521
G01 X39.5825
G03 X41.7710 Y69.4482 I-0.0068 J3.0916
G01 X44.5068 Y72.1840
G03 X44.4927 Y76.5469 I-2.1760 J2.1744
G01 X41.7568 Y79.2827
G03 X39.5625 Y80.1834 I-2.1812 J-2.1909
G01 X31.4321
G01 X26.2821
G01 X20.7268
G01 X15.5768
G01 Z-2.0000 F400
G01 X7.4464 F800
G03 X5.2579 Y79.2686 I0.0068 J-3.0916
G01 X2.5221 Y76.5327
G03 X1.6248 Y74.4614 I2.1866 J-2.1772
G01 X1.6224 Y74.3040
G03 X2.5362 Y72.1699 I3.0776 J0.0552
G01 X5.2721 Y69.4340
G03 X7.4664 Y68.5334 I2.1812 J2.1909
G01 X15.5968
G01 X20.7468
G01 X26.3021
G01 X31.4521
G01 X39.5825
G03 X41.7710 Y69.4482 I-0.0068 J3.0916
G01 X44.5068 Y72.1840
G03 X44.4927 Y76.5469 I-2.1760 J2.1744
G01 X41.7568 Y79.2827
G03 X39.5625 Y80.1834 I-2.1812 J-2.1909
G01 X31.4321
G01 X26.2821
G01 X20.7268
G01 X15.5768
G01 Z-3.0000 F400
G01 X7.4464 F800
G03 X5.2579 Y79.2686 I0.0068 J-3.0916
G01 X2.5221 Y76.5327
G03 X1.6248 Y74.4614 I2.1866 J-2.1772
G01 X1.6224 Y74.3040
G03 X2.5362 Y72.1699 I3.0776 J0.0552
G01 X5.2721 Y69.4340
G03 X7.4664 Y68.5334 I2.1812 J2.1909
G01 X15.5968
G01 X20.7468
G01 X26.3021
G01 X31.4521
G01 X39.5825
G03 X41.7710 Y69.4482 I-0.0068 J3.0916
G01 X44.5068 Y72.1840
G03 X44.4927 Y76.5469 I-2.1760 J2.1744
G01 X41.7568 Y79.2827
G03 X39.5625 Y80.1834 I-2.1812 J-2.1909
G01 X31.4321
G01 X26.2821
G01 X20.7268
G01 X15.5768
G01 Z-4.0000 F400
G01 X7.4464 F800
G03 X5.2579 Y79.2686 I0.0068 J-3.0916
G01 X2.5221 Y76.5327
G03 X1.6248 Y74.4614 I2.1866 J-2.1772
G01 X1.6224 Y74.3040
G03 X2.5362 Y72.1699 I3.0776 J0.0552
G01 X5.2721 Y69.4340
G03 X7.4664 Y68.5334 I2.1812 J2.1909
G01 X15.5968
G01 X20.7468
G01 X26.3021
G01 X31.4521
G01 X39.5825
G03 X41.7710 Y69.4482 I-0.0068 J3.0916
G01 X44.5068 Y72.1840
G03 X44.4927 Y76.5469 I-2.1760 J2.1744
G01 X41.7568 Y79.2827
G03 X39.5625 Y80.1834 I-2.1812 J-2.1909
G01 X31.4321
G01 X26.2821
G01 X20.7268
G01 X15.5768
G01 Z-5.0000 F400
G01 X7.4464 F800
G03 X5.2579 Y79.2686 I0.0068 J-3.0916
G01 X2.5221 Y76.5327
G03 X1.6248 Y74.4614 I2.1866 J-2.1772
G01 X1.6224 Y74.3040
G03 X2.5362 Y72.1699 I3.0776 J0.0552
G01 X5.2721 Y69.4340
G03 X7.4664 Y68.5334 I2.1812 J2.1909
G01 X15.5968
G01 X20.7468
G01 X26.3021
G01 X31.4521
G01 X39.5825
G03 X41.7710 Y69.4482 I-0.0068 J3.0916
G01 X44.5068 Y72.1840
G03 X44.4927 Y76.5469 I-2.1760 J2.1744
G01 X41.7568 Y79.2827
G03 X39.5625 Y80.1834 I-2.1812 J-2.1909
G01 X31.4321
G01 X26.2821
G01 X20.7268
G01 X15.5768
G01 Z-6.0000 F400
G01 X7.4464 F800
G03 X5.2579 Y79.2686 I0.0068 J-3.0916
G01 X2.5221 Y76.5327
G03 X1.6248 Y74.4614 I2.1866 J-2.1772
G01 X1.6224 Y74.3040
G03 X2.5362 Y72.1699 I3.0776 J0.0552
G01 X5.2721 Y69.4340
G03 X7.4664 Y68.5334 I2.1812 J2.1909
G01 X15.5968
G00 Z-5.5000
G01 X20.7468
G01 Z-6.0000 F400
G01 X26.3021 F800
G00 Z-5.5000
G01 X31.4521
G01 Z-6.0000 F400
G01 X39.5825 F800
G03 X41.7710 Y69.4482 I-0.0068 J3.0916
G01 X44.5068 Y72.1840
G03 X44.4927 Y76.5469 I-2.1760 J2.1744
G01 X41.7568 Y79.2827
G03 X39.5625 Y80.1834 I-2.1812 J-2.1909
G01 X31.4321
G00 Z-5.5000
G01 X26.2821
G01 Z-6.0000 F400
G01 X20.7268 F800
G00 Z-5.5000
G01 X15.5768
G01 Z-7.0000 F400
G01 X7.4464 F800
G03 X5.2579 Y79.2686 I0.0068 J-3.0916
G01 X2.5221 Y76.5327
G03 X1.6248 Y74.4614 I2.1866 J-2.1772
G01 X1.6224 Y74.3040
G03 X2.5362 Y72.1699 I3.0776 J0.0552
G01 X5.2721 Y69.4340
G03 X7.4664 Y68.5334 I2.1812 J2.1909
G01 X15.5968
G00 Z-5.5000
G01 X20.7468
G01 Z-7.0000 F400
G01 X26.3021 F800
G00 Z-5.5000
G01 X31.4521
G01 Z-7.0000 F400
G01 X39.5825 F800
G03 X41.7710 Y69.4482 I-0.0068 J3.0916
G01 X44.5068 Y72.1840
G03 X44.4927 Y76.5469 I-2.1760 J2.1744
G01 X41.7568 Y79.2827
G03 X39.5625 Y80.1834 I-2.1812 J-2.1909
G01 X31.4321
G00 Z-5.5000
G01 X26.2821
G01 Z-7.0000 F400
G01 X20.7268 F800
G00 Z-5.5000
G01 X15.5768
G00 Z-6.5000
G01 Z-8.0000 F400
G01 X7.4464 F800
G03 X5.2579 Y79.2686 I0.0068 J-3.0916
G01 X2.5221 Y76.5327
G03 X1.6248 Y74.4614 I2.1866 J-2.1772
G01 X1.6224 Y74.3040
G03 X2.5362 Y72.1699 I3.0776 J0.0552
G01 X5.2721 Y69.4340
G03 X7.4664 Y68.5334 I2.1812 J2.1909
G01 X15.5968
G00 Z-5.5000
G01 X20.7468
G00 Z-6.5000
G01 Z-8.0000 F400
G01 X26.3021 F800
G00 Z-5.5000
G01 X31.4521
G00 Z-6.5000
G01 Z-8.0000 F400
G01 X39.5825 F800
G03 X41.7710 Y69.4482 I-0.0068 J3.0916
G01 X44.5068 Y72.1840
G03 X44.4927 Y76.5469 I-2.1760 J2.1744
G01 X41.7568 Y79.2827
G03 X39.5625 Y80.1834 I-2.1812 J-2.1909
G01 X31.4321
G00 Z-5.5000
G01 X26.2821
G00 Z-6.5000
G01 Z-8.0000 F400
G01 X20.7268 F800
G00 Z-5.5000
G01 X15.5768
G00 Z5.0000


(No. 6 Part: Part 2)
G00 X15.5768 Y97.1834 Z5.0000
G00 Z0.5000
G01 Z-1.0000 F400
G01 X7.4464 F800
G03 X5.2579 Y96.2686 I0.0068 J-3.0916
G01 X2.5221 Y93.5327
G03 X1.6248 Y91.4614 I2.1866 J-2.1772
G01 X1.6224 Y91.3040
G03 X2.5362 Y89.1699 I3.0776 J0.0552
G01 X5.2721 Y86.4340
G03 X7.4664 Y85.5334 I2.1812 J2.1909
G01 X15.5968
G01 X20.7468
G01 X26.3021
G01 X31.4521
G01 X39.5825
G03 X41.7710 Y86.4482 I-0.0068 J3.0916
G01 X44.5068 Y89.1840
G03 X44.4927 Y93.5469 I-2.1760 J2.1744
G01 X41.7568 Y96.2827
G03 X39.5625 Y97.1834 I-2.1812 J-2.1909
G01 X31.4321
G01 X26.2821
G01 X20.7268
G01 X15.5768
G01 Z-2.0000 F400
G01 X7.4464 F800
G03 X5.2579 Y96.2686 I0.0068 J-3.0916
G01 X2.5221 Y93.5327
G03 X1.6248 Y91.4614 I2.1866 J-2.1772
G01 X1.6224 Y91.3040
G03 X2.5362 Y89.1699 I3.0776 J0.0552
G01 X5.2721 Y86.4340
G03 X7.4664 Y85.5334 I2.1812 J2.1909
G01 X15.5968
G01 X20.7468
G01 X26.3021
G01 X31.4521
G01 X39.5825
G03 X41.7710 Y86.4482 I-0.0068 J3.0916
G01 X44.5068 Y89.1840
G03 X44.4927 Y93.5469 I-2.1760 J2.1744
G01 X41.7568 Y96.2827
G03 X39.5625 Y97.1834 I-2.1812 J-2.1909
G01 X31.4321
G01 X26.2821
G01 X20.7268
G01 X15.5768
G01 Z-3.0000 F400
G01 X7.4464 F800
G03 X5.2579 Y96.2686 I0.0068 J-3.0916
G01 X2.5221 Y93.5327
G03 X1.6248 Y91.4614 I2.1866 J-2.1772
G01 X1.6224 Y91.3040
G03 X2.5362 Y89.1699 I3.0776 J0.0552
G01 X5.2721 Y86.4340
G03 X7.4664 Y85.5334 I2.1812 J2.1909
G01 X15.5968
G01 X20.7468
G01 X26.3021
G01 X31.4521
G01 X39.5825
G03 X41.7710 Y86.4482 I-0.0068 J3.0916
G01 X44.5068 Y89.1840
G03 X44.4927 Y93.5469 I-2.1760 J2.1744
G01 X41.7568 Y96.2827
G03 X39.5625 Y97.1834 I-2.1812 J-2.1909
G01 X31.4321
G01 X26.2821
G01 X20.7268
G01 X15.5768
G01 Z-4.0000 F400
G01 X7.4464 F800
G03 X5.2579 Y96.2686 I0.0068 J-3.0916
G01 X2.5221 Y93.5327
G03 X1.6248 Y91.4614 I2.1866 J-2.1772
G01 X1.6224 Y91.3040
G03 X2.5362 Y89.1699 I3.0776 J0.0552
G01 X5.2721 Y86.4340
G03 X7.4664 Y85.5334 I2.1812 J2.1909
G01 X15.5968
G01 X20.7468
G01 X26.3021
G01 X31.4521
G01 X39.5825
G03 X41.7710 Y86.4482 I-0.0068 J3.0916
G01 X44.5068 Y89.1840
G03 X44.4927 Y93.5469 I-2.1760 J2.1744
G01 X41.7568 Y96.2827
G03 X39.5625 Y97.1834 I-2.1812 J-2.1909
G01 X31.4321
G01 X26.2821
G01 X20.7268
G01 X15.5768
G01 Z-5.0000 F400
G01 X7.4464 F800
G03 X5.2579 Y96.2686 I0.0068 J-3.0916
G01 X2.5221 Y93.5327
G03 X1.6248 Y91.4614 I2.1866 J-2.1772
G01 X1.6224 Y91.3040
G03 X2.5362 Y89.1699 I3.0776 J0.0552
G01 X5.2721 Y86.4340
G03 X7.4664 Y85.5334 I2.1812 J2.1909
G01 X15.5968
G01 X20.7468
G01 X26.3021
G01 X31.4521
G01 X39.5825
G03 X41.7710 Y86.4482 I-0.0068 J3.0916
G01 X44.5068 Y89.1840
G03 X44.4927 Y93.5469 I-2.1760 J2.1744
G01 X41.7568 Y96.2827
G03 X39.5625 Y97.1834 I-2.1812 J-2.1909
G01 X31.4321
G01 X26.2821
G01 X20.7268
G01 X15.5768
G01 Z-6.0000 F400
G01 X7.4464 F800
G03 X5.2579 Y96.2686 I0.0068 J-3.0916
G01 X2.5221 Y93.5327
G03 X1.6248 Y91.4614 I2.1866 J-2.1772
G01 X1.6224 Y91.3040
G03 X2.5362 Y89.1699 I3.0776 J0.0552
G01 X5.2721 Y86.4340
G03 X7.4664 Y85.5334 I2.1812 J2.1909
G01 X15.5968
G00 Z-5.5000
G01 X20.7468
G01 Z-6.0000 F400
G01 X26.3021 F800
G00 Z-5.5000
G01 X31.4521
G01 Z-6.0000 F400
G01 X39.5825 F800
G03 X41.7710 Y86.4482 I-0.0068 J3.0916
G01 X44.5068 Y89.1840
G03 X44.4927 Y93.5469 I-2.1760 J2.1744
G01 X41.7568 Y96.2827
G03 X39.5625 Y97.1834 I-2.1812 J-2.1909
G01 X31.4321
G00 Z-5.5000
G01 X26.2821
G01 Z-6.0000 F400
G01 X20.7268 F800
G00 Z-5.5000
G01 X15.5768
G01 Z-7.0000 F400
G01 X7.4464 F800
G03 X5.2579 Y96.2686 I0.0068 J-3.0916
G01 X2.5221 Y93.5327
G03 X1.6248 Y91.4614 I2.1866 J-2.1772
G01 X1.6224 Y91.3040
G03 X2.5362 Y89.1699 I3.0776 J0.0552
G01 X5.2721 Y86.4340
G03 X7.4664 Y85.5334 I2.1812 J2.1909
G01 X15.5968
G00 Z-5.5000
G01 X20.7468
G01 Z-7.0000 F400
G01 X26.3021 F800
G00 Z-5.5000
G01 X31.4521
G01 Z-7.0000 F400
G01 X39.5825 F800
G03 X41.7710 Y86.4482 I-0.0068 J3.0916
G01 X44.5068 Y89.1840
G03 X44.4927 Y93.5469 I-2.1760 J2.1744
G01 X41.7568 Y96.2827
G03 X39.5625 Y97.1834 I-2.1812 J-2.1909
G01 X31.4321
G00 Z-5.5000
G01 X26.2821
G01 Z-7.0000 F400
G01 X20.7268 F800
G00 Z-5.5000
G01 X15.5768
G00 Z-6.5000
G01 Z-8.0000 F400
G01 X7.4464 F800
G03 X5.2579 Y96.2686 I0.0068 J-3.0916
G01 X2.5221 Y93.5327
G03 X1.6248 Y91.4614 I2.1866 J-2.1772
G01 X1.6224 Y91.3040
G03 X2.5362 Y89.1699 I3.0776 J0.0552
G01 X5.2721 Y86.4340
G03 X7.4664 Y85.5334 I2.1812 J2.1909
G01 X15.5968
G00 Z-5.5000
G01 X20.7468
G00 Z-6.5000
G01 Z-8.0000 F400
G01 X26.3021 F800
G00 Z-5.5000
G01 X31.4521
G00 Z-6.5000
G01 Z-8.0000 F400
G01 X39.5825 F800
G03 X41.7710 Y86.4482 I-0.0068 J3.0916
G01 X44.5068 Y89.1840
G03 X44.4927 Y93.5469 I-2.1760 J2.1744
G01 X41.7568 Y96.2827
G03 X39.5625 Y97.1834 I-2.1812 J-2.1909
G01 X31.4321
G00 Z-5.5000
G01 X26.2821
G00 Z-6.5000
G01 Z-8.0000 F400
G01 X20.7268 F800
G00 Z-5.5000
G01 X15.5768
G00 Z5.0000


(No. 7 Part: Part 2)
G00 X15.5768 Y114.1834 Z5.0000
G00 Z0.5000
G01 Z-1.0000 F400
G01 X7.4464 F800
G03 X5.2579 Y113.2686 I0.0068 J-3.0916
G01 X2.5221 Y110.5327
G03 X1.6248 Y108.4614 I2.1866 J-2.1772
G01 X1.6224 Y108.3040
G03 X2.5362 Y106.1699 I3.0776 J0.0552
G01 X5.2721 Y103.4340
G03 X7.4664 Y102.5334 I2.1812 J2.1909
G01 X15.5968
G01 X20.7468
G01 X26.3021
G01 X31.4521
G01 X39.5825
G03 X41.7710 Y103.4482 I-0.0068 J3.0916
G01 X44.5068 Y106.1840
G03 X44.4927 Y110.5469 I-2.1760 J2.1744
G01 X41.7568 Y113.2827
G03 X39.5625 Y114.1834 I-2.1812 J-2.1909
G01 X31.4321
G01 X26.2821
G01 X20.7268
G01 X15.5768
G01 Z-2.0000 F400
G01 X7.4464 F800
G03 X5.2579 Y113.2686 I0.0068 J-3.0916
G01 X2.5221 Y110.5327
G03 X1.6248 Y108.4614 I2.1866 J-2.1772
G01 X1.6224 Y108.3040
G03 X2.5362 Y106.1699 I3.0776 J0.0552
G01 X5.2721 Y103.4340
G03 X7.4664 Y102.5334 I2.1812 J2.1909
G01 X15.5968
G01 X20.7468
G01 X26.3021
G01 X31.4521
G01 X39.5825
G03 X41.7710 Y103.4482 I-0.0068 J3.0916
G01 X44.5068 Y106.1840
G03 X44.4927 Y110.5469 I-2.1760 J2.1744
G01 X41.7568 Y113.2827
G03 X39.5625 Y114.1834 I-2.1812 J-2.1909
G01 X31.4321
G01 X26.2821
G01 X20.7268
G01 X15.5768
G01 Z-3.0000 F400
G01 X7.4464 F800
G03 X5.2579 Y113.2686 I0.0068 J-3.0916
G01 X2.5221 Y110.5327
G03 X1.6248 Y108.4614 I2.1866 J-2.1772
G01 X1.6224 Y108.3040
G03 X2.5362 Y106.1699 I3.0776 J0.0552
G01 X5.2721 Y103.4340
G03 X7.4664 Y102.5334 I2.1812 J2.1909
G01 X15.5968
G01 X20.7468
G01 X26.3021
G01 X31.4521
G01 X39.5825
G03 X41.7710 Y103.4482 I-0.0068 J3.0916
G01 X44.5068 Y106.1840
G03 X44.4927 Y110.5469 I-2.1760 J2.1744
G01 X41.7568 Y113.2827
G03 X39.5625 Y114.1834 I-2.1812 J-2.1909
G01 X31.4321
G01 X26.2821
G01 X20.7268
G01 X15.5768
G01 Z-4.0000 F400
G01 X7.4464 F800
G03 X5.2579 Y113.2686 I0.0068 J-3.0916
G01 X2.5221 Y110.5327
G03 X1.6248 Y108.4614 I2.1866 J-2.1772
G01 X1.6224 Y108.3040
G03 X2.5362 Y106.1699 I3.0776 J0.0552
G01 X5.2721 Y103.4340
G03 X7.4664 Y102.5334 I2.1812 J2.1909
G01 X15.5968
G01 X20.7468
G01 X26.3021
G01 X31.4521
G01 X39.5825
G03 X41.7710 Y103.4482 I-0.0068 J3.0916
G01 X44.5068 Y106.1840
G03 X44.4927 Y110.5469 I-2.1760 J2.1744
G01 X41.7568 Y113.2827
G03 X39.5625 Y114.1834 I-2.1812 J-2.1909
G01 X31.4321
G01 X26.2821
G01 X20.7268
G01 X15.5768
G01 Z-5.0000 F400
G01 X7.4464 F800
G03 X5.2579 Y113.2686 I0.0068 J-3.0916
G01 X2.5221 Y110.5327
G03 X1.6248 Y108.4614 I2.1866 J-2.1772
G01 X1.6224 Y108.3040
G03 X2.5362 Y106.1699 I3.0776 J0.0552
G01 X5.2721 Y103.4340
G03 X7.4664 Y102.5334 I2.1812 J2.1909
G01 X15.5968
G01 X20.7468
G01 X26.3021
G01 X31.4521
G01 X39.5825
G03 X41.7710 Y103.4482 I-0.0068 J3.0916
G01 X44.5068 Y106.1840
G03 X44.4927 Y110.5469 I-2.1760 J2.1744
G01 X41.7568 Y113.2827
G03 X39.5625 Y114.1834 I-2.1812 J-2.1909
G01 X31.4321
G01 X26.2821
G01 X20.7268
G01 X15.5768
G01 Z-6.0000 F400
G01 X7.4464 F800
G03 X5.2579 Y113.2686 I0.0068 J-3.0916
G01 X2.5221 Y110.5327
G03 X1.6248 Y108.4614 I2.1866 J-2.1772
G01 X1.6224 Y108.3040
G03 X2.5362 Y106.1699 I3.0776 J0.0552
G01 X5.2721 Y103.4340
G03 X7.4664 Y102.5334 I2.1812 J2.1909
G01 X15.5968
G00 Z-5.5000
G01 X20.7468
G01 Z-6.0000 F400
G01 X26.3021 F800
G00 Z-5.5000
G01 X31.4521
G01 Z-6.0000 F400
G01 X39.5825 F800
G03 X41.7710 Y103.4482 I-0.0068 J3.0916
G01 X44.5068 Y106.1840
G03 X44.4927 Y110.5469 I-2.1760 J2.1744
G01 X41.7568 Y113.2827
G03 X39.5625 Y114.1834 I-2.1812 J-2.1909
G01 X31.4321
G00 Z-5.5000
G01 X26.2821
G01 Z-6.0000 F400
G01 X20.7268 F800
G00 Z-5.5000
G01 X15.5768
G01 Z-7.0000 F400
G01 X7.4464 F800
G03 X5.2579 Y113.2686 I0.0068 J-3.0916
G01 X2.5221 Y110.5327
G03 X1.6248 Y108.4614 I2.1866 J-2.1772
G01 X1.6224 Y108.3040
G03 X2.5362 Y106.1699 I3.0776 J0.0552
G01 X5.2721 Y103.4340
G03 X7.4664 Y102.5334 I2.1812 J2.1909
G01 X15.5968
G00 Z-5.5000
G01 X20.7468
G01 Z-7.0000 F400
G01 X26.3021 F800
G00 Z-5.5000
G01 X31.4521
G01 Z-7.0000 F400
G01 X39.5825 F800
G03 X41.7710 Y103.4482 I-0.0068 J3.0916
G01 X44.5068 Y106.1840
G03 X44.4927 Y110.5469 I-2.1760 J2.1744
G01 X41.7568 Y113.2827
G03 X39.5625 Y114.1834 I-2.1812 J-2.1909
G01 X31.4321
G00 Z-5.5000
G01 X26.2821
G01 Z-7.0000 F400
G01 X20.7268 F800
G00 Z-5.5000
G01 X15.5768
G00 Z-6.5000
G01 Z-8.0000 F400
G01 X7.4464 F800
G03 X5.2579 Y113.2686 I0.0068 J-3.0916
G01 X2.5221 Y110.5327
G03 X1.6248 Y108.4614 I2.1866 J-2.1772
G01 X1.6224 Y108.3040
G03 X2.5362 Y106.1699 I3.0776 J0.0552
G01 X5.2721 Y103.4340
G03 X7.4664 Y102.5334 I2.1812 J2.1909
G01 X15.5968
G00 Z-5.5000
G01 X20.7468
G00 Z-6.5000
G01 Z-8.0000 F400
G01 X26.3021 F800
G00 Z-5.5000
G01 X31.4521
G00 Z-6.5000
G01 Z-8.0000 F400
G01 X39.5825 F800
G03 X41.7710 Y103.4482 I-0.0068 J3.0916
G01 X44.5068 Y106.1840
G03 X44.4927 Y110.5469 I-2.1760 J2.1744
G01 X41.7568 Y113.2827
G03 X39.5625 Y114.1834 I-2.1812 J-2.1909
G01 X31.4321
G00 Z-5.5000
G01 X26.2821
G00 Z-6.5000
G01 Z-8.0000 F400
G01 X20.7268 F800
G00 Z-5.5000
G01 X15.5768
G00 Z5.0000


(No. 8 Part: Part 2)
G00 X65.6628 Y114.1834 Z5.0000
G00 Z0.5000
G01 Z-1.0000 F400
G01 X57.5325 F800
G03 X55.3440 Y113.2686 I0.0068 J-3.0916
G01 X52.6081 Y110.5327
G03 X51.7108 Y108.4614 I2.1866 J-2.1772
G01 X51.7084 Y108.3040
G03 X52.6223 Y106.1699 I3.0776 J0.0552
G01 X55.3581 Y103.4340
G03 X57.5525 Y102.5334 I2.1812 J2.1909
G01 X65.6828
G01 X70.8328
G01 X76.3881
G01 X81.5381
G01 X89.6685
G03 X91.8570 Y103.4482 I-0.0068 J3.0916
G01 X94.5929 Y106.1840
G03 X94.5787 Y110.5469 I-2.1760 J2.1744
G01 X91.8429 Y113.2827
G03 X89.6485 Y114.1834 I-2.1812 J-2.1909
G01 X81.5181
G01 X76.3681
G01 X70.8128
G01 X65.6628
G01 Z-2.0000 F400
G01 X57.5325 F800
G03 X55.3440 Y113.2686 I0.0068 J-3.0916
G01 X52.6081 Y110.5327
G03 X51.7108 Y108.4614 I2.1866 J-2.1772
G01 X51.7084 Y108.3040
G03 X52.6223 Y106.1699 I3.0776 J0.0552
G01 X55.3581 Y103.4340
G03 X57.5525 Y102.5334 I2.1812 J2.1909
G01 X65.6828
G01 X70.8328
G01 X76.3881
G01 X81.5381
G01 X89.6685
G03 X91.8570 Y103.4482 I-0.0068 J3.0916
G01 X94.5929 Y106.1840
G03 X94.5787 Y110.5469 I-2.1760 J2.1744
G01 X91.8429 Y113.2827
G03 X89.6485 Y114.1834 I-2.1812 J-2.1909
G01 X81.5181
G01 X76.3681
G01 X70.8128
G01 X65.6628
G01 Z-3.0000 F400
G01 X57.5325 F800
G03 X55.3440 Y113.2686 I0.0068 J-3.0916
G01 X52.6081 Y110.5327
G03 X51.7108 Y108.4614 I2.1866 J-2.1772
G01 X51.7084 Y108.3040
G03 X52.6223 Y106.1699 I3.0776 J0.0552
G01 X55.3581 Y103.4340
G03 X57.5525 Y102.5334 I2.1812 J2.1909
G01 X65.6828
G01 X70.8328
G01 X76.3881
G01 X81.5381
G01 X89.6685
G03 X91.8570 Y103.4482 I-0.0068 J3.0916
G01 X94.5929 Y106.1840
G03 X94.5787 Y110.5469 I-2.1760 J2.1744
G01 X91.8429 Y113.2827
G03 X89.6485 Y114.1834 I-2.1812 J-2.1909
G01 X81.5181
G01 X76.3681
G01 X70.8128
G01 X65.6628
G01 Z-4.0000 F400
G01 X57.5325 F800
G03 X55.3440 Y113.2686 I0.0068 J-3.0916
G01 X52.6081 Y110.5327
G03 X51.7108 Y108.4614 I2.1866 J-2.1772
G01 X51.7084 Y108.3040
G03 X52.6223 Y106.1699 I3.0776 J0.0552
G01 X55.3581 Y103.4340
G03 X57.5525 Y102.5334 I2.1812 J2.1909
G01 X65.6828
G01 X70.8328
G01 X76.3881
G01 X81.5381
G01 X89.6685
G03 X91.8570 Y103.4482 I-0.0068 J3.0916
G01 X94.5929 Y106.1840
G03 X94.5787 Y110.5469 I-2.1760 J2.1744
G01 X91.8429 Y113.2827
G03 X89.6485 Y114.1834 I-2.1812 J-2.1909
G01 X81.5181
G01 X76.3681
G01 X70.8128
G01 X65.6628
G01 Z-5.0000 F400
G01 X57.5325 F800
G03 X55.3440 Y113.2686 I0.0068 J-3.0916
G01 X52.6081 Y110.5327
G03 X51.7108 Y108.4614 I2.1866 J-2.1772
G01 X51.7084 Y108.3040
G03 X52.6223 Y106.1699 I3.0776 J0.0552
G01 X55.3581 Y103.4340
G03 X57.5525 Y102.5334 I2.1812 J2.1909
G01 X65.6828
G01 X70.8328
G01 X76.3881
G01 X81.5381
G01 X89.6685
G03 X91.8570 Y103.4482 I-0.0068 J3.0916
G01 X94.5929 Y106.1840
G03 X94.5787 Y110.5469 I-2.1760 J2.1744
G01 X91.8429 Y113.2827
G03 X89.6485 Y114.1834 I-2.1812 J-2.1909
G01 X81.5181
G01 X76.3681
G01 X70.8128
G01 X65.6628
G01 Z-6.0000 F400
G01 X57.5325 F800
G03 X55.3440 Y113.2686 I0.0068 J-3.0916
G01 X52.6081 Y110.5327
G03 X51.7108 Y108.4614 I2.1866 J-2.1772
G01 X51.7084 Y108.3040
G03 X52.6223 Y106.1699 I3.0776 J0.0552
G01 X55.3581 Y103.4340
G03 X57.5525 Y102.5334 I2.1812 J2.1909
G01 X65.6828
G00 Z-5.5000
G01 X70.8328
G01 Z-6.0000 F400
G01 X76.3881 F800
G00 Z-5.5000
G01 X81.5381
G01 Z-6.0000 F400
G01 X89.6685 F800
G03 X91.8570 Y103.4482 I-0.0068 J3.0916
G01 X94.5929 Y106.1840
G03 X94.5787 Y110.5469 I-2.1760 J2.1744
G01 X91.8429 Y113.2827
G03 X89.6485 Y114.1834 I-2.1812 J-2.1909
G01 X81.5181
G00 Z-5.5000
G01 X76.3681
G01 Z-6.0000 F400
G01 X70.8128 F800
G00 Z-5.5000
G01 X65.6628
G01 Z-7.0000 F400
G01 X57.5325 F800
G03 X55.3440 Y113.2686 I0.0068 J-3.0916
G01 X52.6081 Y110.5327
G03 X51.7108 Y108.4614 I2.1866 J-2.1772
G01 X51.7084 Y108.3040
G03 X52.6223 Y106.1699 I3.0776 J0.0552
G01 X55.3581 Y103.4340
G03 X57.5525 Y102.5334 I2.1812 J2.1909
G01 X65.6828
G00 Z-5.5000
G01 X70.8328
G01 Z-7.0000 F400
G01 X76.3881 F800
G00 Z-5.5000
G01 X81.5381
G01 Z-7.0000 F400
G01 X89.6685 F800
G03 X91.8570 Y103.4482 I-0.0068 J3.0916
G01 X94.5929 Y106.1840
G03 X94.5787 Y110.5469 I-2.1760 J2.1744
G01 X91.8429 Y113.2827
G03 X89.6485 Y114.1834 I-2.1812 J-2.1909
G01 X81.5181
G00 Z-5.5000
G01 X76.3681
G01 Z-7.0000 F400
G01 X70.8128 F800
G00 Z-5.5000
G01 X65.6628
G00 Z-6.5000
G01 Z-8.0000 F400
G01 X57.5325 F800
G03 X55.3440 Y113.2686 I0.0068 J-3.0916
G01 X52.6081 Y110.5327
G03 X51.7108 Y108.4614 I2.1866 J-2.1772
G01 X51.7084 Y108.3040
G03 X52.6223 Y106.1699 I3.0776 J0.0552
G01 X55.3581 Y103.4340
G03 X57.5525 Y102.5334 I2.1812 J2.1909
G01 X65.6828
G00 Z-5.5000
G01 X70.8328
G00 Z-6.5000
G01 Z-8.0000 F400
G01 X76.3881 F800
G00 Z-5.5000
G01 X81.5381
G00 Z-6.5000
G01 Z-8.0000 F400
G01 X89.6685 F800
G03 X91.8570 Y103.4482 I-0.0068 J3.0916
G01 X94.5929 Y106.1840
G03 X94.5787 Y110.5469 I-2.1760 J2.1744
G01 X91.8429 Y113.2827
G03 X89.6485 Y114.1834 I-2.1812 J-2.1909
G01 X81.5181
G00 Z-5.5000
G01 X76.3681
G00 Z-6.5000
G01 Z-8.0000 F400
G01 X70.8128 F800
G00 Z-5.5000
G01 X65.6628
G00 Z5.0000


(No. 9 Part: Part 2)
G00 X65.6628 Y97.1834 Z5.0000
G00 Z0.5000
G01 Z-1.0000 F400
G01 X57.5325 F800
G03 X55.3440 Y96.2686 I0.0068 J-3.0916
G01 X52.6081 Y93.5327
G03 X51.7108 Y91.4614 I2.1866 J-2.1772
G01 X51.7084 Y91.3040
G03 X52.6223 Y89.1699 I3.0776 J0.0552
G01 X55.3581 Y86.4340
G03 X57.5525 Y85.5334 I2.1812 J2.1909
G01 X65.6828
G01 X70.8328
G01 X76.3881
G01 X81.5381
G01 X89.6685
G03 X91.8570 Y86.4482 I-0.0068 J3.0916
G01 X94.5929 Y89.1840
G03 X94.5787 Y93.5469 I-2.1760 J2.1744
G01 X91.8429 Y96.2827
G03 X89.6485 Y97.1834 I-2.1812 J-2.1909
G01 X81.5181
G01 X76.3681
G01 X70.8128
G01 X65.6628
G01 Z-2.0000 F400
G01 X57.5325 F800
G03 X55.3440 Y96.2686 I0.0068 J-3.0916
G01 X52.6081 Y93.5327
G03 X51.7108 Y91.4614 I2.1866 J-2.1772
G01 X51.7084 Y91.3040
G03 X52.6223 Y89.1699 I3.0776 J0.0552
G01 X55.3581 Y86.4340
G03 X57.5525 Y85.5334 I2.1812 J2.1909
G01 X65.6828
G01 X70.8328
G01 X76.3881
G01 X81.5381
G01 X89.6685
G03 X91.8570 Y86.4482 I-0.0068 J3.0916
G01 X94.5929 Y89.1840
G03 X94.5787 Y93.5469 I-2.1760 J2.1744
G01 X91.8429 Y96.2827
G03 X89.6485 Y97.1834 I-2.1812 J-2.1909
G01 X81.5181
G01 X76.3681
G01 X70.8128
G01 X65.6628
G01 Z-3.0000 F400
G01 X57.5325 F800
G03 X55.3440 Y96.2686 I0.0068 J-3.0916
G01 X52.6081 Y93.5327
G03 X51.7108 Y91.4614 I2.1866 J-2.1772
G01 X51.7084 Y91.3040
G03 X52.6223 Y89.1699 I3.0776 J0.0552
G01 X55.3581 Y86.4340
G03 X57.5525 Y85.5334 I2.1812 J2.1909
G01 X65.6828
G01 X70.8328
G01 X76.3881
G01 X81.5381
G01 X89.6685
G03 X91.8570 Y86.4482 I-0.0068 J3.0916
G01 X94.5929 Y89.1840
G03 X94.5787 Y93.5469 I-2.1760 J2.1744
G01 X91.8429 Y96.2827
G03 X89.6485 Y97.1834 I-2.1812 J-2.1909
G01 X81.5181
G01 X76.3681
G01 X70.8128
G01 X65.6628
G01 Z-4.0000 F400
G01 X57.5325 F800
G03 X55.3440 Y96.2686 I0.0068 J-3.0916
G01 X52.6081 Y93.5327
G03 X51.7108 Y91.4614 I2.1866 J-2.1772
G01 X51.7084 Y91.3040
G03 X52.6223 Y89.1699 I3.0776 J0.0552
G01 X55.3581 Y86.4340
G03 X57.5525 Y85.5334 I2.1812 J2.1909
G01 X65.6828
G01 X70.8328
G01 X76.3881
G01 X81.5381
G01 X89.6685
G03 X91.8570 Y86.4482 I-0.0068 J3.0916
G01 X94.5929 Y89.1840
G03 X94.5787 Y93.5469 I-2.1760 J2.1744
G01 X91.8429 Y96.2827
G03 X89.6485 Y97.1834 I-2.1812 J-2.1909
G01 X81.5181
G01 X76.3681
G01 X70.8128
G01 X65.6628
G01 Z-5.0000 F400
G01 X57.5325 F800
G03 X55.3440 Y96.2686 I0.0068 J-3.0916
G01 X52.6081 Y93.5327
G03 X51.7108 Y91.4614 I2.1866 J-2.1772
G01 X51.7084 Y91.3040
G03 X52.6223 Y89.1699 I3.0776 J0.0552
G01 X55.3581 Y86.4340
G03 X57.5525 Y85.5334 I2.1812 J2.1909
G01 X65.6828
G01 X70.8328
G01 X76.3881
G01 X81.5381
G01 X89.6685
G03 X91.8570 Y86.4482 I-0.0068 J3.0916
G01 X94.5929 Y89.1840
G03 X94.5787 Y93.5469 I-2.1760 J2.1744
G01 X91.8429 Y96.2827
G03 X89.6485 Y97.1834 I-2.1812 J-2.1909
G01 X81.5181
G01 X76.3681
G01 X70.8128
G01 X65.6628
G01 Z-6.0000 F400
G01 X57.5325 F800
G03 X55.3440 Y96.2686 I0.0068 J-3.0916
G01 X52.6081 Y93.5327
G03 X51.7108 Y91.4614 I2.1866 J-2.1772
G01 X51.7084 Y91.3040
G03 X52.6223 Y89.1699 I3.0776 J0.0552
G01 X55.3581 Y86.4340
G03 X57.5525 Y85.5334 I2.1812 J2.1909
G01 X65.6828
G00 Z-5.5000
G01 X70.8328
G01 Z-6.0000 F400
G01 X76.3881 F800
G00 Z-5.5000
G01 X81.5381
G01 Z-6.0000 F400
G01 X89.6685 F800
G03 X91.8570 Y86.4482 I-0.0068 J3.0916
G01 X94.5929 Y89.1840
G03 X94.5787 Y93.5469 I-2.1760 J2.1744
G01 X91.8429 Y96.2827
G03 X89.6485 Y97.1834 I-2.1812 J-2.1909
G01 X81.5181
G00 Z-5.5000
G01 X76.3681
G01 Z-6.0000 F400
G01 X70.8128 F800
G00 Z-5.5000
G01 X65.6628
G01 Z-7.0000 F400
G01 X57.5325 F800
G03 X55.3440 Y96.2686 I0.0068 J-3.0916
G01 X52.6081 Y93.5327
G03 X51.7108 Y91.4614 I2.1866 J-2.1772
G01 X51.7084 Y91.3040
G03 X52.6223 Y89.1699 I3.0776 J0.0552
G01 X55.3581 Y86.4340
G03 X57.5525 Y85.5334 I2.1812 J2.1909
G01 X65.6828
G00 Z-5.5000
G01 X70.8328
G01 Z-7.0000 F400
G01 X76.3881 F800
G00 Z-5.5000
G01 X81.5381
G01 Z-7.0000 F400
G01 X89.6685 F800
G03 X91.8570 Y86.4482 I-0.0068 J3.0916
G01 X94.5929 Y89.1840
G03 X94.5787 Y93.5469 I-2.1760 J2.1744
G01 X91.8429 Y96.2827
G03 X89.6485 Y97.1834 I-2.1812 J-2.1909
G01 X81.5181
G00 Z-5.5000
G01 X76.3681
G01 Z-7.0000 F400
G01 X70.8128 F800
G00 Z-5.5000
G01 X65.6628
G00 Z-6.5000
G01 Z-8.0000 F400
G01 X57.5325 F800
G03 X55.3440 Y96.2686 I0.0068 J-3.0916
G01 X52.6081 Y93.5327
G03 X51.7108 Y91.4614 I2.1866 J-2.1772
G01 X51.7084 Y91.3040
G03 X52.6223 Y89.1699 I3.0776 J0.0552
G01 X55.3581 Y86.4340
G03 X57.5525 Y85.5334 I2.1812 J2.1909
G01 X65.6828
G00 Z-5.5000
G01 X70.8328
G00 Z-6.5000
G01 Z-8.0000 F400
G01 X76.3881 F800
G00 Z-5.5000
G01 X81.5381
G00 Z-6.5000
G01 Z-8.0000 F400
G01 X89.6685 F800
G03 X91.8570 Y86.4482 I-0.0068 J3.0916
G01 X94.5929 Y89.1840
G03 X94.5787 Y93.5469 I-2.1760 J2.1744
G01 X91.8429 Y96.2827
G03 X89.6485 Y97.1834 I-2.1812 J-2.1909
G01 X81.5181
G00 Z-5.5000
G01 X76.3681
G00 Z-6.5000
G01 Z-8.0000 F400
G01 X70.8128 F800
G00 Z-5.5000
G01 X65.6628
G00 Z5.0000


(No. 10 Part: Part 2)
G00 X65.6628 Y80.1834 Z5.0000
G00 Z0.5000
G01 Z-1.0000 F400
G01 X57.5325 F800
G03 X55.3440 Y79.2686 I0.0068 J-3.0916
G01 X52.6081 Y76.5327
G03 X51.7108 Y74.4614 I2.1866 J-2.1772
G01 X51.7084 Y74.3040
G03 X52.6223 Y72.1699 I3.0776 J0.0552
G01 X55.3581 Y69.4340
G03 X57.5525 Y68.5334 I2.1812 J2.1909
G01 X65.6828
G01 X70.8328
G01 X76.3881
G01 X81.5381
G01 X89.6685
G03 X91.8570 Y69.4482 I-0.0068 J3.0916
G01 X94.5929 Y72.1840
G03 X94.5787 Y76.5469 I-2.1760 J2.1744
G01 X91.8429 Y79.2827
G03 X89.6485 Y80.1834 I-2.1812 J-2.1909
G01 X81.5181
G01 X76.3681
G01 X70.8128
G01 X65.6628
G01 Z-2.0000 F400
G01 X57.5325 F800
G03 X55.3440 Y79.2686 I0.0068 J-3.0916
G01 X52.6081 Y76.5327
G03 X51.7108 Y74.4614 I2.1866 J-2.1772
G01 X51.7084 Y74.3040
G03 X52.6223 Y72.1699 I3.0776 J0.0552
G01 X55.3581 Y69.4340
G03 X57.5525 Y68.5334 I2.1812 J2.1909
G01 X65.6828
G01 X70.8328
G01 X76.3881
G01 X81.5381
G01 X89.6685
G03 X91.8570 Y69.4482 I-0.0068 J3.0916
G01 X94.5929 Y72.1840
G03 X94.5787 Y76.5469 I-2.1760 J2.1744
G01 X91.8429 Y79.2827
G03 X89.6485 Y80.1834 I-2.1812 J-2.1909
G01 X81.5181
G01 X76.3681
G01 X70.8128
G01 X65.6628
G01 Z-3.0000 F400
G01 X57.5325 F800
G03 X55.3440 Y79.2686 I0.0068 J-3.0916
G01 X52.6081 Y76.5327
G03 X51.7108 Y74.4614 I2.1866 J-2.1772
G01 X51.7084 Y74.3040
G03 X52.6223 Y72.1699 I3.0776 J0.0552
G01 X55.3581 Y69.4340
G03 X57.5525 Y68.5334 I2.1812 J2.1909
G01 X65.6828
G01 X70.8328
G01 X76.3881
G01 X81.5381
G01 X89.6685
G03 X91.8570 Y69.4482 I-0.0068 J3.0916
G01 X94.5929 Y72.1840
G03 X94.5787 Y76.5469 I-2.1760 J2.1744
G01 X91.8429 Y79.2827
G03 X89.6485 Y80.1834 I-2.1812 J-2.1909
G01 X81.5181
G01 X76.3681
G01 X70.8128
G01 X65.6628
G01 Z-4.0000 F400
G01 X57.5325 F800
G03 X55.3440 Y79.2686 I0.0068 J-3.0916
G01 X52.6081 Y76.5327
G03 X51.7108 Y74.4614 I2.1866 J-2.1772
G01 X51.7084 Y74.3040
G03 X52.6223 Y72.1699 I3.0776 J0.0552
G01 X55.3581 Y69.4340
G03 X57.5525 Y68.5334 I2.1812 J2.1909
G01 X65.6828
G01 X70.8328
G01 X76.3881
G01 X81.5381
G01 X89.6685
G03 X91.8570 Y69.4482 I-0.0068 J3.0916
G01 X94.5929 Y72.1840
G03 X94.5787 Y76.5469 I-2.1760 J2.1744
G01 X91.8429 Y79.2827
G03 X89.6485 Y80.1834 I-2.1812 J-2.1909
G01 X81.5181
G01 X76.3681
G01 X70.8128
G01 X65.6628
G01 Z-5.0000 F400
G01 X57.5325 F800
G03 X55.3440 Y79.2686 I0.0068 J-3.0916
G01 X52.6081 Y76.5327
G03 X51.7108 Y74.4614 I2.1866 J-2.1772
G01 X51.7084 Y74.3040
G03 X52.6223 Y72.1699 I3.0776 J0.0552
G01 X55.3581 Y69.4340
G03 X57.5525 Y68.5334 I2.1812 J2.1909
G01 X65.6828
G01 X70.8328
G01 X76.3881
G01 X81.5381
G01 X89.6685
G03 X91.8570 Y69.4482 I-0.0068 J3.0916
G01 X94.5929 Y72.1840
G03 X94.5787 Y76.5469 I-2.1760 J2.1744
G01 X91.8429 Y79.2827
G03 X89.6485 Y80.1834 I-2.1812 J-2.1909
G01 X81.5181
G01 X76.3681
G01 X70.8128
G01 X65.6628
G01 Z-6.0000 F400
G01 X57.5325 F800
G03 X55.3440 Y79.2686 I0.0068 J-3.0916
G01 X52.6081 Y76.5327
G03 X51.7108 Y74.4614 I2.1866 J-2.1772
G01 X51.7084 Y74.3040
G03 X52.6223 Y72.1699 I3.0776 J0.0552
G01 X55.3581 Y69.4340
G03 X57.5525 Y68.5334 I2.1812 J2.1909
G01 X65.6828
G00 Z-5.5000
G01 X70.8328
G01 Z-6.0000 F400
G01 X76.3881 F800
G00 Z-5.5000
G01 X81.5381
G01 Z-6.0000 F400
G01 X89.6685 F800
G03 X91.8570 Y69.4482 I-0.0068 J3.0916
G01 X94.5929 Y72.1840
G03 X94.5787 Y76.5469 I-2.1760 J2.1744
G01 X91.8429 Y79.2827
G03 X89.6485 Y80.1834 I-2.1812 J-2.1909
G01 X81.5181
G00 Z-5.5000
G01 X76.3681
G01 Z-6.0000 F400
G01 X70.8128 F800
G00 Z-5.5000
G01 X65.6628
G01 Z-7.0000 F400
G01 X57.5325 F800
G03 X55.3440 Y79.2686 I0.0068 J-3.0916
G01 X52.6081 Y76.5327
G03 X51.7108 Y74.4614 I2.1866 J-2.1772
G01 X51.7084 Y74.3040
G03 X52.6223 Y72.1699 I3.0776 J0.0552
G01 X55.3581 Y69.4340
G03 X57.5525 Y68.5334 I2.1812 J2.1909
G01 X65.6828
G00 Z-5.5000
G01 X70.8328
G01 Z-7.0000 F400
G01 X76.3881 F800
G00 Z-5.5000
G01 X81.5381
G01 Z-7.0000 F400
G01 X89.6685 F800
G03 X91.8570 Y69.4482 I-0.0068 J3.0916
G01 X94.5929 Y72.1840
G03 X94.5787 Y76.5469 I-2.1760 J2.1744
G01 X91.8429 Y79.2827
G03 X89.6485 Y80.1834 I-2.1812 J-2.1909
G01 X81.5181
G00 Z-5.5000
G01 X76.3681
G01 Z-7.0000 F400
G01 X70.8128 F800
G00 Z-5.5000
G01 X65.6628
G00 Z-6.5000
G01 Z-8.0000 F400
G01 X57.5325 F800
G03 X55.3440 Y79.2686 I0.0068 J-3.0916
G01 X52.6081 Y76.5327
G03 X51.7108 Y74.4614 I2.1866 J-2.1772
G01 X51.7084 Y74.3040
G03 X52.6223 Y72.1699 I3.0776 J0.0552
G01 X55.3581 Y69.4340
G03 X57.5525 Y68.5334 I2.1812 J2.1909
G01 X65.6828
G00 Z-5.5000
G01 X70.8328
G00 Z-6.5000
G01 Z-8.0000 F400
G01 X76.3881 F800
G00 Z-5.5000
G01 X81.5381
G00 Z-6.5000
G01 Z-8.0000 F400
G01 X89.6685 F800
G03 X91.8570 Y69.4482 I-0.0068 J3.0916
G01 X94.5929 Y72.1840
G03 X94.5787 Y76.5469 I-2.1760 J2.1744
G01 X91.8429 Y79.2827
G03 X89.6485 Y80.1834 I-2.1812 J-2.1909
G01 X81.5181
G00 Z-5.5000
G01 X76.3681
G00 Z-6.5000
G01 Z-8.0000 F400
G01 X70.8128 F800
G00 Z-5.5000
G01 X65.6628
G00 Z5.0000


(No. 11 Part: Part 2)
G00 X65.6628 Y63.1834 Z5.0000
G00 Z0.5000
G01 Z-1.0000 F400
G01 X57.5325 F800
G03 X55.3440 Y62.2686 I0.0068 J-3.0916
G01 X52.6081 Y59.5327
G03 X51.7108 Y57.4614 I2.1866 J-2.1772
G01 X51.7084 Y57.3040
G03 X52.6223 Y55.1699 I3.0776 J0.0552
G01 X55.3581 Y52.4340
G03 X57.5525 Y51.5334 I2.1812 J2.1909
G01 X65.6828
G01 X70.8328
G01 X76.3881
G01 X81.5381
G01 X89.6685
G03 X91.8570 Y52.4482 I-0.0068 J3.0916
G01 X94.5929 Y55.1840
G03 X94.5787 Y59.5469 I-2.1760 J2.1744
G01 X91.8429 Y62.2827
G03 X89.6485 Y63.1834 I-2.1812 J-2.1909
G01 X81.5181
G01 X76.3681
G01 X70.8128
G01 X65.6628
G01 Z-2.0000 F400
G01 X57.5325 F800
G03 X55.3440 Y62.2686 I0.0068 J-3.0916
G01 X52.6081 Y59.5327
G03 X51.7108 Y57.4614 I2.1866 J-2.1772
G01 X51.7084 Y57.3040
G03 X52.6223 Y55.1699 I3.0776 J0.0552
G01 X55.3581 Y52.4340
G03 X57.5525 Y51.5334 I2.1812 J2.1909
G01 X65.6828
G01 X70.8328
G01 X76.3881
G01 X81.5381
G01 X89.6685
G03 X91.8570 Y52.4482 I-0.0068 J3.0916
G01 X94.5929 Y55.1840
G03 X94.5787 Y59.5469 I-2.1760 J2.1744
G01 X91.8429 Y62.2827
G03 X89.6485 Y63.1834 I-2.1812 J-2.1909
G01 X81.5181
G01 X76.3681
G01 X70.8128
G01 X65.6628
G01 Z-3.0000 F400
G01 X57.5325 F800
G03 X55.3440 Y62.2686 I0.0068 J-3.0916
G01 X52.6081 Y59.5327
G03 X51.7108 Y57.4614 I2.1866 J-2.1772
G01 X51.7084 Y57.3040
G03 X52.6223 Y55.1699 I3.0776 J0.0552
G01 X55.3581 Y52.4340
G03 X57.5525 Y51.5334 I2.1812 J2.1909
G01 X65.6828
G01 X70.8328
G01 X76.3881
G01 X81.5381
G01 X89.6685
G03 X91.8570 Y52.4482 I-0.0068 J3.0916
G01 X94.5929 Y55.1840
G03 X94.5787 Y59.5469 I-2.1760 J2.1744
G01 X91.8429 Y62.2827
G03 X89.6485 Y63.1834 I-2.1812 J-2.1909
G01 X81.5181
G01 X76.3681
G01 X70.8128
G01 X65.6628
G01 Z-4.0000 F400
G01 X57.5325 F800
G03 X55.3440 Y62.2686 I0.0068 J-3.0916
G01 X52.6081 Y59.5327
G03 X51.7108 Y57.4614 I2.1866 J-2.1772
G01 X51.7084 Y57.3040
G03 X52.6223 Y55.1699 I3.0776 J0.0552
G01 X55.3581 Y52.4340
G03 X57.5525 Y51.5334 I2.1812 J2.1909
G01 X65.6828
G01 X70.8328
G01 X76.3881
G01 X81.5381
G01 X89.6685
G03 X91.8570 Y52.4482 I-0.0068 J3.0916
G01 X94.5929 Y55.1840
G03 X94.5787 Y59.5469 I-2.1760 J2.1744
G01 X91.8429 Y62.2827
G03 X89.6485 Y63.1834 I-2.1812 J-2.1909
G01 X81.5181
G01 X76.3681
G01 X70.8128
G01 X65.6628
G01 Z-5.0000 F400
G01 X57.5325 F800
G03 X55.3440 Y62.2686 I0.0068 J-3.0916
G01 X52.6081 Y59.5327
G03 X51.7108 Y57.4614 I2.1866 J-2.1772
G01 X51.7084 Y57.3040
G03 X52.6223 Y55.1699 I3.0776 J0.0552
G01 X55.3581 Y52.4340
G03 X57.5525 Y51.5334 I2.1812 J2.1909
G01 X65.6828
G01 X70.8328
G01 X76.3881
G01 X81.5381
G01 X89.6685
G03 X91.8570 Y52.4482 I-0.0068 J3.0916
G01 X94.5929 Y55.1840
G03 X94.5787 Y59.5469 I-2.1760 J2.1744
G01 X91.8429 Y62.2827
G03 X89.6485 Y63.1834 I-2.1812 J-2.1909
G01 X81.5181
G01 X76.3681
G01 X70.8128
G01 X65.6628
G01 Z-6.0000 F400
G01 X57.5325 F800
G03 X55.3440 Y62.2686 I0.0068 J-3.0916
G01 X52.6081 Y59.5327
G03 X51.7108 Y57.4614 I2.1866 J-2.1772
G01 X51.7084 Y57.3040
G03 X52.6223 Y55.1699 I3.0776 J0.0552
G01 X55.3581 Y52.4340
G03 X57.5525 Y51.5334 I2.1812 J2.1909
G01 X65.6828
G00 Z-5.5000
G01 X70.8328
G01 Z-6.0000 F400
G01 X76.3881 F800
G00 Z-5.5000
G01 X81.5381
G01 Z-6.0000 F400
G01 X89.6685 F800
G03 X91.8570 Y52.4482 I-0.0068 J3.0916
G01 X94.5929 Y55.1840
G03 X94.5787 Y59.5469 I-2.1760 J2.1744
G01 X91.8429 Y62.2827
G03 X89.6485 Y63.1834 I-2.1812 J-2.1909
G01 X81.5181
G00 Z-5.5000
G01 X76.3681
G01 Z-6.0000 F400
G01 X70.8128 F800
G00 Z-5.5000
G01 X65.6628
G01 Z-7.0000 F400
G01 X57.5325 F800
G03 X55.3440 Y62.2686 I0.0068 J-3.0916
G01 X52.6081 Y59.5327
G03 X51.7108 Y57.4614 I2.1866 J-2.1772
G01 X51.7084 Y57.3040
G03 X52.6223 Y55.1699 I3.0776 J0.0552
G01 X55.3581 Y52.4340
G03 X57.5525 Y51.5334 I2.1812 J2.1909
G01 X65.6828
G00 Z-5.5000
G01 X70.8328
G01 Z-7.0000 F400
G01 X76.3881 F800
G00 Z-5.5000
G01 X81.5381
G01 Z-7.0000 F400
G01 X89.6685 F800
G03 X91.8570 Y52.4482 I-0.0068 J3.0916
G01 X94.5929 Y55.1840
G03 X94.5787 Y59.5469 I-2.1760 J2.1744
G01 X91.8429 Y62.2827
G03 X89.6485 Y63.1834 I-2.1812 J-2.1909
G01 X81.5181
G00 Z-5.5000
G01 X76.3681
G01 Z-7.0000 F400
G01 X70.8128 F800
G00 Z-5.5000
G01 X65.6628
G00 Z-6.5000
G01 Z-8.0000 F400
G01 X57.5325 F800
G03 X55.3440 Y62.2686 I0.0068 J-3.0916
G01 X52.6081 Y59.5327
G03 X51.7108 Y57.4614 I2.1866 J-2.1772
G01 X51.7084 Y57.3040
G03 X52.6223 Y55.1699 I3.0776 J0.0552
G01 X55.3581 Y52.4340
G03 X57.5525 Y51.5334 I2.1812 J2.1909
G01 X65.6828
G00 Z-5.5000
G01 X70.8328
G00 Z-6.5000
G01 Z-8.0000 F400
G01 X76.3881 F800
G00 Z-5.5000
G01 X81.5381
G00 Z-6.5000
G01 Z-8.0000 F400
G01 X89.6685 F800
G03 X91.8570 Y52.4482 I-0.0068 J3.0916
G01 X94.5929 Y55.1840
G03 X94.5787 Y59.5469 I-2.1760 J2.1744
G01 X91.8429 Y62.2827
G03 X89.6485 Y63.1834 I-2.1812 J-2.1909
G01 X81.5181
G00 Z-5.5000
G01 X76.3681
G00 Z-6.5000
G01 Z-8.0000 F400
G01 X70.8128 F800
G00 Z-5.5000
G01 X65.6628
G00 Z5.0000


(No. 12 Part: Part 2)
G00 X65.6628 Y46.1834 Z5.0000
G00 Z0.5000
G01 Z-1.0000 F400
G01 X57.5325 F800
G03 X55.3440 Y45.2686 I0.0068 J-3.0916
G01 X52.6081 Y42.5327
G03 X51.7108 Y40.4614 I2.1866 J-2.1772
G01 X51.7084 Y40.3040
G03 X52.6223 Y38.1699 I3.0776 J0.0552
G01 X55.3581 Y35.4340
G03 X57.5525 Y34.5334 I2.1812 J2.1909
G01 X65.6828
G01 X70.8328
G01 X76.3881
G01 X81.5381
G01 X89.6685
G03 X91.8570 Y35.4482 I-0.0068 J3.0916
G01 X94.5929 Y38.1840
G03 X94.5787 Y42.5469 I-2.1760 J2.1744
G01 X91.8429 Y45.2827
G03 X89.6485 Y46.1834 I-2.1812 J-2.1909
G01 X81.5181
G01 X76.3681
G01 X70.8128
G01 X65.6628
G01 Z-2.0000 F400
G01 X57.5325 F800
G03 X55.3440 Y45.2686 I0.0068 J-3.0916
G01 X52.6081 Y42.5327
G03 X51.7108 Y40.4614 I2.1866 J-2.1772
G01 X51.7084 Y40.3040
G03 X52.6223 Y38.1699 I3.0776 J0.0552
G01 X55.3581 Y35.4340
G03 X57.5525 Y34.5334 I2.1812 J2.1909
G01 X65.6828
G01 X70.8328
G01 X76.3881
G01 X81.5381
G01 X89.6685
G03 X91.8570 Y35.4482 I-0.0068 J3.0916
G01 X94.5929 Y38.1840
G03 X94.5787 Y42.5469 I-2.1760 J2.1744
G01 X91.8429 Y45.2827
G03 X89.6485 Y46.1834 I-2.1812 J-2.1909
G01 X81.5181
G01 X76.3681
G01 X70.8128
G01 X65.6628
G01 Z-3.0000 F400
G01 X57.5325 F800
G03 X55.3440 Y45.2686 I0.0068 J-3.0916
G01 X52.6081 Y42.5327
G03 X51.7108 Y40.4614 I2.1866 J-2.1772
G01 X51.7084 Y40.3040
G03 X52.6223 Y38.1699 I3.0776 J0.0552
G01 X55.3581 Y35.4340
G03 X57.5525 Y34.5334 I2.1812 J2.1909
G01 X65.6828
G01 X70.8328
G01 X76.3881
G01 X81.5381
G01 X89.6685
G03 X91.8570 Y35.4482 I-0.0068 J3.0916
G01 X94.5929 Y38.1840
G03 X94.5787 Y42.5469 I-2.1760 J2.1744
G01 X91.8429 Y45.2827
G03 X89.6485 Y46.1834 I-2.1812 J-2.1909
G01 X81.5181
G01 X76.3681
G01 X70.8128
G01 X65.6628
G01 Z-4.0000 F400
G01 X57.5325 F800
G03 X55.3440 Y45.2686 I0.0068 J-3.0916
G01 X52.6081 Y42.5327
G03 X51.7108 Y40.4614 I2.1866 J-2.1772
G01 X51.7084 Y40.3040
G03 X52.6223 Y38.1699 I3.0776 J0.0552
G01 X55.3581 Y35.4340
G03 X57.5525 Y34.5334 I2.1812 J2.1909
G01 X65.6828
G01 X70.8328
G01 X76.3881
G01 X81.5381
G01 X89.6685
G03 X91.8570 Y35.4482 I-0.0068 J3.0916
G01 X94.5929 Y38.1840
G03 X94.5787 Y42.5469 I-2.1760 J2.1744
G01 X91.8429 Y45.2827
G03 X89.6485 Y46.1834 I-2.1812 J-2.1909
G01 X81.5181
G01 X76.3681
G01 X70.8128
G01 X65.6628
G01 Z-5.0000 F400
G01 X57.5325 F800
G03 X55.3440 Y45.2686 I0.0068 J-3.0916
G01 X52.6081 Y42.5327
G03 X51.7108 Y40.4614 I2.1866 J-2.1772
G01 X51.7084 Y40.3040
G03 X52.6223 Y38.1699 I3.0776 J0.0552
G01 X55.3581 Y35.4340
G03 X57.5525 Y34.5334 I2.1812 J2.1909
G01 X65.6828
G01 X70.8328
G01 X76.3881
G01 X81.5381
G01 X89.6685
G03 X91.8570 Y35.4482 I-0.0068 J3.0916
G01 X94.5929 Y38.1840
G03 X94.5787 Y42.5469 I-2.1760 J2.1744
G01 X91.8429 Y45.2827
G03 X89.6485 Y46.1834 I-2.1812 J-2.1909
G01 X81.5181
G01 X76.3681
G01 X70.8128
G01 X65.6628
G01 Z-6.0000 F400
G01 X57.5325 F800
G03 X55.3440 Y45.2686 I0.0068 J-3.0916
G01 X52.6081 Y42.5327
G03 X51.7108 Y40.4614 I2.1866 J-2.1772
G01 X51.7084 Y40.3040
G03 X52.6223 Y38.1699 I3.0776 J0.0552
G01 X55.3581 Y35.4340
G03 X57.5525 Y34.5334 I2.1812 J2.1909
G01 X65.6828
G00 Z-5.5000
G01 X70.8328
G01 Z-6.0000 F400
G01 X76.3881 F800
G00 Z-5.5000
G01 X81.5381
G01 Z-6.0000 F400
G01 X89.6685 F800
G03 X91.8570 Y35.4482 I-0.0068 J3.0916
G01 X94.5929 Y38.1840
G03 X94.5787 Y42.5469 I-2.1760 J2.1744
G01 X91.8429 Y45.2827
G03 X89.6485 Y46.1834 I-2.1812 J-2.1909
G01 X81.5181
G00 Z-5.5000
G01 X76.3681
G01 Z-6.0000 F400
G01 X70.8128 F800
G00 Z-5.5000
G01 X65.6628
G01 Z-7.0000 F400
G01 X57.5325 F800
G03 X55.3440 Y45.2686 I0.0068 J-3.0916
G01 X52.6081 Y42.5327
G03 X51.7108 Y40.4614 I2.1866 J-2.1772
G01 X51.7084 Y40.3040
G03 X52.6223 Y38.1699 I3.0776 J0.0552
G01 X55.3581 Y35.4340
G03 X57.5525 Y34.5334 I2.1812 J2.1909
G01 X65.6828
G00 Z-5.5000
G01 X70.8328
G01 Z-7.0000 F400
G01 X76.3881 F800
G00 Z-5.5000
G01 X81.5381
G01 Z-7.0000 F400
G01 X89.6685 F800
G03 X91.8570 Y35.4482 I-0.0068 J3.0916
G01 X94.5929 Y38.1840
G03 X94.5787 Y42.5469 I-2.1760 J2.1744
G01 X91.8429 Y45.2827
G03 X89.6485 Y46.1834 I-2.1812 J-2.1909
G01 X81.5181
G00 Z-5.5000
G01 X76.3681
G01 Z-7.0000 F400
G01 X70.8128 F800
G00 Z-5.5000
G01 X65.6628
G00 Z-6.5000
G01 Z-8.0000 F400
G01 X57.5325 F800
G03 X55.3440 Y45.2686 I0.0068 J-3.0916
G01 X52.6081 Y42.5327
G03 X51.7108 Y40.4614 I2.1866 J-2.1772
G01 X51.7084 Y40.3040
G03 X52.6223 Y38.1699 I3.0776 J0.0552
G01 X55.3581 Y35.4340
G03 X57.5525 Y34.5334 I2.1812 J2.1909
G01 X65.6828
G00 Z-5.5000
G01 X70.8328
G00 Z-6.5000
G01 Z-8.0000 F400
G01 X76.3881 F800
G00 Z-5.5000
G01 X81.5381
G00 Z-6.5000
G01 Z-8.0000 F400
G01 X89.6685 F800
G03 X91.8570 Y35.4482 I-0.0068 J3.0916
G01 X94.5929 Y38.1840
G03 X94.5787 Y42.5469 I-2.1760 J2.1744
G01 X91.8429 Y45.2827
G03 X89.6485 Y46.1834 I-2.1812 J-2.1909
G01 X81.5181
G00 Z-5.5000
G01 X76.3681
G00 Z-6.5000
G01 Z-8.0000 F400
G01 X70.8128 F800
G00 Z-5.5000
G01 X65.6628
G00 Z5.0000


(No. 13 Part: Part 2)
G00 X65.6628 Y29.1834 Z5.0000
G00 Z0.5000
G01 Z-1.0000 F400
G01 X57.5325 F800
G03 X55.3440 Y28.2686 I0.0068 J-3.0916
G01 X52.6081 Y25.5327
G03 X51.7108 Y23.4614 I2.1866 J-2.1772
G01 X51.7084 Y23.3040
G03 X52.6223 Y21.1699 I3.0776 J0.0552
G01 X55.3581 Y18.4340
G03 X57.5525 Y17.5334 I2.1812 J2.1909
G01 X65.6828
G01 X70.8328
G01 X76.3881
G01 X81.5381
G01 X89.6685
G03 X91.8570 Y18.4482 I-0.0068 J3.0916
G01 X94.5929 Y21.1840
G03 X94.5787 Y25.5469 I-2.1760 J2.1744
G01 X91.8429 Y28.2827
G03 X89.6485 Y29.1834 I-2.1812 J-2.1909
G01 X81.5181
G01 X76.3681
G01 X70.8128
G01 X65.6628
G01 Z-2.0000 F400
G01 X57.5325 F800
G03 X55.3440 Y28.2686 I0.0068 J-3.0916
G01 X52.6081 Y25.5327
G03 X51.7108 Y23.4614 I2.1866 J-2.1772
G01 X51.7084 Y23.3040
G03 X52.6223 Y21.1699 I3.0776 J0.0552
G01 X55.3581 Y18.4340
G03 X57.5525 Y17.5334 I2.1812 J2.1909
G01 X65.6828
G01 X70.8328
G01 X76.3881
G01 X81.5381
G01 X89.6685
G03 X91.8570 Y18.4482 I-0.0068 J3.0916
G01 X94.5929 Y21.1840
G03 X94.5787 Y25.5469 I-2.1760 J2.1744
G01 X91.8429 Y28.2827
G03 X89.6485 Y29.1834 I-2.1812 J-2.1909
G01 X81.5181
G01 X76.3681
G01 X70.8128
G01 X65.6628
G01 Z-3.0000 F400
G01 X57.5325 F800
G03 X55.3440 Y28.2686 I0.0068 J-3.0916
G01 X52.6081 Y25.5327
G03 X51.7108 Y23.4614 I2.1866 J-2.1772
G01 X51.7084 Y23.3040
G03 X52.6223 Y21.1699 I3.0776 J0.0552
G01 X55.3581 Y18.4340
G03 X57.5525 Y17.5334 I2.1812 J2.1909
G01 X65.6828
G01 X70.8328
G01 X76.3881
G01 X81.5381
G01 X89.6685
G03 X91.8570 Y18.4482 I-0.0068 J3.0916
G01 X94.5929 Y21.1840
G03 X94.5787 Y25.5469 I-2.1760 J2.1744
G01 X91.8429 Y28.2827
G03 X89.6485 Y29.1834 I-2.1812 J-2.1909
G01 X81.5181
G01 X76.3681
G01 X70.8128
G01 X65.6628
G01 Z-4.0000 F400
G01 X57.5325 F800
G03 X55.3440 Y28.2686 I0.0068 J-3.0916
G01 X52.6081 Y25.5327
G03 X51.7108 Y23.4614 I2.1866 J-2.1772
G01 X51.7084 Y23.3040
G03 X52.6223 Y21.1699 I3.0776 J0.0552
G01 X55.3581 Y18.4340
G03 X57.5525 Y17.5334 I2.1812 J2.1909
G01 X65.6828
G01 X70.8328
G01 X76.3881
G01 X81.5381
G01 X89.6685
G03 X91.8570 Y18.4482 I-0.0068 J3.0916
G01 X94.5929 Y21.1840
G03 X94.5787 Y25.5469 I-2.1760 J2.1744
G01 X91.8429 Y28.2827
G03 X89.6485 Y29.1834 I-2.1812 J-2.1909
G01 X81.5181
G01 X76.3681
G01 X70.8128
G01 X65.6628
G01 Z-5.0000 F400
G01 X57.5325 F800
G03 X55.3440 Y28.2686 I0.0068 J-3.0916
G01 X52.6081 Y25.5327
G03 X51.7108 Y23.4614 I2.1866 J-2.1772
G01 X51.7084 Y23.3040
G03 X52.6223 Y21.1699 I3.0776 J0.0552
G01 X55.3581 Y18.4340
G03 X57.5525 Y17.5334 I2.1812 J2.1909
G01 X65.6828
G01 X70.8328
G01 X76.3881
G01 X81.5381
G01 X89.6685
G03 X91.8570 Y18.4482 I-0.0068 J3.0916
G01 X94.5929 Y21.1840
G03 X94.5787 Y25.5469 I-2.1760 J2.1744
G01 X91.8429 Y28.2827
G03 X89.6485 Y29.1834 I-2.1812 J-2.1909
G01 X81.5181
G01 X76.3681
G01 X70.8128
G01 X65.6628
G01 Z-6.0000 F400
G01 X57.5325 F800
G03 X55.3440 Y28.2686 I0.0068 J-3.0916
G01 X52.6081 Y25.5327
G03 X51.7108 Y23.4614 I2.1866 J-2.1772
G01 X51.7084 Y23.3040
G03 X52.6223 Y21.1699 I3.0776 J0.0552
G01 X55.3581 Y18.4340
G03 X57.5525 Y17.5334 I2.1812 J2.1909
G01 X65.6828
G00 Z-5.5000
G01 X70.8328
G01 Z-6.0000 F400
G01 X76.3881 F800
G00 Z-5.5000
G01 X81.5381
G01 Z-6.0000 F400
G01 X89.6685 F800
G03 X91.8570 Y18.4482 I-0.0068 J3.0916
G01 X94.5929 Y21.1840
G03 X94.5787 Y25.5469 I-2.1760 J2.1744
G01 X91.8429 Y28.2827
G03 X89.6485 Y29.1834 I-2.1812 J-2.1909
G01 X81.5181
G00 Z-5.5000
G01 X76.3681
G01 Z-6.0000 F400
G01 X70.8128 F800
G00 Z-5.5000
G01 X65.6628
G01 Z-7.0000 F400
G01 X57.5325 F800
G03 X55.3440 Y28.2686 I0.0068 J-3.0916
G01 X52.6081 Y25.5327
G03 X51.7108 Y23.4614 I2.1866 J-2.1772
G01 X51.7084 Y23.3040
G03 X52.6223 Y21.1699 I3.0776 J0.0552
G01 X55.3581 Y18.4340
G03 X57.5525 Y17.5334 I2.1812 J2.1909
G01 X65.6828
G00 Z-5.5000
G01 X70.8328
G01 Z-7.0000 F400
G01 X76.3881 F800
G00 Z-5.5000
G01 X81.5381
G01 Z-7.0000 F400
G01 X89.6685 F800
G03 X91.8570 Y18.4482 I-0.0068 J3.0916
G01 X94.5929 Y21.1840
G03 X94.5787 Y25.5469 I-2.1760 J2.1744
G01 X91.8429 Y28.2827
G03 X89.6485 Y29.1834 I-2.1812 J-2.1909
G01 X81.5181
G00 Z-5.5000
G01 X76.3681
G01 Z-7.0000 F400
G01 X70.8128 F800
G00 Z-5.5000
G01 X65.6628
G00 Z-6.5000
G01 Z-8.0000 F400
G01 X57.5325 F800
G03 X55.3440 Y28.2686 I0.0068 J-3.0916
G01 X52.6081 Y25.5327
G03 X51.7108 Y23.4614 I2.1866 J-2.1772
G01 X51.7084 Y23.3040
G03 X52.6223 Y21.1699 I3.0776 J0.0552
G01 X55.3581 Y18.4340
G03 X57.5525 Y17.5334 I2.1812 J2.1909
G01 X65.6828
G00 Z-5.5000
G01 X70.8328
G00 Z-6.5000
G01 Z-8.0000 F400
G01 X76.3881 F800
G00 Z-5.5000
G01 X81.5381
G00 Z-6.5000
G01 Z-8.0000 F400
G01 X89.6685 F800
G03 X91.8570 Y18.4482 I-0.0068 J3.0916
G01 X94.5929 Y21.1840
G03 X94.5787 Y25.5469 I-2.1760 J2.1744
G01 X91.8429 Y28.2827
G03 X89.6485 Y29.1834 I-2.1812 J-2.1909
G01 X81.5181
G00 Z-5.5000
G01 X76.3681
G00 Z-6.5000
G01 Z-8.0000 F400
G01 X70.8128 F800
G00 Z-5.5000
G01 X65.6628
G00 Z5.0000


(No. 14 Part: Part 2)
G00 X65.6628 Y12.1834 Z5.0000
G00 Z0.5000
G01 Z-1.0000 F400
G01 X57.5325 F800
G03 X55.3440 Y11.2686 I0.0068 J-3.0916
G01 X52.6081 Y8.5327
G03 X51.7108 Y6.4614 I2.1866 J-2.1772
G01 X51.7084 Y6.3040
G03 X52.6223 Y4.1699 I3.0776 J0.0552
G01 X55.3581 Y1.4340
G03 X57.5525 Y0.5334 I2.1812 J2.1909
G01 X65.6828
G01 X70.8328
G01 X76.3881
G01 X81.5381
G01 X89.6685
G03 X91.8570 Y1.4482 I-0.0068 J3.0916
G01 X94.5929 Y4.1840
G03 X94.5787 Y8.5469 I-2.1760 J2.1744
G01 X91.8429 Y11.2827
G03 X89.6485 Y12.1834 I-2.1812 J-2.1909
G01 X81.5181
G01 X76.3681
G01 X70.8128
G01 X65.6628
G01 Z-2.0000 F400
G01 X57.5325 F800
G03 X55.3440 Y11.2686 I0.0068 J-3.0916
G01 X52.6081 Y8.5327
G03 X51.7108 Y6.4614 I2.1866 J-2.1772
G01 X51.7084 Y6.3040
G03 X52.6223 Y4.1699 I3.0776 J0.0552
G01 X55.3581 Y1.4340
G03 X57.5525 Y0.5334 I2.1812 J2.1909
G01 X65.6828
G01 X70.8328
G01 X76.3881
G01 X81.5381
G01 X89.6685
G03 X91.8570 Y1.4482 I-0.0068 J3.0916
G01 X94.5929 Y4.1840
G03 X94.5787 Y8.5469 I-2.1760 J2.1744
G01 X91.8429 Y11.2827
G03 X89.6485 Y12.1834 I-2.1812 J-2.1909
G01 X81.5181
G01 X76.3681
G01 X70.8128
G01 X65.6628
G01 Z-3.0000 F400
G01 X57.5325 F800
G03 X55.3440 Y11.2686 I0.0068 J-3.0916
G01 X52.6081 Y8.5327
G03 X51.7108 Y6.4614 I2.1866 J-2.1772
G01 X51.7084 Y6.3040
G03 X52.6223 Y4.1699 I3.0776 J0.0552
G01 X55.3581 Y1.4340
G03 X57.5525 Y0.5334 I2.1812 J2.1909
G01 X65.6828
G01 X70.8328
G01 X76.3881
G01 X81.5381
G01 X89.6685
G03 X91.8570 Y1.4482 I-0.0068 J3.0916
G01 X94.5929 Y4.1840
G03 X94.5787 Y8.5469 I-2.1760 J2.1744
G01 X91.8429 Y11.2827
G03 X89.6485 Y12.1834 I-2.1812 J-2.1909
G01 X81.5181
G01 X76.3681
G01 X70.8128
G01 X65.6628
G01 Z-4.0000 F400
G01 X57.5325 F800
G03 X55.3440 Y11.2686 I0.0068 J-3.0916
G01 X52.6081 Y8.5327
G03 X51.7108 Y6.4614 I2.1866 J-2.1772
G01 X51.7084 Y6.3040
G03 X52.6223 Y4.1699 I3.0776 J0.0552
G01 X55.3581 Y1.4340
G03 X57.5525 Y0.5334 I2.1812 J2.1909
G01 X65.6828
G01 X70.8328
G01 X76.3881
G01 X81.5381
G01 X89.6685
G03 X91.8570 Y1.4482 I-0.0068 J3.0916
G01 X94.5929 Y4.1840
G03 X94.5787 Y8.5469 I-2.1760 J2.1744
G01 X91.8429 Y11.2827
G03 X89.6485 Y12.1834 I-2.1812 J-2.1909
G01 X81.5181
G01 X76.3681
G01 X70.8128
G01 X65.6628
G01 Z-5.0000 F400
G01 X57.5325 F800
G03 X55.3440 Y11.2686 I0.0068 J-3.0916
G01 X52.6081 Y8.5327
G03 X51.7108 Y6.4614 I2.1866 J-2.1772
G01 X51.7084 Y6.3040
G03 X52.6223 Y4.1699 I3.0776 J0.0552
G01 X55.3581 Y1.4340
G03 X57.5525 Y0.5334 I2.1812 J2.1909
G01 X65.6828
G01 X70.8328
G01 X76.3881
G01 X81.5381
G01 X89.6685
G03 X91.8570 Y1.4482 I-0.0068 J3.0916
G01 X94.5929 Y4.1840
G03 X94.5787 Y8.5469 I-2.1760 J2.1744
G01 X91.8429 Y11.2827
G03 X89.6485 Y12.1834 I-2.1812 J-2.1909
G01 X81.5181
G01 X76.3681
G01 X70.8128
G01 X65.6628
G01 Z-6.0000 F400
G01 X57.5325 F800
G03 X55.3440 Y11.2686 I0.0068 J-3.0916
G01 X52.6081 Y8.5327
G03 X51.7108 Y6.4614 I2.1866 J-2.1772
G01 X51.7084 Y6.3040
G03 X52.6223 Y4.1699 I3.0776 J0.0552
G01 X55.3581 Y1.4340
G03 X57.5525 Y0.5334 I2.1812 J2.1909
G01 X65.6828
G00 Z-5.5000
G01 X70.8328
G01 Z-6.0000 F400
G01 X76.3881 F800
G00 Z-5.5000
G01 X81.5381
G01 Z-6.0000 F400
G01 X89.6685 F800
G03 X91.8570 Y1.4482 I-0.0068 J3.0916
G01 X94.5929 Y4.1840
G03 X94.5787 Y8.5469 I-2.1760 J2.1744
G01 X91.8429 Y11.2827
G03 X89.6485 Y12.1834 I-2.1812 J-2.1909
G01 X81.5181
G00 Z-5.5000
G01 X76.3681
G01 Z-6.0000 F400
G01 X70.8128 F800
G00 Z-5.5000
G01 X65.6628
G01 Z-7.0000 F400
G01 X57.5325 F800
G03 X55.3440 Y11.2686 I0.0068 J-3.0916
G01 X52.6081 Y8.5327
G03 X51.7108 Y6.4614 I2.1866 J-2.1772
G01 X51.7084 Y6.3040
G03 X52.6223 Y4.1699 I3.0776 J0.0552
G01 X55.3581 Y1.4340
G03 X57.5525 Y0.5334 I2.1812 J2.1909
G01 X65.6828
G00 Z-5.5000
G01 X70.8328
G01 Z-7.0000 F400
G01 X76.3881 F800
G00 Z-5.5000
G01 X81.5381
G01 Z-7.0000 F400
G01 X89.6685 F800
G03 X91.8570 Y1.4482 I-0.0068 J3.0916
G01 X94.5929 Y4.1840
G03 X94.5787 Y8.5469 I-2.1760 J2.1744
G01 X91.8429 Y11.2827
G03 X89.6485 Y12.1834 I-2.1812 J-2.1909
G01 X81.5181
G00 Z-5.5000
G01 X76.3681
G01 Z-7.0000 F400
G01 X70.8128 F800
G00 Z-5.5000
G01 X65.6628
G00 Z-6.5000
G01 Z-8.0000 F400
G01 X57.5325 F800
G03 X55.3440 Y11.2686 I0.0068 J-3.0916
G01 X52.6081 Y8.5327
G03 X51.7108 Y6.4614 I2.1866 J-2.1772
G01 X51.7084 Y6.3040
G03 X52.6223 Y4.1699 I3.0776 J0.0552
G01 X55.3581 Y1.4340
G03 X57.5525 Y0.5334 I2.1812 J2.1909
G01 X65.6828
G00 Z-5.5000
G01 X70.8328
G00 Z-6.5000
G01 Z-8.0000 F400
G01 X76.3881 F800
G00 Z-5.5000
G01 X81.5381
G00 Z-6.5000
G01 Z-8.0000 F400
G01 X89.6685 F800
G03 X91.8570 Y1.4482 I-0.0068 J3.0916
G01 X94.5929 Y4.1840
G03 X94.5787 Y8.5469 I-2.1760 J2.1744
G01 X91.8429 Y11.2827
G03 X89.6485 Y12.1834 I-2.1812 J-2.1909
G01 X81.5181
G00 Z-5.5000
G01 X76.3681
G00 Z-6.5000
G01 Z-8.0000 F400
G01 X70.8128 F800
G00 Z-5.5000
G01 X65.6628
G00 Z5.0000


(No. 15 Part: Part 2)
G00 X115.7489 Y12.1834 Z5.0000
G00 Z0.5000
G01 Z-1.0000 F400
G01 X107.6185 F800
G03 X105.4300 Y11.2686 I0.0068 J-3.0916
G01 X102.6942 Y8.5327
G03 X101.7969 Y6.4614 I2.1866 J-2.1772
G01 X101.7945 Y6.3040
G03 X102.7083 Y4.1699 I3.0776 J0.0552
G01 X105.4442 Y1.4340
G03 X107.6385 Y0.5334 I2.1812 J2.1909
G01 X115.7689
G01 X120.9189
G01 X126.4742
G01 X131.6242
G01 X139.7545
G03 X141.9430 Y1.4482 I-0.0068 J3.0916
G01 X144.6789 Y4.1840
G03 X144.6648 Y8.5469 I-2.1760 J2.1744
G01 X141.9289 Y11.2827
G03 X139.7345 Y12.1834 I-2.1812 J-2.1909
G01 X131.6042
G01 X126.4542
G01 X120.8989
G01 X115.7489
G01 Z-2.0000 F400
G01 X107.6185 F800
G03 X105.4300 Y11.2686 I0.0068 J-3.0916
G01 X102.6942 Y8.5327
G03 X101.7969 Y6.4614 I2.1866 J-2.1772
G01 X101.7945 Y6.3040
G03 X102.7083 Y4.1699 I3.0776 J0.0552
G01 X105.4442 Y1.4340
G03 X107.6385 Y0.5334 I2.1812 J2.1909
G01 X115.7689
G01 X120.9189
G01 X126.4742
G01 X131.6242
G01 X139.7545
G03 X141.9430 Y1.4482 I-0.0068 J3.0916
G01 X144.6789 Y4.1840
G03 X144.6648 Y8.5469 I-2.1760 J2.1744
G01 X141.9289 Y11.2827
G03 X139.7345 Y12.1834 I-2.1812 J-2.1909
G01 X131.6042
G01 X126.4542
G01 X120.8989
G01 X115.7489
G01 Z-3.0000 F400
G01 X107.6185 F800
G03 X105.4300 Y11.2686 I0.0068 J-3.0916
G01 X102.6942 Y8.5327
G03 X101.7969 Y6.4614 I2.1866 J-2.1772
G01 X101.7945 Y6.3040
G03 X102.7083 Y4.1699 I3.0776 J0.0552
G01 X105.4442 Y1.4340
G03 X107.6385 Y0.5334 I2.1812 J2.1909
G01 X115.7689
G01 X120.9189
G01 X126.4742
G01 X131.6242
G01 X139.7545
G03 X141.9430 Y1.4482 I-0.0068 J3.0916
G01 X144.6789 Y4.1840
G03 X144.6648 Y8.5469 I-2.1760 J2.1744
G01 X141.9289 Y11.2827
G03 X139.7345 Y12.1834 I-2.1812 J-2.1909
G01 X131.6042
G01 X126.4542
G01 X120.8989
G01 X115.7489
G01 Z-4.0000 F400
G01 X107.6185 F800
G03 X105.4300 Y11.2686 I0.0068 J-3.0916
G01 X102.6942 Y8.5327
G03 X101.7969 Y6.4614 I2.1866 J-2.1772
G01 X101.7945 Y6.3040
G03 X102.7083 Y4.1699 I3.0776 J0.0552
G01 X105.4442 Y1.4340
G03 X107.6385 Y0.5334 I2.1812 J2.1909
G01 X115.7689
G01 X120.9189
G01 X126.4742
G01 X131.6242
G01 X139.7545
G03 X141.9430 Y1.4482 I-0.0068 J3.0916
G01 X144.6789 Y4.1840
G03 X144.6648 Y8.5469 I-2.1760 J2.1744
G01 X141.9289 Y11.2827
G03 X139.7345 Y12.1834 I-2.1812 J-2.1909
G01 X131.6042
G01 X126.4542
G01 X120.8989
G01 X115.7489
G01 Z-5.0000 F400
G01 X107.6185 F800
G03 X105.4300 Y11.2686 I0.0068 J-3.0916
G01 X102.6942 Y8.5327
G03 X101.7969 Y6.4614 I2.1866 J-2.1772
G01 X101.7945 Y6.3040
G03 X102.7083 Y4.1699 I3.0776 J0.0552
G01 X105.4442 Y1.4340
G03 X107.6385 Y0.5334 I2.1812 J2.1909
G01 X115.7689
G01 X120.9189
G01 X126.4742
G01 X131.6242
G01 X139.7545
G03 X141.9430 Y1.4482 I-0.0068 J3.0916
G01 X144.6789 Y4.1840
G03 X144.6648 Y8.5469 I-2.1760 J2.1744
G01 X141.9289 Y11.2827
G03 X139.7345 Y12.1834 I-2.1812 J-2.1909
G01 X131.6042
G01 X126.4542
G01 X120.8989
G01 X115.7489
G01 Z-6.0000 F400
G01 X107.6185 F800
G03 X105.4300 Y11.2686 I0.0068 J-3.0916
G01 X102.6942 Y8.5327
G03 X101.7969 Y6.4614 I2.1866 J-2.1772
G01 X101.7945 Y6.3040
G03 X102.7083 Y4.1699 I3.0776 J0.0552
G01 X105.4442 Y1.4340
G03 X107.6385 Y0.5334 I2.1812 J2.1909
G01 X115.7689
G00 Z-5.5000
G01 X120.9189
G01 Z-6.0000 F400
G01 X126.4742 F800
G00 Z-5.5000
G01 X131.6242
G01 Z-6.0000 F400
G01 X139.7545 F800
G03 X141.9430 Y1.4482 I-0.0068 J3.0916
G01 X144.6789 Y4.1840
G03 X144.6648 Y8.5469 I-2.1760 J2.1744
G01 X141.9289 Y11.2827
G03 X139.7345 Y12.1834 I-2.1812 J-2.1909
G01 X131.6042
G00 Z-5.5000
G01 X126.4542
G01 Z-6.0000 F400
G01 X120.8989 F800
G00 Z-5.5000
G01 X115.7489
G01 Z-7.0000 F400
G01 X107.6185 F800
G03 X105.4300 Y11.2686 I0.0068 J-3.0916
G01 X102.6942 Y8.5327
G03 X101.7969 Y6.4614 I2.1866 J-2.1772
G01 X101.7945 Y6.3040
G03 X102.7083 Y4.1699 I3.0776 J0.0552
G01 X105.4442 Y1.4340
G03 X107.6385 Y0.5334 I2.1812 J2.1909
G01 X115.7689
G00 Z-5.5000
G01 X120.9189
G01 Z-7.0000 F400
G01 X126.4742 F800
G00 Z-5.5000
G01 X131.6242
G01 Z-7.0000 F400
G01 X139.7545 F800
G03 X141.9430 Y1.4482 I-0.0068 J3.0916
G01 X144.6789 Y4.1840
G03 X144.6648 Y8.5469 I-2.1760 J2.1744
G01 X141.9289 Y11.2827
G03 X139.7345 Y12.1834 I-2.1812 J-2.1909
G01 X131.6042
G00 Z-5.5000
G01 X126.4542
G01 Z-7.0000 F400
G01 X120.8989 F800
G00 Z-5.5000
G01 X115.7489
G00 Z-6.5000
G01 Z-8.0000 F400
G01 X107.6185 F800
G03 X105.4300 Y11.2686 I0.0068 J-3.0916
G01 X102.6942 Y8.5327
G03 X101.7969 Y6.4614 I2.1866 J-2.1772
G01 X101.7945 Y6.3040
G03 X102.7083 Y4.1699 I3.0776 J0.0552
G01 X105.4442 Y1.4340
G03 X107.6385 Y0.5334 I2.1812 J2.1909
G01 X115.7689
G00 Z-5.5000
G01 X120.9189
G00 Z-6.5000
G01 Z-8.0000 F400
G01 X126.4742 F800
G00 Z-5.5000
G01 X131.6242
G00 Z-6.5000
G01 Z-8.0000 F400
G01 X139.7545 F800
G03 X141.9430 Y1.4482 I-0.0068 J3.0916
G01 X144.6789 Y4.1840
G03 X144.6648 Y8.5469 I-2.1760 J2.1744
G01 X141.9289 Y11.2827
G03 X139.7345 Y12.1834 I-2.1812 J-2.1909
G01 X131.6042
G00 Z-5.5000
G01 X126.4542
G00 Z-6.5000
G01 Z-8.0000 F400
G01 X120.8989 F800
G00 Z-5.5000
G01 X115.7489
G00 Z5.0000


(No. 16 Part: Part 2)
G00 X115.7489 Y29.1834 Z5.0000
G00 Z0.5000
G01 Z-1.0000 F400
G01 X107.6185 F800
G03 X105.4300 Y28.2686 I0.0068 J-3.0916
G01 X102.6942 Y25.5327
G03 X101.7969 Y23.4614 I2.1866 J-2.1772
G01 X101.7945 Y23.3040
G03 X102.7083 Y21.1699 I3.0776 J0.0552
G01 X105.4442 Y18.4340
G03 X107.6385 Y17.5334 I2.1812 J2.1909
G01 X115.7689
G01 X120.9189
G01 X126.4742
G01 X131.6242
G01 X139.7545
G03 X141.9430 Y18.4482 I-0.0068 J3.0916
G01 X144.6789 Y21.1840
G03 X144.6648 Y25.5469 I-2.1760 J2.1744
G01 X141.9289 Y28.2827
G03 X139.7345 Y29.1834 I-2.1812 J-2.1909
G01 X131.6042
G01 X126.4542
G01 X120.8989
G01 X115.7489
G01 Z-2.0000 F400
G01 X107.6185 F800
G03 X105.4300 Y28.2686 I0.0068 J-3.0916
G01 X102.6942 Y25.5327
G03 X101.7969 Y23.4614 I2.1866 J-2.1772
G01 X101.7945 Y23.3040
G03 X102.7083 Y21.1699 I3.0776 J0.0552
G01 X105.4442 Y18.4340
G03 X107.6385 Y17.5334 I2.1812 J2.1909
G01 X115.7689
G01 X120.9189
G01 X126.4742
G01 X131.6242
G01 X139.7545
G03 X141.9430 Y18.4482 I-0.0068 J3.0916
G01 X144.6789 Y21.1840
G03 X144.6648 Y25.5469 I-2.1760 J2.1744
G01 X141.9289 Y28.2827
G03 X139.7345 Y29.1834 I-2.1812 J-2.1909
G01 X131.6042
G01 X126.4542
G01 X120.8989
G01 X115.7489
G01 Z-3.0000 F400
G01 X107.6185 F800
G03 X105.4300 Y28.2686 I0.0068 J-3.0916
G01 X102.6942 Y25.5327
G03 X101.7969 Y23.4614 I2.1866 J-2.1772
G01 X101.7945 Y23.3040
G03 X102.7083 Y21.1699 I3.0776 J0.0552
G01 X105.4442 Y18.4340
G03 X107.6385 Y17.5334 I2.1812 J2.1909
G01 X115.7689
G01 X120.9189
G01 X126.4742
G01 X131.6242
G01 X139.7545
G03 X141.9430 Y18.4482 I-0.0068 J3.0916
G01 X144.6789 Y21.1840
G03 X144.6648 Y25.5469 I-2.1760 J2.1744
G01 X141.9289 Y28.2827
G03 X139.7345 Y29.1834 I-2.1812 J-2.1909
G01 X131.6042
G01 X126.4542
G01 X120.8989
G01 X115.7489
G01 Z-4.0000 F400
G01 X107.6185 F800
G03 X105.4300 Y28.2686 I0.0068 J-3.0916
G01 X102.6942 Y25.5327
G03 X101.7969 Y23.4614 I2.1866 J-2.1772
G01 X101.7945 Y23.3040
G03 X102.7083 Y21.1699 I3.0776 J0.0552
G01 X105.4442 Y18.4340
G03 X107.6385 Y17.5334 I2.1812 J2.1909
G01 X115.7689
G01 X120.9189
G01 X126.4742
G01 X131.6242
G01 X139.7545
G03 X141.9430 Y18.4482 I-0.0068 J3.0916
G01 X144.6789 Y21.1840
G03 X144.6648 Y25.5469 I-2.1760 J2.1744
G01 X141.9289 Y28.2827
G03 X139.7345 Y29.1834 I-2.1812 J-2.1909
G01 X131.6042
G01 X126.4542
G01 X120.8989
G01 X115.7489
G01 Z-5.0000 F400
G01 X107.6185 F800
G03 X105.4300 Y28.2686 I0.0068 J-3.0916
G01 X102.6942 Y25.5327
G03 X101.7969 Y23.4614 I2.1866 J-2.1772
G01 X101.7945 Y23.3040
G03 X102.7083 Y21.1699 I3.0776 J0.0552
G01 X105.4442 Y18.4340
G03 X107.6385 Y17.5334 I2.1812 J2.1909
G01 X115.7689
G01 X120.9189
G01 X126.4742
G01 X131.6242
G01 X139.7545
G03 X141.9430 Y18.4482 I-0.0068 J3.0916
G01 X144.6789 Y21.1840
G03 X144.6648 Y25.5469 I-2.1760 J2.1744
G01 X141.9289 Y28.2827
G03 X139.7345 Y29.1834 I-2.1812 J-2.1909
G01 X131.6042
G01 X126.4542
G01 X120.8989
G01 X115.7489
G01 Z-6.0000 F400
G01 X107.6185 F800
G03 X105.4300 Y28.2686 I0.0068 J-3.0916
G01 X102.6942 Y25.5327
G03 X101.7969 Y23.4614 I2.1866 J-2.1772
G01 X101.7945 Y23.3040
G03 X102.7083 Y21.1699 I3.0776 J0.0552
G01 X105.4442 Y18.4340
G03 X107.6385 Y17.5334 I2.1812 J2.1909
G01 X115.7689
G00 Z-5.5000
G01 X120.9189
G01 Z-6.0000 F400
G01 X126.4742 F800
G00 Z-5.5000
G01 X131.6242
G01 Z-6.0000 F400
G01 X139.7545 F800
G03 X141.9430 Y18.4482 I-0.0068 J3.0916
G01 X144.6789 Y21.1840
G03 X144.6648 Y25.5469 I-2.1760 J2.1744
G01 X141.9289 Y28.2827
G03 X139.7345 Y29.1834 I-2.1812 J-2.1909
G01 X131.6042
G00 Z-5.5000
G01 X126.4542
G01 Z-6.0000 F400
G01 X120.8989 F800
G00 Z-5.5000
G01 X115.7489
G01 Z-7.0000 F400
G01 X107.6185 F800
G03 X105.4300 Y28.2686 I0.0068 J-3.0916
G01 X102.6942 Y25.5327
G03 X101.7969 Y23.4614 I2.1866 J-2.1772
G01 X101.7945 Y23.3040
G03 X102.7083 Y21.1699 I3.0776 J0.0552
G01 X105.4442 Y18.4340
G03 X107.6385 Y17.5334 I2.1812 J2.1909
G01 X115.7689
G00 Z-5.5000
G01 X120.9189
G01 Z-7.0000 F400
G01 X126.4742 F800
G00 Z-5.5000
G01 X131.6242
G01 Z-7.0000 F400
G01 X139.7545 F800
G03 X141.9430 Y18.4482 I-0.0068 J3.0916
G01 X144.6789 Y21.1840
G03 X144.6648 Y25.5469 I-2.1760 J2.1744
G01 X141.9289 Y28.2827
G03 X139.7345 Y29.1834 I-2.1812 J-2.1909
G01 X131.6042
G00 Z-5.5000
G01 X126.4542
G01 Z-7.0000 F400
G01 X120.8989 F800
G00 Z-5.5000
G01 X115.7489
G00 Z-6.5000
G01 Z-8.0000 F400
G01 X107.6185 F800
G03 X105.4300 Y28.2686 I0.0068 J-3.0916
G01 X102.6942 Y25.5327
G03 X101.7969 Y23.4614 I2.1866 J-2.1772
G01 X101.7945 Y23.3040
G03 X102.7083 Y21.1699 I3.0776 J0.0552
G01 X105.4442 Y18.4340
G03 X107.6385 Y17.5334 I2.1812 J2.1909
G01 X115.7689
G00 Z-5.5000
G01 X120.9189
G00 Z-6.5000
G01 Z-8.0000 F400
G01 X126.4742 F800
G00 Z-5.5000
G01 X131.6242
G00 Z-6.5000
G01 Z-8.0000 F400
G01 X139.7545 F800
G03 X141.9430 Y18.4482 I-0.0068 J3.0916
G01 X144.6789 Y21.1840
G03 X144.6648 Y25.5469 I-2.1760 J2.1744
G01 X141.9289 Y28.2827
G03 X139.7345 Y29.1834 I-2.1812 J-2.1909
G01 X131.6042
G00 Z-5.5000
G01 X126.4542
G00 Z-6.5000
G01 Z-8.0000 F400
G01 X120.8989 F800
G00 Z-5.5000
G01 X115.7489
G00 Z5.0000


(No. 17 Part: Part 2)
G00 X115.7489 Y46.1834 Z5.0000
G00 Z0.5000
G01 Z-1.0000 F400
G01 X107.6185 F800
G03 X105.4300 Y45.2686 I0.0068 J-3.0916
G01 X102.6942 Y42.5327
G03 X101.7969 Y40.4614 I2.1866 J-2.1772
G01 X101.7945 Y40.3040
G03 X102.7083 Y38.1699 I3.0776 J0.0552
G01 X105.4442 Y35.4340
G03 X107.6385 Y34.5334 I2.1812 J2.1909
G01 X115.7689
G01 X120.9189
G01 X126.4742
G01 X131.6242
G01 X139.7545
G03 X141.9430 Y35.4482 I-0.0068 J3.0916
G01 X144.6789 Y38.1840
G03 X144.6648 Y42.5469 I-2.1760 J2.1744
G01 X141.9289 Y45.2827
G03 X139.7345 Y46.1834 I-2.1812 J-2.1909
G01 X131.6042
G01 X126.4542
G01 X120.8989
G01 X115.7489
G01 Z-2.0000 F400
G01 X107.6185 F800
G03 X105.4300 Y45.2686 I0.0068 J-3.0916
G01 X102.6942 Y42.5327
G03 X101.7969 Y40.4614 I2.1866 J-2.1772
G01 X101.7945 Y40.3040
G03 X102.7083 Y38.1699 I3.0776 J0.0552
G01 X105.4442 Y35.4340
G03 X107.6385 Y34.5334 I2.1812 J2.1909
G01 X115.7689
G01 X120.9189
G01 X126.4742
G01 X131.6242
G01 X139.7545
G03 X141.9430 Y35.4482 I-0.0068 J3.0916
G01 X144.6789 Y38.1840
G03 X144.6648 Y42.5469 I-2.1760 J2.1744
G01 X141.9289 Y45.2827
G03 X139.7345 Y46.1834 I-2.1812 J-2.1909
G01 X131.6042
G01 X126.4542
G01 X120.8989
G01 X115.7489
G01 Z-3.0000 F400
G01 X107.6185 F800
G03 X105.4300 Y45.2686 I0.0068 J-3.0916
G01 X102.6942 Y42.5327
G03 X101.7969 Y40.4614 I2.1866 J-2.1772
G01 X101.7945 Y40.3040
G03 X102.7083 Y38.1699 I3.0776 J0.0552
G01 X105.4442 Y35.4340
G03 X107.6385 Y34.5334 I2.1812 J2.1909
G01 X115.7689
G01 X120.9189
G01 X126.4742
G01 X131.6242
G01 X139.7545
G03 X141.9430 Y35.4482 I-0.0068 J3.0916
G01 X144.6789 Y38.1840
G03 X144.6648 Y42.5469 I-2.1760 J2.1744
G01 X141.9289 Y45.2827
G03 X139.7345 Y46.1834 I-2.1812 J-2.1909
G01 X131.6042
G01 X126.4542
G01 X120.8989
G01 X115.7489
G01 Z-4.0000 F400
G01 X107.6185 F800
G03 X105.4300 Y45.2686 I0.0068 J-3.0916
G01 X102.6942 Y42.5327
G03 X101.7969 Y40.4614 I2.1866 J-2.1772
G01 X101.7945 Y40.3040
G03 X102.7083 Y38.1699 I3.0776 J0.0552
G01 X105.4442 Y35.4340
G03 X107.6385 Y34.5334 I2.1812 J2.1909
G01 X115.7689
G01 X120.9189
G01 X126.4742
G01 X131.6242
G01 X139.7545
G03 X141.9430 Y35.4482 I-0.0068 J3.0916
G01 X144.6789 Y38.1840
G03 X144.6648 Y42.5469 I-2.1760 J2.1744
G01 X141.9289 Y45.2827
G03 X139.7345 Y46.1834 I-2.1812 J-2.1909
G01 X131.6042
G01 X126.4542
G01 X120.8989
G01 X115.7489
G01 Z-5.0000 F400
G01 X107.6185 F800
G03 X105.4300 Y45.2686 I0.0068 J-3.0916
G01 X102.6942 Y42.5327
G03 X101.7969 Y40.4614 I2.1866 J-2.1772
G01 X101.7945 Y40.3040
G03 X102.7083 Y38.1699 I3.0776 J0.0552
G01 X105.4442 Y35.4340
G03 X107.6385 Y34.5334 I2.1812 J2.1909
G01 X115.7689
G01 X120.9189
G01 X126.4742
G01 X131.6242
G01 X139.7545
G03 X141.9430 Y35.4482 I-0.0068 J3.0916
G01 X144.6789 Y38.1840
G03 X144.6648 Y42.5469 I-2.1760 J2.1744
G01 X141.9289 Y45.2827
G03 X139.7345 Y46.1834 I-2.1812 J-2.1909
G01 X131.6042
G01 X126.4542
G01 X120.8989
G01 X115.7489
G01 Z-6.0000 F400
G01 X107.6185 F800
G03 X105.4300 Y45.2686 I0.0068 J-3.0916
G01 X102.6942 Y42.5327
G03 X101.7969 Y40.4614 I2.1866 J-2.1772
G01 X101.7945 Y40.3040
G03 X102.7083 Y38.1699 I3.0776 J0.0552
G01 X105.4442 Y35.4340
G03 X107.6385 Y34.5334 I2.1812 J2.1909
G01 X115.7689
G00 Z-5.5000
G01 X120.9189
G01 Z-6.0000 F400
G01 X126.4742 F800
G00 Z-5.5000
G01 X131.6242
G01 Z-6.0000 F400
G01 X139.7545 F800
G03 X141.9430 Y35.4482 I-0.0068 J3.0916
G01 X144.6789 Y38.1840
G03 X144.6648 Y42.5469 I-2.1760 J2.1744
G01 X141.9289 Y45.2827
G03 X139.7345 Y46.1834 I-2.1812 J-2.1909
G01 X131.6042
G00 Z-5.5000
G01 X126.4542
G01 Z-6.0000 F400
G01 X120.8989 F800
G00 Z-5.5000
G01 X115.7489
G01 Z-7.0000 F400
G01 X107.6185 F800
G03 X105.4300 Y45.2686 I0.0068 J-3.0916
G01 X102.6942 Y42.5327
G03 X101.7969 Y40.4614 I2.1866 J-2.1772
G01 X101.7945 Y40.3040
G03 X102.7083 Y38.1699 I3.0776 J0.0552
G01 X105.4442 Y35.4340
G03 X107.6385 Y34.5334 I2.1812 J2.1909
G01 X115.7689
G00 Z-5.5000
G01 X120.9189
G01 Z-7.0000 F400
G01 X126.4742 F800
G00 Z-5.5000
G01 X131.6242
G01 Z-7.0000 F400
G01 X139.7545 F800
G03 X141.9430 Y35.4482 I-0.0068 J3.0916
G01 X144.6789 Y38.1840
G03 X144.6648 Y42.5469 I-2.1760 J2.1744
G01 X141.9289 Y45.2827
G03 X139.7345 Y46.1834 I-2.1812 J-2.1909
G01 X131.6042
G00 Z-5.5000
G01 X126.4542
G01 Z-7.0000 F400
G01 X120.8989 F800
G00 Z-5.5000
G01 X115.7489
G00 Z-6.5000
G01 Z-8.0000 F400
G01 X107.6185 F800
G03 X105.4300 Y45.2686 I0.0068 J-3.0916
G01 X102.6942 Y42.5327
G03 X101.7969 Y40.4614 I2.1866 J-2.1772
G01 X101.7945 Y40.3040
G03 X102.7083 Y38.1699 I3.0776 J0.0552
G01 X105.4442 Y35.4340
G03 X107.6385 Y34.5334 I2.1812 J2.1909
G01 X115.7689
G00 Z-5.5000
G01 X120.9189
G00 Z-6.5000
G01 Z-8.0000 F400
G01 X126.4742 F800
G00 Z-5.5000
G01 X131.6242
G00 Z-6.5000
G01 Z-8.0000 F400
G01 X139.7545 F800
G03 X141.9430 Y35.4482 I-0.0068 J3.0916
G01 X144.6789 Y38.1840
G03 X144.6648 Y42.5469 I-2.1760 J2.1744
G01 X141.9289 Y45.2827
G03 X139.7345 Y46.1834 I-2.1812 J-2.1909
G01 X131.6042
G00 Z-5.5000
G01 X126.4542
G00 Z-6.5000
G01 Z-8.0000 F400
G01 X120.8989 F800
G00 Z-5.5000
G01 X115.7489
G00 Z5.0000


(No. 18 Part: Part 2)
G00 X115.7489 Y63.1834 Z5.0000
G00 Z0.5000
G01 Z-1.0000 F400
G01 X107.6185 F800
G03 X105.4300 Y62.2686 I0.0068 J-3.0916
G01 X102.6942 Y59.5327
G03 X101.7969 Y57.4614 I2.1866 J-2.1772
G01 X101.7945 Y57.3040
G03 X102.7083 Y55.1699 I3.0776 J0.0552
G01 X105.4442 Y52.4340
G03 X107.6385 Y51.5334 I2.1812 J2.1909
G01 X115.7689
G01 X120.9189
G01 X126.4742
G01 X131.6242
G01 X139.7545
G03 X141.9430 Y52.4482 I-0.0068 J3.0916
G01 X144.6789 Y55.1840
G03 X144.6648 Y59.5469 I-2.1760 J2.1744
G01 X141.9289 Y62.2827
G03 X139.7345 Y63.1834 I-2.1812 J-2.1909
G01 X131.6042
G01 X126.4542
G01 X120.8989
G01 X115.7489
G01 Z-2.0000 F400
G01 X107.6185 F800
G03 X105.4300 Y62.2686 I0.0068 J-3.0916
G01 X102.6942 Y59.5327
G03 X101.7969 Y57.4614 I2.1866 J-2.1772
G01 X101.7945 Y57.3040
G03 X102.7083 Y55.1699 I3.0776 J0.0552
G01 X105.4442 Y52.4340
G03 X107.6385 Y51.5334 I2.1812 J2.1909
G01 X115.7689
G01 X120.9189
G01 X126.4742
G01 X131.6242
G01 X139.7545
G03 X141.9430 Y52.4482 I-0.0068 J3.0916
G01 X144.6789 Y55.1840
G03 X144.6648 Y59.5469 I-2.1760 J2.1744
G01 X141.9289 Y62.2827
G03 X139.7345 Y63.1834 I-2.1812 J-2.1909
G01 X131.6042
G01 X126.4542
G01 X120.8989
G01 X115.7489
G01 Z-3.0000 F400
G01 X107.6185 F800
G03 X105.4300 Y62.2686 I0.0068 J-3.0916
G01 X102.6942 Y59.5327
G03 X101.7969 Y57.4614 I2.1866 J-2.1772
G01 X101.7945 Y57.3040
G03 X102.7083 Y55.1699 I3.0776 J0.0552
G01 X105.4442 Y52.4340
G03 X107.6385 Y51.5334 I2.1812 J2.1909
G01 X115.7689
G01 X120.9189
G01 X126.4742
G01 X131.6242
G01 X139.7545
G03 X141.9430 Y52.4482 I-0.0068 J3.0916
G01 X144.6789 Y55.1840
G03 X144.6648 Y59.5469 I-2.1760 J2.1744
G01 X141.9289 Y62.2827
G03 X139.7345 Y63.1834 I-2.1812 J-2.1909
G01 X131.6042
G01 X126.4542
G01 X120.8989
G01 X115.7489
G01 Z-4.0000 F400
G01 X107.6185 F800
G03 X105.4300 Y62.2686 I0.0068 J-3.0916
G01 X102.6942 Y59.5327
G03 X101.7969 Y57.4614 I2.1866 J-2.1772
G01 X101.7945 Y57.3040
G03 X102.7083 Y55.1699 I3.0776 J0.0552
G01 X105.4442 Y52.4340
G03 X107.6385 Y51.5334 I2.1812 J2.1909
G01 X115.7689
G01 X120.9189
G01 X126.4742
G01 X131.6242
G01 X139.7545
G03 X141.9430 Y52.4482 I-0.0068 J3.0916
G01 X144.6789 Y55.1840
G03 X144.6648 Y59.5469 I-2.1760 J2.1744
G01 X141.9289 Y62.2827
G03 X139.7345 Y63.1834 I-2.1812 J-2.1909
G01 X131.6042
G01 X126.4542
G01 X120.8989
G01 X115.7489
G01 Z-5.0000 F400
G01 X107.6185 F800
G03 X105.4300 Y62.2686 I0.0068 J-3.0916
G01 X102.6942 Y59.5327
G03 X101.7969 Y57.4614 I2.1866 J-2.1772
G01 X101.7945 Y57.3040
G03 X102.7083 Y55.1699 I3.0776 J0.0552
G01 X105.4442 Y52.4340
G03 X107.6385 Y51.5334 I2.1812 J2.1909
G01 X115.7689
G01 X120.9189
G01 X126.4742
G01 X131.6242
G01 X139.7545
G03 X141.9430 Y52.4482 I-0.0068 J3.0916
G01 X144.6789 Y55.1840
G03 X144.6648 Y59.5469 I-2.1760 J2.1744
G01 X141.9289 Y62.2827
G03 X139.7345 Y63.1834 I-2.1812 J-2.1909
G01 X131.6042
G01 X126.4542
G01 X120.8989
G01 X115.7489
G01 Z-6.0000 F400
G01 X107.6185 F800
G03 X105.4300 Y62.2686 I0.0068 J-3.0916
G01 X102.6942 Y59.5327
G03 X101.7969 Y57.4614 I2.1866 J-2.1772
G01 X101.7945 Y57.3040
G03 X102.7083 Y55.1699 I3.0776 J0.0552
G01 X105.4442 Y52.4340
G03 X107.6385 Y51.5334 I2.1812 J2.1909
G01 X115.7689
G00 Z-5.5000
G01 X120.9189
G01 Z-6.0000 F400
G01 X126.4742 F800
G00 Z-5.5000
G01 X131.6242
G01 Z-6.0000 F400
G01 X139.7545 F800
G03 X141.9430 Y52.4482 I-0.0068 J3.0916
G01 X144.6789 Y55.1840
G03 X144.6648 Y59.5469 I-2.1760 J2.1744
G01 X141.9289 Y62.2827
G03 X139.7345 Y63.1834 I-2.1812 J-2.1909
G01 X131.6042
G00 Z-5.5000
G01 X126.4542
G01 Z-6.0000 F400
G01 X120.8989 F800
G00 Z-5.5000
G01 X115.7489
G01 Z-7.0000 F400
G01 X107.6185 F800
G03 X105.4300 Y62.2686 I0.0068 J-3.0916
G01 X102.6942 Y59.5327
G03 X101.7969 Y57.4614 I2.1866 J-2.1772
G01 X101.7945 Y57.3040
G03 X102.7083 Y55.1699 I3.0776 J0.0552
G01 X105.4442 Y52.4340
G03 X107.6385 Y51.5334 I2.1812 J2.1909
G01 X115.7689
G00 Z-5.5000
G01 X120.9189
G01 Z-7.0000 F400
G01 X126.4742 F800
G00 Z-5.5000
G01 X131.6242
G01 Z-7.0000 F400
G01 X139.7545 F800
G03 X141.9430 Y52.4482 I-0.0068 J3.0916
G01 X144.6789 Y55.1840
G03 X144.6648 Y59.5469 I-2.1760 J2.1744
G01 X141.9289 Y62.2827
G03 X139.7345 Y63.1834 I-2.1812 J-2.1909
G01 X131.6042
G00 Z-5.5000
G01 X126.4542
G01 Z-7.0000 F400
G01 X120.8989 F800
G00 Z-5.5000
G01 X115.7489
G00 Z-6.5000
G01 Z-8.0000 F400
G01 X107.6185 F800
G03 X105.4300 Y62.2686 I0.0068 J-3.0916
G01 X102.6942 Y59.5327
G03 X101.7969 Y57.4614 I2.1866 J-2.1772
G01 X101.7945 Y57.3040
G03 X102.7083 Y55.1699 I3.0776 J0.0552
G01 X105.4442 Y52.4340
G03 X107.6385 Y51.5334 I2.1812 J2.1909
G01 X115.7689
G00 Z-5.5000
G01 X120.9189
G00 Z-6.5000
G01 Z-8.0000 F400
G01 X126.4742 F800
G00 Z-5.5000
G01 X131.6242
G00 Z-6.5000
G01 Z-8.0000 F400
G01 X139.7545 F800
G03 X141.9430 Y52.4482 I-0.0068 J3.0916
G01 X144.6789 Y55.1840
G03 X144.6648 Y59.5469 I-2.1760 J2.1744
G01 X141.9289 Y62.2827
G03 X139.7345 Y63.1834 I-2.1812 J-2.1909
G01 X131.6042
G00 Z-5.5000
G01 X126.4542
G00 Z-6.5000
G01 Z-8.0000 F400
G01 X120.8989 F800
G00 Z-5.5000
G01 X115.7489
G00 Z5.0000


(No. 19 Part: Part 2)
G00 X115.7489 Y80.1834 Z5.0000
G00 Z0.5000
G01 Z-1.0000 F400
G01 X107.6185 F800
G03 X105.4300 Y79.2686 I0.0068 J-3.0916
G01 X102.6942 Y76.5327
G03 X101.7969 Y74.4614 I2.1866 J-2.1772
G01 X101.7945 Y74.3040
G03 X102.7083 Y72.1699 I3.0776 J0.0552
G01 X105.4442 Y69.4340
G03 X107.6385 Y68.5334 I2.1812 J2.1909
G01 X115.7689
G01 X120.9189
G01 X126.4742
G01 X131.6242
G01 X139.7545
G03 X141.9430 Y69.4482 I-0.0068 J3.0916
G01 X144.6789 Y72.1840
G03 X144.6648 Y76.5469 I-2.1760 J2.1744
G01 X141.9289 Y79.2827
G03 X139.7345 Y80.1834 I-2.1812 J-2.1909
G01 X131.6042
G01 X126.4542
G01 X120.8989
G01 X115.7489
G01 Z-2.0000 F400
G01 X107.6185 F800
G03 X105.4300 Y79.2686 I0.0068 J-3.0916
G01 X102.6942 Y76.5327
G03 X101.7969 Y74.4614 I2.1866 J-2.1772
G01 X101.7945 Y74.3040
G03 X102.7083 Y72.1699 I3.0776 J0.0552
G01 X105.4442 Y69.4340
G03 X107.6385 Y68.5334 I2.1812 J2.1909
G01 X115.7689
G01 X120.9189
G01 X126.4742
G01 X131.6242
G01 X139.7545
G03 X141.9430 Y69.4482 I-0.0068 J3.0916
G01 X144.6789 Y72.1840
G03 X144.6648 Y76.5469 I-2.1760 J2.1744
G01 X141.9289 Y79.2827
G03 X139.7345 Y80.1834 I-2.1812 J-2.1909
G01 X131.6042
G01 X126.4542
G01 X120.8989
G01 X115.7489
G01 Z-3.0000 F400
G01 X107.6185 F800
G03 X105.4300 Y79.2686 I0.0068 J-3.0916
G01 X102.6942 Y76.5327
G03 X101.7969 Y74.4614 I2.1866 J-2.1772
G01 X101.7945 Y74.3040
G03 X102.7083 Y72.1699 I3.0776 J0.0552
G01 X105.4442 Y69.4340
G03 X107.6385 Y68.5334 I2.1812 J2.1909
G01 X115.7689
G01 X120.9189
G01 X126.4742
G01 X131.6242
G01 X139.7545
G03 X141.9430 Y69.4482 I-0.0068 J3.0916
G01 X144.6789 Y72.1840
G03 X144.6648 Y76.5469 I-2.1760 J2.1744
G01 X141.9289 Y79.2827
G03 X139.7345 Y80.1834 I-2.1812 J-2.1909
G01 X131.6042
G01 X126.4542
G01 X120.8989
G01 X115.7489
G01 Z-4.0000 F400
G01 X107.6185 F800
G03 X105.4300 Y79.2686 I0.0068 J-3.0916
G01 X102.6942 Y76.5327
G03 X101.7969 Y74.4614 I2.1866 J-2.1772
G01 X101.7945 Y74.3040
G03 X102.7083 Y72.1699 I3.0776 J0.0552
G01 X105.4442 Y69.4340
G03 X107.6385 Y68.5334 I2.1812 J2.1909
G01 X115.7689
G01 X120.9189
G01 X126.4742
G01 X131.6242
G01 X139.7545
G03 X141.9430 Y69.4482 I-0.0068 J3.0916
G01 X144.6789 Y72.1840
G03 X144.6648 Y76.5469 I-2.1760 J2.1744
G01 X141.9289 Y79.2827
G03 X139.7345 Y80.1834 I-2.1812 J-2.1909
G01 X131.6042
G01 X126.4542
G01 X120.8989
G01 X115.7489
G01 Z-5.0000 F400
G01 X107.6185 F800
G03 X105.4300 Y79.2686 I0.0068 J-3.0916
G01 X102.6942 Y76.5327
G03 X101.7969 Y74.4614 I2.1866 J-2.1772
G01 X101.7945 Y74.3040
G03 X102.7083 Y72.1699 I3.0776 J0.0552
G01 X105.4442 Y69.4340
G03 X107.6385 Y68.5334 I2.1812 J2.1909
G01 X115.7689
G01 X120.9189
G01 X126.4742
G01 X131.6242
G01 X139.7545
G03 X141.9430 Y69.4482 I-0.0068 J3.0916
G01 X144.6789 Y72.1840
G03 X144.6648 Y76.5469 I-2.1760 J2.1744
G01 X141.9289 Y79.2827
G03 X139.7345 Y80.1834 I-2.1812 J-2.1909
G01 X131.6042
G01 X126.4542
G01 X120.8989
G01 X115.7489
G01 Z-6.0000 F400
G01 X107.6185 F800
G03 X105.4300 Y79.2686 I0.0068 J-3.0916
G01 X102.6942 Y76.5327
G03 X101.7969 Y74.4614 I2.1866 J-2.1772
G01 X101.7945 Y74.3040
G03 X102.7083 Y72.1699 I3.0776 J0.0552
G01 X105.4442 Y69.4340
G03 X107.6385 Y68.5334 I2.1812 J2.1909
G01 X115.7689
G00 Z-5.5000
G01 X120.9189
G01 Z-6.0000 F400
G01 X126.4742 F800
G00 Z-5.5000
G01 X131.6242
G01 Z-6.0000 F400
G01 X139.7545 F800
G03 X141.9430 Y69.4482 I-0.0068 J3.0916
G01 X144.6789 Y72.1840
G03 X144.6648 Y76.5469 I-2.1760 J2.1744
G01 X141.9289 Y79.2827
G03 X139.7345 Y80.1834 I-2.1812 J-2.1909
G01 X131.6042
G00 Z-5.5000
G01 X126.4542
G01 Z-6.0000 F400
G01 X120.8989 F800
G00 Z-5.5000
G01 X115.7489
G01 Z-7.0000 F400
G01 X107.6185 F800
G03 X105.4300 Y79.2686 I0.0068 J-3.0916
G01 X102.6942 Y76.5327
G03 X101.7969 Y74.4614 I2.1866 J-2.1772
G01 X101.7945 Y74.3040
G03 X102.7083 Y72.1699 I3.0776 J0.0552
G01 X105.4442 Y69.4340
G03 X107.6385 Y68.5334 I2.1812 J2.1909
G01 X115.7689
G00 Z-5.5000
G01 X120.9189
G01 Z-7.0000 F400
G01 X126.4742 F800
G00 Z-5.5000
G01 X131.6242
G01 Z-7.0000 F400
G01 X139.7545 F800
G03 X141.9430 Y69.4482 I-0.0068 J3.0916
G01 X144.6789 Y72.1840
G03 X144.6648 Y76.5469 I-2.1760 J2.1744
G01 X141.9289 Y79.2827
G03 X139.7345 Y80.1834 I-2.1812 J-2.1909
G01 X131.6042
G00 Z-5.5000
G01 X126.4542
G01 Z-7.0000 F400
G01 X120.8989 F800
G00 Z-5.5000
G01 X115.7489
G00 Z-6.5000
G01 Z-8.0000 F400
G01 X107.6185 F800
G03 X105.4300 Y79.2686 I0.0068 J-3.0916
G01 X102.6942 Y76.5327
G03 X101.7969 Y74.4614 I2.1866 J-2.1772
G01 X101.7945 Y74.3040
G03 X102.7083 Y72.1699 I3.0776 J0.0552
G01 X105.4442 Y69.4340
G03 X107.6385 Y68.5334 I2.1812 J2.1909
G01 X115.7689
G00 Z-5.5000
G01 X120.9189
G00 Z-6.5000
G01 Z-8.0000 F400
G01 X126.4742 F800
G00 Z-5.5000
G01 X131.6242
G00 Z-6.5000
G01 Z-8.0000 F400
G01 X139.7545 F800
G03 X141.9430 Y69.4482 I-0.0068 J3.0916
G01 X144.6789 Y72.1840
G03 X144.6648 Y76.5469 I-2.1760 J2.1744
G01 X141.9289 Y79.2827
G03 X139.7345 Y80.1834 I-2.1812 J-2.1909
G01 X131.6042
G00 Z-5.5000
G01 X126.4542
G00 Z-6.5000
G01 Z-8.0000 F400
G01 X120.8989 F800
G00 Z-5.5000
G01 X115.7489
G00 Z5.0000


(No. 20 Part: Part 2)
G00 X115.7489 Y97.1834 Z5.0000
G00 Z0.5000
G01 Z-1.0000 F400
G01 X107.6185 F800
G03 X105.4300 Y96.2686 I0.0068 J-3.0916
G01 X102.6942 Y93.5327
G03 X101.7969 Y91.4614 I2.1866 J-2.1772
G01 X101.7945 Y91.3040
G03 X102.7083 Y89.1699 I3.0776 J0.0552
G01 X105.4442 Y86.4340
G03 X107.6385 Y85.5334 I2.1812 J2.1909
G01 X115.7689
G01 X120.9189
G01 X126.4742
G01 X131.6242
G01 X139.7545
G03 X141.9430 Y86.4482 I-0.0068 J3.0916
G01 X144.6789 Y89.1840
G03 X144.6648 Y93.5469 I-2.1760 J2.1744
G01 X141.9289 Y96.2827
G03 X139.7345 Y97.1834 I-2.1812 J-2.1909
G01 X131.6042
G01 X126.4542
G01 X120.8989
G01 X115.7489
G01 Z-2.0000 F400
G01 X107.6185 F800
G03 X105.4300 Y96.2686 I0.0068 J-3.0916
G01 X102.6942 Y93.5327
G03 X101.7969 Y91.4614 I2.1866 J-2.1772
G01 X101.7945 Y91.3040
G03 X102.7083 Y89.1699 I3.0776 J0.0552
G01 X105.4442 Y86.4340
G03 X107.6385 Y85.5334 I2.1812 J2.1909
G01 X115.7689
G01 X120.9189
G01 X126.4742
G01 X131.6242
G01 X139.7545
G03 X141.9430 Y86.4482 I-0.0068 J3.0916
G01 X144.6789 Y89.1840
G03 X144.6648 Y93.5469 I-2.1760 J2.1744
G01 X141.9289 Y96.2827
G03 X139.7345 Y97.1834 I-2.1812 J-2.1909
G01 X131.6042
G01 X126.4542
G01 X120.8989
G01 X115.7489
G01 Z-3.0000 F400
G01 X107.6185 F800
G03 X105.4300 Y96.2686 I0.0068 J-3.0916
G01 X102.6942 Y93.5327
G03 X101.7969 Y91.4614 I2.1866 J-2.1772
G01 X101.7945 Y91.3040
G03 X102.7083 Y89.1699 I3.0776 J0.0552
G01 X105.4442 Y86.4340
G03 X107.6385 Y85.5334 I2.1812 J2.1909
G01 X115.7689
G01 X120.9189
G01 X126.4742
G01 X131.6242
G01 X139.7545
G03 X141.9430 Y86.4482 I-0.0068 J3.0916
G01 X144.6789 Y89.1840
G03 X144.6648 Y93.5469 I-2.1760 J2.1744
G01 X141.9289 Y96.2827
G03 X139.7345 Y97.1834 I-2.1812 J-2.1909
G01 X131.6042
G01 X126.4542
G01 X120.8989
G01 X115.7489
G01 Z-4.0000 F400
G01 X107.6185 F800
G03 X105.4300 Y96.2686 I0.0068 J-3.0916
G01 X102.6942 Y93.5327
G03 X101.7969 Y91.4614 I2.1866 J-2.1772
G01 X101.7945 Y91.3040
G03 X102.7083 Y89.1699 I3.0776 J0.0552
G01 X105.4442 Y86.4340
G03 X107.6385 Y85.5334 I2.1812 J2.1909
G01 X115.7689
G01 X120.9189
G01 X126.4742
G01 X131.6242
G01 X139.7545
G03 X141.9430 Y86.4482 I-0.0068 J3.0916
G01 X144.6789 Y89.1840
G03 X144.6648 Y93.5469 I-2.1760 J2.1744
G01 X141.9289 Y96.2827
G03 X139.7345 Y97.1834 I-2.1812 J-2.1909
G01 X131.6042
G01 X126.4542
G01 X120.8989
G01 X115.7489
G01 Z-5.0000 F400
G01 X107.6185 F800
G03 X105.4300 Y96.2686 I0.0068 J-3.0916
G01 X102.6942 Y93.5327
G03 X101.7969 Y91.4614 I2.1866 J-2.1772
G01 X101.7945 Y91.3040
G03 X102.7083 Y89.1699 I3.0776 J0.0552
G01 X105.4442 Y86.4340
G03 X107.6385 Y85.5334 I2.1812 J2.1909
G01 X115.7689
G01 X120.9189
G01 X126.4742
G01 X131.6242
G01 X139.7545
G03 X141.9430 Y86.4482 I-0.0068 J3.0916
G01 X144.6789 Y89.1840
G03 X144.6648 Y93.5469 I-2.1760 J2.1744
G01 X141.9289 Y96.2827
G03 X139.7345 Y97.1834 I-2.1812 J-2.1909
G01 X131.6042
G01 X126.4542
G01 X120.8989
G01 X115.7489
G01 Z-6.0000 F400
G01 X107.6185 F800
G03 X105.4300 Y96.2686 I0.0068 J-3.0916
G01 X102.6942 Y93.5327
G03 X101.7969 Y91.4614 I2.1866 J-2.1772
G01 X101.7945 Y91.3040
G03 X102.7083 Y89.1699 I3.0776 J0.0552
G01 X105.4442 Y86.4340
G03 X107.6385 Y85.5334 I2.1812 J2.1909
G01 X115.7689
G00 Z-5.5000
G01 X120.9189
G01 Z-6.0000 F400
G01 X126.4742 F800
G00 Z-5.5000
G01 X131.6242
G01 Z-6.0000 F400
G01 X139.7545 F800
G03 X141.9430 Y86.4482 I-0.0068 J3.0916
G01 X144.6789 Y89.1840
G03 X144.6648 Y93.5469 I-2.1760 J2.1744
G01 X141.9289 Y96.2827
G03 X139.7345 Y97.1834 I-2.1812 J-2.1909
G01 X131.6042
G00 Z-5.5000
G01 X126.4542
G01 Z-6.0000 F400
G01 X120.8989 F800
G00 Z-5.5000
G01 X115.7489
G01 Z-7.0000 F400
G01 X107.6185 F800
G03 X105.4300 Y96.2686 I0.0068 J-3.0916
G01 X102.6942 Y93.5327
G03 X101.7969 Y91.4614 I2.1866 J-2.1772
G01 X101.7945 Y91.3040
G03 X102.7083 Y89.1699 I3.0776 J0.0552
G01 X105.4442 Y86.4340
G03 X107.6385 Y85.5334 I2.1812 J2.1909
G01 X115.7689
G00 Z-5.5000
G01 X120.9189
G01 Z-7.0000 F400
G01 X126.4742 F800
G00 Z-5.5000
G01 X131.6242
G01 Z-7.0000 F400
G01 X139.7545 F800
G03 X141.9430 Y86.4482 I-0.0068 J3.0916
G01 X144.6789 Y89.1840
G03 X144.6648 Y93.5469 I-2.1760 J2.1744
G01 X141.9289 Y96.2827
G03 X139.7345 Y97.1834 I-2.1812 J-2.1909
G01 X131.6042
G00 Z-5.5000
G01 X126.4542
G01 Z-7.0000 F400
G01 X120.8989 F800
G00 Z-5.5000
G01 X115.7489
G00 Z-6.5000
G01 Z-8.0000 F400
G01 X107.6185 F800
G03 X105.4300 Y96.2686 I0.0068 J-3.0916
G01 X102.6942 Y93.5327
G03 X101.7969 Y91.4614 I2.1866 J-2.1772
G01 X101.7945 Y91.3040
G03 X102.7083 Y89.1699 I3.0776 J0.0552
G01 X105.4442 Y86.4340
G03 X107.6385 Y85.5334 I2.1812 J2.1909
G01 X115.7689
G00 Z-5.5000
G01 X120.9189
G00 Z-6.5000
G01 Z-8.0000 F400
G01 X126.4742 F800
G00 Z-5.5000
G01 X131.6242
G00 Z-6.5000
G01 Z-8.0000 F400
G01 X139.7545 F800
G03 X141.9430 Y86.4482 I-0.0068 J3.0916
G01 X144.6789 Y89.1840
G03 X144.6648 Y93.5469 I-2.1760 J2.1744
G01 X141.9289 Y96.2827
G03 X139.7345 Y97.1834 I-2.1812 J-2.1909
G01 X131.6042
G00 Z-5.5000
G01 X126.4542
G00 Z-6.5000
G01 Z-8.0000 F400
G01 X120.8989 F800
G00 Z-5.5000
G01 X115.7489
G00 Z5.0000


(No. 21 Part: Part 2)
G00 X115.7489 Y114.1834 Z5.0000
G00 Z0.5000
G01 Z-1.0000 F400
G01 X107.6185 F800
G03 X105.4300 Y113.2686 I0.0068 J-3.0916
G01 X102.6942 Y110.5327
G03 X101.7969 Y108.4614 I2.1866 J-2.1772
G01 X101.7945 Y108.3040
G03 X102.7083 Y106.1699 I3.0776 J0.0552
G01 X105.4442 Y103.4340
G03 X107.6385 Y102.5334 I2.1812 J2.1909
G01 X115.7689
G01 X120.9189
G01 X126.4742
G01 X131.6242
G01 X139.7545
G03 X141.9430 Y103.4482 I-0.0068 J3.0916
G01 X144.6789 Y106.1840
G03 X144.6648 Y110.5469 I-2.1760 J2.1744
G01 X141.9289 Y113.2827
G03 X139.7345 Y114.1834 I-2.1812 J-2.1909
G01 X131.6042
G01 X126.4542
G01 X120.8989
G01 X115.7489
G01 Z-2.0000 F400
G01 X107.6185 F800
G03 X105.4300 Y113.2686 I0.0068 J-3.0916
G01 X102.6942 Y110.5327
G03 X101.7969 Y108.4614 I2.1866 J-2.1772
G01 X101.7945 Y108.3040
G03 X102.7083 Y106.1699 I3.0776 J0.0552
G01 X105.4442 Y103.4340
G03 X107.6385 Y102.5334 I2.1812 J2.1909
G01 X115.7689
G01 X120.9189
G01 X126.4742
G01 X131.6242
G01 X139.7545
G03 X141.9430 Y103.4482 I-0.0068 J3.0916
G01 X144.6789 Y106.1840
G03 X144.6648 Y110.5469 I-2.1760 J2.1744
G01 X141.9289 Y113.2827
G03 X139.7345 Y114.1834 I-2.1812 J-2.1909
G01 X131.6042
G01 X126.4542
G01 X120.8989
G01 X115.7489
G01 Z-3.0000 F400
G01 X107.6185 F800
G03 X105.4300 Y113.2686 I0.0068 J-3.0916
G01 X102.6942 Y110.5327
G03 X101.7969 Y108.4614 I2.1866 J-2.1772
G01 X101.7945 Y108.3040
G03 X102.7083 Y106.1699 I3.0776 J0.0552
G01 X105.4442 Y103.4340
G03 X107.6385 Y102.5334 I2.1812 J2.1909
G01 X115.7689
G01 X120.9189
G01 X126.4742
G01 X131.6242
G01 X139.7545
G03 X141.9430 Y103.4482 I-0.0068 J3.0916
G01 X144.6789 Y106.1840
G03 X144.6648 Y110.5469 I-2.1760 J2.1744
G01 X141.9289 Y113.2827
G03 X139.7345 Y114.1834 I-2.1812 J-2.1909
G01 X131.6042
G01 X126.4542
G01 X120.8989
G01 X115.7489
G01 Z-4.0000 F400
G01 X107.6185 F800
G03 X105.4300 Y113.2686 I0.0068 J-3.0916
G01 X102.6942 Y110.5327
G03 X101.7969 Y108.4614 I2.1866 J-2.1772
G01 X101.7945 Y108.3040
G03 X102.7083 Y106.1699 I3.0776 J0.0552
G01 X105.4442 Y103.4340
G03 X107.6385 Y102.5334 I2.1812 J2.1909
G01 X115.7689
G01 X120.9189
G01 X126.4742
G01 X131.6242
G01 X139.7545
G03 X141.9430 Y103.4482 I-0.0068 J3.0916
G01 X144.6789 Y106.1840
G03 X144.6648 Y110.5469 I-2.1760 J2.1744
G01 X141.9289 Y113.2827
G03 X139.7345 Y114.1834 I-2.1812 J-2.1909
G01 X131.6042
G01 X126.4542
G01 X120.8989
G01 X115.7489
G01 Z-5.0000 F400
G01 X107.6185 F800
G03 X105.4300 Y113.2686 I0.0068 J-3.0916
G01 X102.6942 Y110.5327
G03 X101.7969 Y108.4614 I2.1866 J-2.1772
G01 X101.7945 Y108.3040
G03 X102.7083 Y106.1699 I3.0776 J0.0552
G01 X105.4442 Y103.4340
G03 X107.6385 Y102.5334 I2.1812 J2.1909
G01 X115.7689
G01 X120.9189
G01 X126.4742
G01 X131.6242
G01 X139.7545
G03 X141.9430 Y103.4482 I-0.0068 J3.0916
G01 X144.6789 Y106.1840
G03 X144.6648 Y110.5469 I-2.1760 J2.1744
G01 X141.9289 Y113.2827
G03 X139.7345 Y114.1834 I-2.1812 J-2.1909
G01 X131.6042
G01 X126.4542
G01 X120.8989
G01 X115.7489
G01 Z-6.0000 F400
G01 X107.6185 F800
G03 X105.4300 Y113.2686 I0.0068 J-3.0916
G01 X102.6942 Y110.5327
G03 X101.7969 Y108.4614 I2.1866 J-2.1772
G01 X101.7945 Y108.3040
G03 X102.7083 Y106.1699 I3.0776 J0.0552
G01 X105.4442 Y103.4340
G03 X107.6385 Y102.5334 I2.1812 J2.1909
G01 X115.7689
G00 Z-5.5000
G01 X120.9189
G01 Z-6.0000 F400
G01 X126.4742 F800
G00 Z-5.5000
G01 X131.6242
G01 Z-6.0000 F400
G01 X139.7545 F800
G03 X141.9430 Y103.4482 I-0.0068 J3.0916
G01 X144.6789 Y106.1840
G03 X144.6648 Y110.5469 I-2.1760 J2.1744
G01 X141.9289 Y113.2827
G03 X139.7345 Y114.1834 I-2.1812 J-2.1909
G01 X131.6042
G00 Z-5.5000
G01 X126.4542
G01 Z-6.0000 F400
G01 X120.8989 F800
G00 Z-5.5000
G01 X115.7489
G01 Z-7.0000 F400
G01 X107.6185 F800
G03 X105.4300 Y113.2686 I0.0068 J-3.0916
G01 X102.6942 Y110.5327
G03 X101.7969 Y108.4614 I2.1866 J-2.1772
