(Project seven-segment-body-upright-milled)
(Created by Estlcam version 11 build 11.119)
(Machining time about 00:31:12 hours)

(Required tools:)
(PCB BURR 2.4mm)
(end mill 3.0mm)

M03 S10000
G00 Z5.0000


(No. 1 Hole: Hole 1)
G00 X9.8179 Y12.9469
G00 Z0.5000
G01 Z-0.5000 F400 S10000
G01 X9.7596 Y12.9981
G01 X7.0587 Y15.6990
G02 X6.9528 Y15.9038 I0.2072 J0.2369
G01 X6.9500 Y15.9614
G01 Y48.0386
G01 X6.9530 Y48.0983
G02 X7.0587 Y48.3010 I0.3173 J-0.0365
G01 X9.7606 Y51.0028
G02 X10.2404 Y51.0019 I0.2395 J-0.1986
G01 X12.9413 Y48.3010
G02 X13.0500 Y48.0386 I-0.2163 J-0.2433
G01 Y15.9614
G02 X12.9413 Y15.6990 I-0.3250 J-0.0191
G01 X10.2394 Y12.9972
G02 X9.8179 Y12.9469 I-0.2367 J0.1926
G01 Z-1.0000
G01 X9.7596 Y12.9981
G01 X7.0587 Y15.6990
G02 X6.9528 Y15.9038 I0.2072 J0.2369
G01 X6.9500 Y15.9614
G01 Y48.0386
G01 X6.9530 Y48.0983
G02 X7.0587 Y48.3010 I0.3173 J-0.0365
G01 X9.7606 Y51.0028
G02 X10.2404 Y51.0019 I0.2395 J-0.1986
G01 X12.9413 Y48.3010
G02 X13.0500 Y48.0386 I-0.2163 J-0.2433
G01 Y15.9614
G02 X12.9413 Y15.6990 I-0.3250 J-0.0191
G01 X10.2394 Y12.9972
G02 X9.8179 Y12.9469 I-0.2367 J0.1926
G01 Z-1.5000
G01 X9.7596 Y12.9981
G01 X7.0587 Y15.6990
G02 X6.9528 Y15.9038 I0.2072 J0.2369
G01 X6.9500 Y15.9614
G01 Y48.0386
G01 X6.9530 Y48.0983
G02 X7.0587 Y48.3010 I0.3173 J-0.0365
G01 X9.7606 Y51.0028
G02 X10.2404 Y51.0019 I0.2395 J-0.1986
G01 X12.9413 Y48.3010
G02 X13.0500 Y48.0386 I-0.2163 J-0.2433
G01 Y15.9614
G02 X12.9413 Y15.6990 I-0.3250 J-0.0191
G01 X10.2394 Y12.9972
G02 X9.8179 Y12.9469 I-0.2367 J0.1926
G01 Z-2.0000
G01 X9.7596 Y12.9981
G01 X7.0587 Y15.6990
G02 X6.9528 Y15.9038 I0.2072 J0.2369
G01 X6.9500 Y15.9614
G01 Y48.0386
G01 X6.9530 Y48.0983
G02 X7.0587 Y48.3010 I0.3173 J-0.0365
G01 X9.7606 Y51.0028
G02 X10.2404 Y51.0019 I0.2395 J-0.1986
G01 X12.9413 Y48.3010
G02 X13.0500 Y48.0386 I-0.2163 J-0.2433
G01 Y15.9614
G02 X12.9413 Y15.6990 I-0.3250 J-0.0191
G01 X10.2394 Y12.9972
G02 X9.8179 Y12.9469 I-0.2367 J0.1926
G01 Z-2.5000
G01 X9.7596 Y12.9981
G01 X7.0587 Y15.6990
G02 X6.9528 Y15.9038 I0.2072 J0.2369
G01 X6.9500 Y15.9614
G01 Y48.0386
G01 X6.9530 Y48.0983
G02 X7.0587 Y48.3010 I0.3173 J-0.0365
G01 X9.7606 Y51.0028
G02 X10.2404 Y51.0019 I0.2395 J-0.1986
G01 X12.9413 Y48.3010
G02 X13.0500 Y48.0386 I-0.2163 J-0.2433
G01 Y15.9614
G02 X12.9413 Y15.6990 I-0.3250 J-0.0191
G01 X10.2394 Y12.9972
G02 X9.8179 Y12.9469 I-0.2367 J0.1926
G01 Z-3.0000
G01 X9.7596 Y12.9981
G01 X7.0587 Y15.6990
G02 X6.9528 Y15.9038 I0.2072 J0.2369
G01 X6.9500 Y15.9614
G01 Y48.0386
G01 X6.9530 Y48.0983
G02 X7.0587 Y48.3010 I0.3173 J-0.0365
G01 X9.7606 Y51.0028
G02 X10.2404 Y51.0019 I0.2395 J-0.1986
G01 X12.9413 Y48.3010
G02 X13.0500 Y48.0386 I-0.2163 J-0.2433
G01 Y15.9614
G02 X12.9413 Y15.6990 I-0.3250 J-0.0191
G01 X10.2394 Y12.9972
G02 X9.8179 Y12.9469 I-0.2367 J0.1926
G01 Z-3.5000
G01 X9.7596 Y12.9981
G01 X7.0587 Y15.6990
G02 X6.9528 Y15.9038 I0.2072 J0.2369
G01 X6.9500 Y15.9614
G01 Y48.0386
G01 X6.9530 Y48.0983
G02 X7.0587 Y48.3010 I0.3173 J-0.0365
G01 X9.7606 Y51.0028
G02 X10.2404 Y51.0019 I0.2395 J-0.1986
G01 X12.9413 Y48.3010
G02 X13.0500 Y48.0386 I-0.2163 J-0.2433
G01 Y15.9614
G02 X12.9413 Y15.6990 I-0.3250 J-0.0191
G01 X10.2394 Y12.9972
G02 X9.8179 Y12.9469 I-0.2367 J0.1926
G01 Z-4.0000
G01 X9.7596 Y12.9981
G01 X7.0587 Y15.6990
G02 X6.9528 Y15.9038 I0.2072 J0.2369
G01 X6.9500 Y15.9614
G01 Y48.0386
G01 X6.9530 Y48.0983
G02 X7.0587 Y48.3010 I0.3173 J-0.0365
G01 X9.7606 Y51.0028
G02 X10.2404 Y51.0019 I0.2395 J-0.1986
G01 X12.9413 Y48.3010
G02 X13.0500 Y48.0386 I-0.2163 J-0.2433
G01 Y15.9614
G02 X12.9413 Y15.6990 I-0.3250 J-0.0191
G01 X10.2394 Y12.9972
G02 X9.8179 Y12.9469 I-0.2367 J0.1926
G01 Z-4.5000
G01 X9.7596 Y12.9981
G01 X7.0587 Y15.6990
G02 X6.9528 Y15.9038 I0.2072 J0.2369
G01 X6.9500 Y15.9614
G01 Y48.0386
G01 X6.9530 Y48.0983
G02 X7.0587 Y48.3010 I0.3173 J-0.0365
G01 X9.7606 Y51.0028
G02 X10.2404 Y51.0019 I0.2395 J-0.1986
G01 X12.9413 Y48.3010
G02 X13.0500 Y48.0386 I-0.2163 J-0.2433
G01 Y15.9614
G02 X12.9413 Y15.6990 I-0.3250 J-0.0191
G01 X10.2394 Y12.9972
G02 X9.8179 Y12.9469 I-0.2367 J0.1926
G01 Z-5.0000
G01 X9.7596 Y12.9981
G01 X7.0587 Y15.6990
G02 X6.9528 Y15.9038 I0.2072 J0.2369
G01 X6.9500 Y15.9614
G01 Y48.0386
G01 X6.9530 Y48.0983
G02 X7.0587 Y48.3010 I0.3173 J-0.0365
G01 X9.7606 Y51.0028
G02 X10.2404 Y51.0019 I0.2395 J-0.1986
G01 X12.9413 Y48.3010
G02 X13.0500 Y48.0386 I-0.2163 J-0.2433
G01 Y15.9614
G02 X12.9413 Y15.6990 I-0.3250 J-0.0191
G01 X10.2394 Y12.9972
G02 X9.8179 Y12.9469 I-0.2367 J0.1926
G01 Z-5.5000
G01 X9.7596 Y12.9981
G01 X7.0587 Y15.6990
G02 X6.9528 Y15.9038 I0.2072 J0.2369
G01 X6.9500 Y15.9614
G01 Y48.0386
G01 X6.9530 Y48.0983
G02 X7.0587 Y48.3010 I0.3173 J-0.0365
G01 X9.7606 Y51.0028
G02 X10.2404 Y51.0019 I0.2395 J-0.1986
G01 X12.9413 Y48.3010
G02 X13.0500 Y48.0386 I-0.2163 J-0.2433
G01 Y15.9614
G02 X12.9413 Y15.6990 I-0.3250 J-0.0191
G01 X10.2394 Y12.9972
G02 X9.8179 Y12.9469 I-0.2367 J0.1926
G01 Z-6.0000
G01 X9.7596 Y12.9981
G01 X7.0587 Y15.6990
G02 X6.9528 Y15.9038 I0.2072 J0.2369
G01 X6.9500 Y15.9614
G01 Y48.0386
G01 X6.9530 Y48.0983
G02 X7.0587 Y48.3010 I0.3173 J-0.0365
G01 X9.7606 Y51.0028
G02 X10.2404 Y51.0019 I0.2395 J-0.1986
G01 X12.9413 Y48.3010
G02 X13.0500 Y48.0386 I-0.2163 J-0.2433
G01 Y15.9614
G02 X12.9413 Y15.6990 I-0.3250 J-0.0191
G01 X10.2394 Y12.9972
G02 X9.8179 Y12.9469 I-0.2367 J0.1926
G01 Z-6.5000
G01 X9.7596 Y12.9981
G01 X7.0587 Y15.6990
G02 X6.9528 Y15.9038 I0.2072 J0.2369
G01 X6.9500 Y15.9614
G01 Y48.0386
G01 X6.9530 Y48.0983
G02 X7.0587 Y48.3010 I0.3173 J-0.0365
G01 X9.7606 Y51.0028
G02 X10.2404 Y51.0019 I0.2395 J-0.1986
G01 X12.9413 Y48.3010
G02 X13.0500 Y48.0386 I-0.2163 J-0.2433
G01 Y15.9614
G02 X12.9413 Y15.6990 I-0.3250 J-0.0191
G01 X10.2394 Y12.9972
G02 X9.8179 Y12.9469 I-0.2367 J0.1926
G01 Z-7.0000
G01 X9.7596 Y12.9981
G01 X7.0587 Y15.6990
G02 X6.9528 Y15.9038 I0.2072 J0.2369
G01 X6.9500 Y15.9614
G01 Y48.0386
G01 X6.9530 Y48.0983
G02 X7.0587 Y48.3010 I0.3173 J-0.0365
G01 X9.7606 Y51.0028
G02 X10.2404 Y51.0019 I0.2395 J-0.1986
G01 X12.9413 Y48.3010
G02 X13.0500 Y48.0386 I-0.2163 J-0.2433
G01 Y15.9614
G02 X12.9413 Y15.6990 I-0.3250 J-0.0191
G01 X10.2394 Y12.9972
G02 X9.8179 Y12.9469 I-0.2367 J0.1926
G01 Z-7.5000
G01 X9.7596 Y12.9981
G01 X7.0587 Y15.6990
G02 X6.9528 Y15.9038 I0.2072 J0.2369
G01 X6.9500 Y15.9614
G01 Y48.0386
G01 X6.9530 Y48.0983
G02 X7.0587 Y48.3010 I0.3173 J-0.0365
G01 X9.7606 Y51.0028
G02 X10.2404 Y51.0019 I0.2395 J-0.1986
G01 X12.9413 Y48.3010
G02 X13.0500 Y48.0386 I-0.2163 J-0.2433
G01 Y15.9614
G02 X12.9413 Y15.6990 I-0.3250 J-0.0191
G01 X10.2394 Y12.9972
G02 X9.8179 Y12.9469 I-0.2367 J0.1926
G01 Z-8.0000
G01 X9.7596 Y12.9981
G01 X7.0587 Y15.6990
G02 X6.9528 Y15.9038 I0.2072 J0.2369
G01 X6.9500 Y15.9614
G01 Y48.0386
G01 X6.9530 Y48.0983
G02 X7.0587 Y48.3010 I0.3173 J-0.0365
G01 X9.7606 Y51.0028
G02 X10.2404 Y51.0019 I0.2395 J-0.1986
G01 X12.9413 Y48.3010
G02 X13.0500 Y48.0386 I-0.2163 J-0.2433
G01 Y15.9614
G02 X12.9413 Y15.6990 I-0.3250 J-0.0191
G01 X10.2394 Y12.9972
G02 X9.8179 Y12.9469 I-0.2367 J0.1926
G01 Z-8.5000
G01 X9.7596 Y12.9981
G01 X7.0587 Y15.6990
G02 X6.9528 Y15.9038 I0.2072 J0.2369
G01 X6.9500 Y15.9614
G01 Y48.0386
G01 X6.9530 Y48.0983
G02 X7.0587 Y48.3010 I0.3173 J-0.0365
G01 X9.7606 Y51.0028
G02 X10.2404 Y51.0019 I0.2395 J-0.1986
G01 X12.9413 Y48.3010
G02 X13.0500 Y48.0386 I-0.2163 J-0.2433
G01 Y15.9614
G02 X12.9413 Y15.6990 I-0.3250 J-0.0191
G01 X10.2394 Y12.9972
G02 X9.8179 Y12.9469 I-0.2367 J0.1926
G01 Z-9.0000
G01 X9.7596 Y12.9981
G01 X7.0587 Y15.6990
G02 X6.9528 Y15.9038 I0.2072 J0.2369
G01 X6.9500 Y15.9614
G01 Y48.0386
G01 X6.9530 Y48.0983
G02 X7.0587 Y48.3010 I0.3173 J-0.0365
G01 X9.7606 Y51.0028
G02 X10.2404 Y51.0019 I0.2395 J-0.1986
G01 X12.9413 Y48.3010
G02 X13.0500 Y48.0386 I-0.2163 J-0.2433
G01 Y15.9614
G02 X12.9413 Y15.6990 I-0.3250 J-0.0191
G01 X10.2394 Y12.9972
G02 X9.8179 Y12.9469 I-0.2367 J0.1926
G01 Z-9.5000
G01 X9.7596 Y12.9981
G01 X7.0587 Y15.6990
G02 X6.9528 Y15.9038 I0.2072 J0.2369
G01 X6.9500 Y15.9614
G01 Y48.0386
G01 X6.9530 Y48.0983
G02 X7.0587 Y48.3010 I0.3173 J-0.0365
G01 X9.7606 Y51.0028
G02 X10.2404 Y51.0019 I0.2395 J-0.1986
G01 X12.9413 Y48.3010
G02 X13.0500 Y48.0386 I-0.2163 J-0.2433
G01 Y15.9614
G02 X12.9413 Y15.6990 I-0.3250 J-0.0191
G01 X10.2394 Y12.9972
G02 X9.8179 Y12.9469 I-0.2367 J0.1926
G01 Z-10.0000
G01 X9.7596 Y12.9981
G01 X7.0587 Y15.6990
G02 X6.9528 Y15.9038 I0.2072 J0.2369
G01 X6.9500 Y15.9614
G01 Y48.0386
G01 X6.9530 Y48.0983
G02 X7.0587 Y48.3010 I0.3173 J-0.0365
G01 X9.7606 Y51.0028
G02 X10.2404 Y51.0019 I0.2395 J-0.1986
G01 X12.9413 Y48.3010
G02 X13.0500 Y48.0386 I-0.2163 J-0.2433
G01 Y15.9614
G02 X12.9413 Y15.6990 I-0.3250 J-0.0191
G01 X10.2394 Y12.9972
G02 X9.8179 Y12.9469 I-0.2367 J0.1926
G01 Z-10.5000
G01 X9.7596 Y12.9981
G01 X7.0587 Y15.6990
G02 X6.9528 Y15.9038 I0.2072 J0.2369
G01 X6.9500 Y15.9614
G01 Y48.0386
G01 X6.9530 Y48.0983
G02 X7.0587 Y48.3010 I0.3173 J-0.0365
G01 X9.7606 Y51.0028
G02 X10.2404 Y51.0019 I0.2395 J-0.1986
G01 X12.9413 Y48.3010
G02 X13.0500 Y48.0386 I-0.2163 J-0.2433
G01 Y15.9614
G02 X12.9413 Y15.6990 I-0.3250 J-0.0191
G01 X10.2394 Y12.9972
G02 X9.8179 Y12.9469 I-0.2367 J0.1926
G01 Z-11.0000
G01 X9.7596 Y12.9981
G01 X7.0587 Y15.6990
G02 X6.9528 Y15.9038 I0.2072 J0.2369
G01 X6.9500 Y15.9614
G01 Y48.0386
G01 X6.9530 Y48.0983
G02 X7.0587 Y48.3010 I0.3173 J-0.0365
G01 X9.7606 Y51.0028
G02 X10.2404 Y51.0019 I0.2395 J-0.1986
G01 X12.9413 Y48.3010
G02 X13.0500 Y48.0386 I-0.2163 J-0.2433
G01 Y15.9614
G02 X12.9413 Y15.6990 I-0.3250 J-0.0191
G01 X10.2394 Y12.9972
G02 X9.8179 Y12.9469 I-0.2367 J0.1926
G01 Z-11.5000
G01 X9.7596 Y12.9981
G01 X7.0587 Y15.6990
G02 X6.9528 Y15.9038 I0.2072 J0.2369
G01 X6.9500 Y15.9614
G01 Y48.0386
G01 X6.9530 Y48.0983
G02 X7.0587 Y48.3010 I0.3173 J-0.0365
G01 X9.7606 Y51.0028
G02 X10.2404 Y51.0019 I0.2395 J-0.1986
G01 X12.9413 Y48.3010
G02 X13.0500 Y48.0386 I-0.2163 J-0.2433
G01 Y15.9614
G02 X12.9413 Y15.6990 I-0.3250 J-0.0191
G01 X10.2394 Y12.9972
G02 X9.8179 Y12.9469 I-0.2367 J0.1926
G01 Z-12.0000
G01 X9.7596 Y12.9981
G01 X7.0587 Y15.6990
G02 X6.9528 Y15.9038 I0.2072 J0.2369
G01 X6.9500 Y15.9614
G01 Y48.0386
G01 X6.9530 Y48.0983
G02 X7.0587 Y48.3010 I0.3173 J-0.0365
G01 X9.7606 Y51.0028
G02 X10.2404 Y51.0019 I0.2395 J-0.1986
G01 X12.9413 Y48.3010
G02 X13.0500 Y48.0386 I-0.2163 J-0.2433
G01 Y15.9614
G02 X12.9413 Y15.6990 I-0.3250 J-0.0191
G01 X10.2394 Y12.9972
G02 X9.8179 Y12.9469 I-0.2367 J0.1926
G00 Z5.0000


(No. 2 Hole: Hole 2)
M05
M06 (end mill 3.0mm)
M03 S10000
G00 X13.1988 Y9.9857 Z5.0000
G00 Z0.5000
G01 Z-1.0000 F400
G01 Y10.0143
G01 X13.2167 Y10.0347
G01 X15.9083 Y12.7261
G01 X15.9285 Y12.7444
G01 X15.9385 Y12.7485
G01 X15.9720 Y12.7500
G01 X48.0344 Y12.7498
G01 X48.0615 Y12.7485
G01 X48.0715 Y12.7444
G01 X48.0963 Y12.7217
G01 X50.7833 Y10.0347
G02 Y9.9653 I-0.0190 J-0.0347
G01 X48.0917 Y7.2739
G01 X48.0715 Y7.2556
G01 X48.0615 Y7.2515
G01 X48.0280 Y7.2500
G01 X15.9656 Y7.2502
G01 X15.9385 Y7.2515
G01 X15.9285 Y7.2556
G01 X15.9037 Y7.2783
G01 X13.2167 Y9.9653
G01 X13.1988 Y9.9857
G01 Z-2.0000
G01 Y10.0143
G01 X13.2167 Y10.0347
G01 X15.9083 Y12.7261
G01 X15.9285 Y12.7444
G01 X15.9385 Y12.7485
G01 X15.9720 Y12.7500
G01 X48.0344 Y12.7498
G01 X48.0615 Y12.7485
G01 X48.0715 Y12.7444
G01 X48.0963 Y12.7217
G01 X50.7833 Y10.0347
G02 Y9.9653 I-0.0190 J-0.0347
G01 X48.0917 Y7.2739
G01 X48.0715 Y7.2556
G01 X48.0615 Y7.2515
G01 X48.0280 Y7.2500
G01 X15.9656 Y7.2502
G01 X15.9385 Y7.2515
G01 X15.9285 Y7.2556
G01 X15.9037 Y7.2783
G01 X13.2167 Y9.9653
G01 X13.1988 Y9.9857
G01 Z-3.0000
G01 Y10.0143
G01 X13.2167 Y10.0347
G01 X15.9083 Y12.7261
G01 X15.9285 Y12.7444
G01 X15.9385 Y12.7485
G01 X15.9720 Y12.7500
G01 X48.0344 Y12.7498
G01 X48.0615 Y12.7485
G01 X48.0715 Y12.7444
G01 X48.0963 Y12.7217
G01 X50.7833 Y10.0347
G02 Y9.9653 I-0.0190 J-0.0347
G01 X48.0917 Y7.2739
G01 X48.0715 Y7.2556
G01 X48.0615 Y7.2515
G01 X48.0280 Y7.2500
G01 X15.9656 Y7.2502
G01 X15.9385 Y7.2515
G01 X15.9285 Y7.2556
G01 X15.9037 Y7.2783
G01 X13.2167 Y9.9653
G01 X13.1988 Y9.9857
G01 Z-4.0000
G01 Y10.0143
G01 X13.2167 Y10.0347
G01 X15.9083 Y12.7261
G01 X15.9285 Y12.7444
G01 X15.9385 Y12.7485
G01 X15.9720 Y12.7500
G01 X48.0344 Y12.7498
G01 X48.0615 Y12.7485
G01 X48.0715 Y12.7444
G01 X48.0963 Y12.7217
G01 X50.7833 Y10.0347
G02 Y9.9653 I-0.0190 J-0.0347
G01 X48.0917 Y7.2739
G01 X48.0715 Y7.2556
G01 X48.0615 Y7.2515
G01 X48.0280 Y7.2500
G01 X15.9656 Y7.2502
G01 X15.9385 Y7.2515
G01 X15.9285 Y7.2556
G01 X15.9037 Y7.2783
G01 X13.2167 Y9.9653
G01 X13.1988 Y9.9857
G01 Z-5.0000
G01 Y10.0143
G01 X13.2167 Y10.0347
G01 X15.9083 Y12.7261
G01 X15.9285 Y12.7444
G01 X15.9385 Y12.7485
G01 X15.9720 Y12.7500
G01 X48.0344 Y12.7498
G01 X48.0615 Y12.7485
G01 X48.0715 Y12.7444
G01 X48.0963 Y12.7217
G01 X50.7833 Y10.0347
G02 Y9.9653 I-0.0190 J-0.0347
G01 X48.0917 Y7.2739
G01 X48.0715 Y7.2556
G01 X48.0615 Y7.2515
G01 X48.0280 Y7.2500
G01 X15.9656 Y7.2502
G01 X15.9385 Y7.2515
G01 X15.9285 Y7.2556
G01 X15.9037 Y7.2783
G01 X13.2167 Y9.9653
G01 X13.1988 Y9.9857
G01 Z-6.0000
G01 Y10.0143
G01 X13.2167 Y10.0347
G01 X15.9083 Y12.7261
G01 X15.9285 Y12.7444
G01 X15.9385 Y12.7485
G01 X15.9720 Y12.7500
G01 X48.0344 Y12.7498
G01 X48.0615 Y12.7485
G01 X48.0715 Y12.7444
G01 X48.0963 Y12.7217
G01 X50.7833 Y10.0347
G02 Y9.9653 I-0.0190 J-0.0347
G01 X48.0917 Y7.2739
G01 X48.0715 Y7.2556
G01 X48.0615 Y7.2515
G01 X48.0280 Y7.2500
G01 X15.9656 Y7.2502
G01 X15.9385 Y7.2515
G01 X15.9285 Y7.2556
G01 X15.9037 Y7.2783
G01 X13.2167 Y9.9653
G01 X13.1988 Y9.9857
G01 Z-7.0000
G01 Y10.0143
G01 X13.2167 Y10.0347
G01 X15.9083 Y12.7261
G01 X15.9285 Y12.7444
G01 X15.9385 Y12.7485
G01 X15.9720 Y12.7500
G01 X48.0344 Y12.7498
G01 X48.0615 Y12.7485
G01 X48.0715 Y12.7444
G01 X48.0963 Y12.7217
G01 X50.7833 Y10.0347
G02 Y9.9653 I-0.0190 J-0.0347
G01 X48.0917 Y7.2739
G01 X48.0715 Y7.2556
G01 X48.0615 Y7.2515
G01 X48.0280 Y7.2500
G01 X15.9656 Y7.2502
G01 X15.9385 Y7.2515
G01 X15.9285 Y7.2556
G01 X15.9037 Y7.2783
G01 X13.2167 Y9.9653
G01 X13.1988 Y9.9857
G01 Z-8.0000
G01 Y10.0143
G01 X13.2167 Y10.0347
G01 X15.9083 Y12.7261
G01 X15.9285 Y12.7444
G01 X15.9385 Y12.7485
G01 X15.9720 Y12.7500
G01 X48.0344 Y12.7498
G01 X48.0615 Y12.7485
G01 X48.0715 Y12.7444
G01 X48.0963 Y12.7217
G01 X50.7833 Y10.0347
G02 Y9.9653 I-0.0190 J-0.0347
G01 X48.0917 Y7.2739
G01 X48.0715 Y7.2556
G01 X48.0615 Y7.2515
G01 X48.0280 Y7.2500
G01 X15.9656 Y7.2502
G01 X15.9385 Y7.2515
G01 X15.9285 Y7.2556
G01 X15.9037 Y7.2783
G01 X13.2167 Y9.9653
G01 X13.1988 Y9.9857
G01 Z-9.0000
G01 Y10.0143
G01 X13.2167 Y10.0347
G01 X15.9083 Y12.7261
G01 X15.9285 Y12.7444
G01 X15.9385 Y12.7485
G01 X15.9720 Y12.7500
G01 X48.0344 Y12.7498
G01 X48.0615 Y12.7485
G01 X48.0715 Y12.7444
G01 X48.0963 Y12.7217
G01 X50.7833 Y10.0347
G02 Y9.9653 I-0.0190 J-0.0347
G01 X48.0917 Y7.2739
G01 X48.0715 Y7.2556
G01 X48.0615 Y7.2515
G01 X48.0280 Y7.2500
G01 X15.9656 Y7.2502
G01 X15.9385 Y7.2515
G01 X15.9285 Y7.2556
G01 X15.9037 Y7.2783
G01 X13.2167 Y9.9653
G01 X13.1988 Y9.9857
G01 Z-10.0000
G01 Y10.0143
G01 X13.2167 Y10.0347
G01 X15.9083 Y12.7261
G01 X15.9285 Y12.7444
G01 X15.9385 Y12.7485
G01 X15.9720 Y12.7500
G01 X48.0344 Y12.7498
G01 X48.0615 Y12.7485
G01 X48.0715 Y12.7444
G01 X48.0963 Y12.7217
G01 X50.7833 Y10.0347
G02 Y9.9653 I-0.0190 J-0.0347
G01 X48.0917 Y7.2739
G01 X48.0715 Y7.2556
G01 X48.0615 Y7.2515
G01 X48.0280 Y7.2500
G01 X15.9656 Y7.2502
G01 X15.9385 Y7.2515
G01 X15.9285 Y7.2556
G01 X15.9037 Y7.2783
G01 X13.2167 Y9.9653
G01 X13.1988 Y9.9857
G01 Z-11.0000
G01 Y10.0143
G01 X13.2167 Y10.0347
G01 X15.9083 Y12.7261
G01 X15.9285 Y12.7444
G01 X15.9385 Y12.7485
G01 X15.9720 Y12.7500
G01 X48.0344 Y12.7498
G01 X48.0615 Y12.7485
G01 X48.0715 Y12.7444
G01 X48.0963 Y12.7217
G01 X50.7833 Y10.0347
G02 Y9.9653 I-0.0190 J-0.0347
G01 X48.0917 Y7.2739
G01 X48.0715 Y7.2556
G01 X48.0615 Y7.2515
G01 X48.0280 Y7.2500
G01 X15.9656 Y7.2502
G01 X15.9385 Y7.2515
G01 X15.9285 Y7.2556
G01 X15.9037 Y7.2783
G01 X13.2167 Y9.9653
G01 X13.1988 Y9.9857
G01 Z-12.0000
G01 Y10.0143
G01 X13.2167 Y10.0347
G01 X15.9083 Y12.7261
G01 X15.9285 Y12.7444
G01 X15.9385 Y12.7485
G01 X15.9720 Y12.7500
G01 X48.0344 Y12.7498
G01 X48.0615 Y12.7485
G01 X48.0715 Y12.7444
G01 X48.0963 Y12.7217
G01 X50.7833 Y10.0347
G02 Y9.9653 I-0.0190 J-0.0347
G01 X48.0917 Y7.2739
G01 X48.0715 Y7.2556
G01 X48.0615 Y7.2515
G01 X48.0280 Y7.2500
G01 X15.9656 Y7.2502
G01 X15.9385 Y7.2515
G01 X15.9285 Y7.2556
G01 X15.9037 Y7.2783
G01 X13.2167 Y9.9653
G01 X13.1988 Y9.9857
G00 Z5.0000


(No. 3 Hole: Hole 3)
G00 X51.2556 Y15.9285 Z5.0000
G00 Z0.5000
G01 Z-1.0000 F400
G01 X51.2515 Y15.9385
G01 X51.2500 Y15.9720
G01 X51.2502 Y48.0344
G01 X51.2515 Y48.0615
G01 X51.2556 Y48.0715
G01 X51.2783 Y48.0963
G01 X53.9653 Y50.7833
G02 X54.0347 I0.0347 J-0.0190
G01 X56.7261 Y48.0917
G01 X56.7444 Y48.0715
G01 X56.7485 Y48.0615
G01 X56.7500 Y48.0280
G01 X56.7498 Y15.9656
G01 X56.7485 Y15.9385
G01 X56.7444 Y15.9285
G01 X56.7217 Y15.9037
G01 X54.0347 Y13.2167
G02 X53.9653 I-0.0347 J0.0190
G01 X51.2739 Y15.9083
G01 X51.2556 Y15.9285
G01 Z-2.0000
G01 X51.2515 Y15.9385
G01 X51.2500 Y15.9720
G01 X51.2502 Y48.0344
G01 X51.2515 Y48.0615
G01 X51.2556 Y48.0715
G01 X51.2783 Y48.0963
G01 X53.9653 Y50.7833
G02 X54.0347 I0.0347 J-0.0190
G01 X56.7261 Y48.0917
G01 X56.7444 Y48.0715
G01 X56.7485 Y48.0615
G01 X56.7500 Y48.0280
G01 X56.7498 Y15.9656
G01 X56.7485 Y15.9385
G01 X56.7444 Y15.9285
G01 X56.7217 Y15.9037
G01 X54.0347 Y13.2167
G02 X53.9653 I-0.0347 J0.0190
G01 X51.2739 Y15.9083
G01 X51.2556 Y15.9285
G01 Z-3.0000
G01 X51.2515 Y15.9385
G01 X51.2500 Y15.9720
G01 X51.2502 Y48.0344
G01 X51.2515 Y48.0615
G01 X51.2556 Y48.0715
G01 X51.2783 Y48.0963
G01 X53.9653 Y50.7833
G02 X54.0347 I0.0347 J-0.0190
G01 X56.7261 Y48.0917
G01 X56.7444 Y48.0715
G01 X56.7485 Y48.0615
G01 X56.7500 Y48.0280
G01 X56.7498 Y15.9656
G01 X56.7485 Y15.9385
G01 X56.7444 Y15.9285
G01 X56.7217 Y15.9037
G01 X54.0347 Y13.2167
G02 X53.9653 I-0.0347 J0.0190
G01 X51.2739 Y15.9083
G01 X51.2556 Y15.9285
G01 Z-4.0000
G01 X51.2515 Y15.9385
G01 X51.2500 Y15.9720
G01 X51.2502 Y48.0344
G01 X51.2515 Y48.0615
G01 X51.2556 Y48.0715
G01 X51.2783 Y48.0963
G01 X53.9653 Y50.7833
G02 X54.0347 I0.0347 J-0.0190
G01 X56.7261 Y48.0917
G01 X56.7444 Y48.0715
G01 X56.7485 Y48.0615
G01 X56.7500 Y48.0280
G01 X56.7498 Y15.9656
G01 X56.7485 Y15.9385
G01 X56.7444 Y15.9285
G01 X56.7217 Y15.9037
G01 X54.0347 Y13.2167
G02 X53.9653 I-0.0347 J0.0190
G01 X51.2739 Y15.9083
G01 X51.2556 Y15.9285
G01 Z-5.0000
G01 X51.2515 Y15.9385
G01 X51.2500 Y15.9720
G01 X51.2502 Y48.0344
G01 X51.2515 Y48.0615
G01 X51.2556 Y48.0715
G01 X51.2783 Y48.0963
G01 X53.9653 Y50.7833
G02 X54.0347 I0.0347 J-0.0190
G01 X56.7261 Y48.0917
G01 X56.7444 Y48.0715
G01 X56.7485 Y48.0615
G01 X56.7500 Y48.0280
G01 X56.7498 Y15.9656
G01 X56.7485 Y15.9385
G01 X56.7444 Y15.9285
G01 X56.7217 Y15.9037
G01 X54.0347 Y13.2167
G02 X53.9653 I-0.0347 J0.0190
G01 X51.2739 Y15.9083
G01 X51.2556 Y15.9285
G01 Z-6.0000
G01 X51.2515 Y15.9385
G01 X51.2500 Y15.9720
G01 X51.2502 Y48.0344
G01 X51.2515 Y48.0615
G01 X51.2556 Y48.0715
G01 X51.2783 Y48.0963
G01 X53.9653 Y50.7833
G02 X54.0347 I0.0347 J-0.0190
G01 X56.7261 Y48.0917
G01 X56.7444 Y48.0715
G01 X56.7485 Y48.0615
G01 X56.7500 Y48.0280
G01 X56.7498 Y15.9656
G01 X56.7485 Y15.9385
G01 X56.7444 Y15.9285
G01 X56.7217 Y15.9037
G01 X54.0347 Y13.2167
G02 X53.9653 I-0.0347 J0.0190
G01 X51.2739 Y15.9083
G01 X51.2556 Y15.9285
G01 Z-7.0000
G01 X51.2515 Y15.9385
G01 X51.2500 Y15.9720
G01 X51.2502 Y48.0344
G01 X51.2515 Y48.0615
G01 X51.2556 Y48.0715
G01 X51.2783 Y48.0963
G01 X53.9653 Y50.7833
G02 X54.0347 I0.0347 J-0.0190
G01 X56.7261 Y48.0917
G01 X56.7444 Y48.0715
G01 X56.7485 Y48.0615
G01 X56.7500 Y48.0280
G01 X56.7498 Y15.9656
G01 X56.7485 Y15.9385
G01 X56.7444 Y15.9285
G01 X56.7217 Y15.9037
G01 X54.0347 Y13.2167
G02 X53.9653 I-0.0347 J0.0190
G01 X51.2739 Y15.9083
G01 X51.2556 Y15.9285
G01 Z-8.0000
G01 X51.2515 Y15.9385
G01 X51.2500 Y15.9720
G01 X51.2502 Y48.0344
G01 X51.2515 Y48.0615
G01 X51.2556 Y48.0715
G01 X51.2783 Y48.0963
G01 X53.9653 Y50.7833
G02 X54.0347 I0.0347 J-0.0190
G01 X56.7261 Y48.0917
G01 X56.7444 Y48.0715
G01 X56.7485 Y48.0615
G01 X56.7500 Y48.0280
G01 X56.7498 Y15.9656
G01 X56.7485 Y15.9385
G01 X56.7444 Y15.9285
G01 X56.7217 Y15.9037
G01 X54.0347 Y13.2167
G02 X53.9653 I-0.0347 J0.0190
G01 X51.2739 Y15.9083
G01 X51.2556 Y15.9285
G01 Z-9.0000
G01 X51.2515 Y15.9385
G01 X51.2500 Y15.9720
G01 X51.2502 Y48.0344
G01 X51.2515 Y48.0615
G01 X51.2556 Y48.0715
G01 X51.2783 Y48.0963
G01 X53.9653 Y50.7833
G02 X54.0347 I0.0347 J-0.0190
G01 X56.7261 Y48.0917
G01 X56.7444 Y48.0715
G01 X56.7485 Y48.0615
G01 X56.7500 Y48.0280
G01 X56.7498 Y15.9656
G01 X56.7485 Y15.9385
G01 X56.7444 Y15.9285
G01 X56.7217 Y15.9037
G01 X54.0347 Y13.2167
G02 X53.9653 I-0.0347 J0.0190
G01 X51.2739 Y15.9083
G01 X51.2556 Y15.9285
G01 Z-10.0000
G01 X51.2515 Y15.9385
G01 X51.2500 Y15.9720
G01 X51.2502 Y48.0344
G01 X51.2515 Y48.0615
G01 X51.2556 Y48.0715
G01 X51.2783 Y48.0963
G01 X53.9653 Y50.7833
G02 X54.0347 I0.0347 J-0.0190
G01 X56.7261 Y48.0917
G01 X56.7444 Y48.0715
G01 X56.7485 Y48.0615
G01 X56.7500 Y48.0280
G01 X56.7498 Y15.9656
G01 X56.7485 Y15.9385
G01 X56.7444 Y15.9285
G01 X56.7217 Y15.9037
G01 X54.0347 Y13.2167
G02 X53.9653 I-0.0347 J0.0190
G01 X51.2739 Y15.9083
G01 X51.2556 Y15.9285
G01 Z-11.0000
G01 X51.2515 Y15.9385
G01 X51.2500 Y15.9720
G01 X51.2502 Y48.0344
G01 X51.2515 Y48.0615
G01 X51.2556 Y48.0715
G01 X51.2783 Y48.0963
G01 X53.9653 Y50.7833
G02 X54.0347 I0.0347 J-0.0190
G01 X56.7261 Y48.0917
G01 X56.7444 Y48.0715
G01 X56.7485 Y48.0615
G01 X56.7500 Y48.0280
G01 X56.7498 Y15.9656
G01 X56.7485 Y15.9385
G01 X56.7444 Y15.9285
G01 X56.7217 Y15.9037
G01 X54.0347 Y13.2167
G02 X53.9653 I-0.0347 J0.0190
G01 X51.2739 Y15.9083
G01 X51.2556 Y15.9285
G01 Z-12.0000
G01 X51.2515 Y15.9385
G01 X51.2500 Y15.9720
G01 X51.2502 Y48.0344
G01 X51.2515 Y48.0615
G01 X51.2556 Y48.0715
G01 X51.2783 Y48.0963
G01 X53.9653 Y50.7833
G02 X54.0347 I0.0347 J-0.0190
G01 X56.7261 Y48.0917
G01 X56.7444 Y48.0715
G01 X56.7485 Y48.0615
G01 X56.7500 Y48.0280
G01 X56.7498 Y15.9656
G01 X56.7485 Y15.9385
G01 X56.7444 Y15.9285
G01 X56.7217 Y15.9037
G01 X54.0347 Y13.2167
G02 X53.9653 I-0.0347 J0.0190
G01 X51.2739 Y15.9083
G01 X51.2556 Y15.9285
G00 Z5.0000


(No. 4 Hole: Hole 5)
G00 X53.9653 Y57.2167 Z5.0000
G00 Z0.5000
G01 Z-1.0000 F400
G01 X51.2739 Y59.9083
G01 X51.2556 Y59.9285
G01 X51.2515 Y59.9385
G01 X51.2500 Y59.9720
G01 X51.2502 Y92.0344
G01 X51.2515 Y92.0615
G01 X51.2556 Y92.0715
G01 X51.2783 Y92.0963
G01 X53.9653 Y94.7833
G02 X54.0347 I0.0347 J-0.0190
G01 X56.7261 Y92.0917
G01 X56.7444 Y92.0715
G01 X56.7485 Y92.0615
G01 X56.7500 Y92.0280
G01 X56.7498 Y59.9656
G01 X56.7485 Y59.9385
G01 X56.7444 Y59.9285
G01 X56.7217 Y59.9037
G01 X54.0347 Y57.2167
G01 X54.0143 Y57.1988
G01 X53.9857
G01 X53.9653 Y57.2167
G01 Z-2.0000
G01 X51.2739 Y59.9083
G01 X51.2556 Y59.9285
G01 X51.2515 Y59.9385
G01 X51.2500 Y59.9720
G01 X51.2502 Y92.0344
G01 X51.2515 Y92.0615
G01 X51.2556 Y92.0715
G01 X51.2783 Y92.0963
G01 X53.9653 Y94.7833
G02 X54.0347 I0.0347 J-0.0190
G01 X56.7261 Y92.0917
G01 X56.7444 Y92.0715
G01 X56.7485 Y92.0615
G01 X56.7500 Y92.0280
G01 X56.7498 Y59.9656
G01 X56.7485 Y59.9385
G01 X56.7444 Y59.9285
G01 X56.7217 Y59.9037
G01 X54.0347 Y57.2167
G01 X54.0143 Y57.1988
G01 X53.9857
G01 X53.9653 Y57.2167
G01 Z-3.0000
G01 X51.2739 Y59.9083
G01 X51.2556 Y59.9285
G01 X51.2515 Y59.9385
G01 X51.2500 Y59.9720
G01 X51.2502 Y92.0344
G01 X51.2515 Y92.0615
G01 X51.2556 Y92.0715
G01 X51.2783 Y92.0963
G01 X53.9653 Y94.7833
G02 X54.0347 I0.0347 J-0.0190
G01 X56.7261 Y92.0917
G01 X56.7444 Y92.0715
G01 X56.7485 Y92.0615
G01 X56.7500 Y92.0280
G01 X56.7498 Y59.9656
G01 X56.7485 Y59.9385
G01 X56.7444 Y59.9285
G01 X56.7217 Y59.9037
G01 X54.0347 Y57.2167
G01 X54.0143 Y57.1988
G01 X53.9857
G01 X53.9653 Y57.2167
G01 Z-4.0000
G01 X51.2739 Y59.9083
G01 X51.2556 Y59.9285
G01 X51.2515 Y59.9385
G01 X51.2500 Y59.9720
G01 X51.2502 Y92.0344
G01 X51.2515 Y92.0615
G01 X51.2556 Y92.0715
G01 X51.2783 Y92.0963
G01 X53.9653 Y94.7833
G02 X54.0347 I0.0347 J-0.0190
G01 X56.7261 Y92.0917
G01 X56.7444 Y92.0715
G01 X56.7485 Y92.0615
G01 X56.7500 Y92.0280
G01 X56.7498 Y59.9656
G01 X56.7485 Y59.9385
G01 X56.7444 Y59.9285
G01 X56.7217 Y59.9037
G01 X54.0347 Y57.2167
G01 X54.0143 Y57.1988
G01 X53.9857
G01 X53.9653 Y57.2167
G01 Z-5.0000
G01 X51.2739 Y59.9083
G01 X51.2556 Y59.9285
G01 X51.2515 Y59.9385
G01 X51.2500 Y59.9720
G01 X51.2502 Y92.0344
G01 X51.2515 Y92.0615
G01 X51.2556 Y92.0715
G01 X51.2783 Y92.0963
G01 X53.9653 Y94.7833
G02 X54.0347 I0.0347 J-0.0190
G01 X56.7261 Y92.0917
G01 X56.7444 Y92.0715
G01 X56.7485 Y92.0615
G01 X56.7500 Y92.0280
G01 X56.7498 Y59.9656
G01 X56.7485 Y59.9385
G01 X56.7444 Y59.9285
G01 X56.7217 Y59.9037
G01 X54.0347 Y57.2167
G01 X54.0143 Y57.1988
G01 X53.9857
G01 X53.9653 Y57.2167
G01 Z-6.0000
G01 X51.2739 Y59.9083
G01 X51.2556 Y59.9285
G01 X51.2515 Y59.9385
G01 X51.2500 Y59.9720
G01 X51.2502 Y92.0344
G01 X51.2515 Y92.0615
G01 X51.2556 Y92.0715
G01 X51.2783 Y92.0963
G01 X53.9653 Y94.7833
G02 X54.0347 I0.0347 J-0.0190
G01 X56.7261 Y92.0917
G01 X56.7444 Y92.0715
G01 X56.7485 Y92.0615
G01 X56.7500 Y92.0280
G01 X56.7498 Y59.9656
G01 X56.7485 Y59.9385
G01 X56.7444 Y59.9285
G01 X56.7217 Y59.9037
G01 X54.0347 Y57.2167
G01 X54.0143 Y57.1988
G01 X53.9857
G01 X53.9653 Y57.2167
G01 Z-7.0000
G01 X51.2739 Y59.9083
G01 X51.2556 Y59.9285
G01 X51.2515 Y59.9385
G01 X51.2500 Y59.9720
G01 X51.2502 Y92.0344
G01 X51.2515 Y92.0615
G01 X51.2556 Y92.0715
G01 X51.2783 Y92.0963
G01 X53.9653 Y94.7833
G02 X54.0347 I0.0347 J-0.0190
G01 X56.7261 Y92.0917
G01 X56.7444 Y92.0715
G01 X56.7485 Y92.0615
G01 X56.7500 Y92.0280
G01 X56.7498 Y59.9656
G01 X56.7485 Y59.9385
G01 X56.7444 Y59.9285
G01 X56.7217 Y59.9037
G01 X54.0347 Y57.2167
G01 X54.0143 Y57.1988
G01 X53.9857
G01 X53.9653 Y57.2167
G01 Z-8.0000
G01 X51.2739 Y59.9083
G01 X51.2556 Y59.9285
G01 X51.2515 Y59.9385
G01 X51.2500 Y59.9720
G01 X51.2502 Y92.0344
G01 X51.2515 Y92.0615
G01 X51.2556 Y92.0715
G01 X51.2783 Y92.0963
G01 X53.9653 Y94.7833
G02 X54.0347 I0.0347 J-0.0190
G01 X56.7261 Y92.0917
G01 X56.7444 Y92.0715
G01 X56.7485 Y92.0615
G01 X56.7500 Y92.0280
G01 X56.7498 Y59.9656
G01 X56.7485 Y59.9385
G01 X56.7444 Y59.9285
G01 X56.7217 Y59.9037
G01 X54.0347 Y57.2167
G01 X54.0143 Y57.1988
G01 X53.9857
G01 X53.9653 Y57.2167
G01 Z-9.0000
G01 X51.2739 Y59.9083
G01 X51.2556 Y59.9285
G01 X51.2515 Y59.9385
G01 X51.2500 Y59.9720
G01 X51.2502 Y92.0344
G01 X51.2515 Y92.0615
G01 X51.2556 Y92.0715
G01 X51.2783 Y92.0963
G01 X53.9653 Y94.7833
G02 X54.0347 I0.0347 J-0.0190
G01 X56.7261 Y92.0917
G01 X56.7444 Y92.0715
G01 X56.7485 Y92.0615
G01 X56.7500 Y92.0280
G01 X56.7498 Y59.9656
G01 X56.7485 Y59.9385
G01 X56.7444 Y59.9285
G01 X56.7217 Y59.9037
G01 X54.0347 Y57.2167
G01 X54.0143 Y57.1988
G01 X53.9857
G01 X53.9653 Y57.2167
G01 Z-10.0000
G01 X51.2739 Y59.9083
G01 X51.2556 Y59.9285
G01 X51.2515 Y59.9385
G01 X51.2500 Y59.9720
G01 X51.2502 Y92.0344
G01 X51.2515 Y92.0615
G01 X51.2556 Y92.0715
G01 X51.2783 Y92.0963
G01 X53.9653 Y94.7833
G02 X54.0347 I0.0347 J-0.0190
G01 X56.7261 Y92.0917
G01 X56.7444 Y92.0715
G01 X56.7485 Y92.0615
G01 X56.7500 Y92.0280
G01 X56.7498 Y59.9656
G01 X56.7485 Y59.9385
G01 X56.7444 Y59.9285
G01 X56.7217 Y59.9037
G01 X54.0347 Y57.2167
G01 X54.0143 Y57.1988
G01 X53.9857
G01 X53.9653 Y57.2167
G01 Z-11.0000
G01 X51.2739 Y59.9083
G01 X51.2556 Y59.9285
G01 X51.2515 Y59.9385
G01 X51.2500 Y59.9720
G01 X51.2502 Y92.0344
G01 X51.2515 Y92.0615
G01 X51.2556 Y92.0715
G01 X51.2783 Y92.0963
G01 X53.9653 Y94.7833
G02 X54.0347 I0.0347 J-0.0190
G01 X56.7261 Y92.0917
G01 X56.7444 Y92.0715
G01 X56.7485 Y92.0615
G01 X56.7500 Y92.0280
G01 X56.7498 Y59.9656
G01 X56.7485 Y59.9385
G01 X56.7444 Y59.9285
G01 X56.7217 Y59.9037
G01 X54.0347 Y57.2167
G01 X54.0143 Y57.1988
G01 X53.9857
G01 X53.9653 Y57.2167
G01 Z-12.0000
G01 X51.2739 Y59.9083
G01 X51.2556 Y59.9285
G01 X51.2515 Y59.9385
G01 X51.2500 Y59.9720
G01 X51.2502 Y92.0344
G01 X51.2515 Y92.0615
G01 X51.2556 Y92.0715
G01 X51.2783 Y92.0963
G01 X53.9653 Y94.7833
G02 X54.0347 I0.0347 J-0.0190
G01 X56.7261 Y92.0917
G01 X56.7444 Y92.0715
G01 X56.7485 Y92.0615
G01 X56.7500 Y92.0280
G01 X56.7498 Y59.9656
G01 X56.7485 Y59.9385
G01 X56.7444 Y59.9285
G01 X56.7217 Y59.9037
G01 X54.0347 Y57.2167
G01 X54.0143 Y57.1988
G01 X53.9857
G01 X53.9653 Y57.2167
G00 Z5.0000


(No. 5 Hole: Hole 4)
G00 X15.9385 Y51.2515 Z5.0000
G00 Z0.5000
G01 Z-1.0000 F400
G01 X15.9285 Y51.2556
G01 X15.9037 Y51.2783
G01 X13.2167 Y53.9653
G01 X13.1988 Y53.9857
G01 Y54.0143
G01 X13.2167 Y54.0347
G01 X15.9083 Y56.7261
G01 X15.9285 Y56.7444
G01 X15.9385 Y56.7485
G01 X15.9720 Y56.7500
G01 X48.0344 Y56.7498
G01 X48.0615 Y56.7485
G01 X48.0715 Y56.7444
G01 X48.0963 Y56.7217
G01 X50.7833 Y54.0347
G02 Y53.9653 I-0.0190 J-0.0347
G01 X48.0917 Y51.2739
G01 X48.0715 Y51.2556
G01 X48.0615 Y51.2515
G01 X48.0280 Y51.2500
G01 X15.9656 Y51.2502
G01 X15.9385 Y51.2515
G01 Z-2.0000
G01 X15.9285 Y51.2556
G01 X15.9037 Y51.2783
G01 X13.2167 Y53.9653
G01 X13.1988 Y53.9857
G01 Y54.0143
G01 X13.2167 Y54.0347
G01 X15.9083 Y56.7261
G01 X15.9285 Y56.7444
G01 X15.9385 Y56.7485
G01 X15.9720 Y56.7500
G01 X48.0344 Y56.7498
G01 X48.0615 Y56.7485
G01 X48.0715 Y56.7444
G01 X48.0963 Y56.7217
G01 X50.7833 Y54.0347
G02 Y53.9653 I-0.0190 J-0.0347
G01 X48.0917 Y51.2739
G01 X48.0715 Y51.2556
G01 X48.0615 Y51.2515
G01 X48.0280 Y51.2500
G01 X15.9656 Y51.2502
G01 X15.9385 Y51.2515
G01 Z-3.0000
G01 X15.9285 Y51.2556
G01 X15.9037 Y51.2783
G01 X13.2167 Y53.9653
G01 X13.1988 Y53.9857
G01 Y54.0143
G01 X13.2167 Y54.0347
G01 X15.9083 Y56.7261
G01 X15.9285 Y56.7444
G01 X15.9385 Y56.7485
G01 X15.9720 Y56.7500
G01 X48.0344 Y56.7498
G01 X48.0615 Y56.7485
G01 X48.0715 Y56.7444
G01 X48.0963 Y56.7217
G01 X50.7833 Y54.0347
G02 Y53.9653 I-0.0190 J-0.0347
G01 X48.0917 Y51.2739
G01 X48.0715 Y51.2556
G01 X48.0615 Y51.2515
G01 X48.0280 Y51.2500
G01 X15.9656 Y51.2502
G01 X15.9385 Y51.2515
G01 Z-4.0000
G01 X15.9285 Y51.2556
G01 X15.9037 Y51.2783
G01 X13.2167 Y53.9653
G01 X13.1988 Y53.9857
G01 Y54.0143
G01 X13.2167 Y54.0347
G01 X15.9083 Y56.7261
G01 X15.9285 Y56.7444
G01 X15.9385 Y56.7485
G01 X15.9720 Y56.7500
G01 X48.0344 Y56.7498
G01 X48.0615 Y56.7485
G01 X48.0715 Y56.7444
G01 X48.0963 Y56.7217
G01 X50.7833 Y54.0347
G02 Y53.9653 I-0.0190 J-0.0347
G01 X48.0917 Y51.2739
G01 X48.0715 Y51.2556
G01 X48.0615 Y51.2515
G01 X48.0280 Y51.2500
G01 X15.9656 Y51.2502
G01 X15.9385 Y51.2515
G01 Z-5.0000
G01 X15.9285 Y51.2556
G01 X15.9037 Y51.2783
G01 X13.2167 Y53.9653
G01 X13.1988 Y53.9857
G01 Y54.0143
G01 X13.2167 Y54.0347
G01 X15.9083 Y56.7261
G01 X15.9285 Y56.7444
G01 X15.9385 Y56.7485
G01 X15.9720 Y56.7500
G01 X48.0344 Y56.7498
G01 X48.0615 Y56.7485
G01 X48.0715 Y56.7444
G01 X48.0963 Y56.7217
G01 X50.7833 Y54.0347
G02 Y53.9653 I-0.0190 J-0.0347
G01 X48.0917 Y51.2739
G01 X48.0715 Y51.2556
G01 X48.0615 Y51.2515
G01 X48.0280 Y51.2500
G01 X15.9656 Y51.2502
G01 X15.9385 Y51.2515
G01 Z-6.0000
G01 X15.9285 Y51.2556
G01 X15.9037 Y51.2783
G01 X13.2167 Y53.9653
G01 X13.1988 Y53.9857
G01 Y54.0143
G01 X13.2167 Y54.0347
G01 X15.9083 Y56.7261
G01 X15.9285 Y56.7444
G01 X15.9385 Y56.7485
G01 X15.9720 Y56.7500
G01 X48.0344 Y56.7498
G01 X48.0615 Y56.7485
G01 X48.0715 Y56.7444
G01 X48.0963 Y56.7217
G01 X50.7833 Y54.0347
G02 Y53.9653 I-0.0190 J-0.0347
G01 X48.0917 Y51.2739
G01 X48.0715 Y51.2556
G01 X48.0615 Y51.2515
G01 X48.0280 Y51.2500
G01 X15.9656 Y51.2502
G01 X15.9385 Y51.2515
G01 Z-7.0000
G01 X15.9285 Y51.2556
G01 X15.9037 Y51.2783
G01 X13.2167 Y53.9653
G01 X13.1988 Y53.9857
G01 Y54.0143
G01 X13.2167 Y54.0347
G01 X15.9083 Y56.7261
G01 X15.9285 Y56.7444
G01 X15.9385 Y56.7485
G01 X15.9720 Y56.7500
G01 X48.0344 Y56.7498
G01 X48.0615 Y56.7485
G01 X48.0715 Y56.7444
G01 X48.0963 Y56.7217
G01 X50.7833 Y54.0347
G02 Y53.9653 I-0.0190 J-0.0347
G01 X48.0917 Y51.2739
G01 X48.0715 Y51.2556
G01 X48.0615 Y51.2515
G01 X48.0280 Y51.2500
G01 X15.9656 Y51.2502
G01 X15.9385 Y51.2515
G01 Z-8.0000
G01 X15.9285 Y51.2556
G01 X15.9037 Y51.2783
G01 X13.2167 Y53.9653
G01 X13.1988 Y53.9857
G01 Y54.0143
G01 X13.2167 Y54.0347
G01 X15.9083 Y56.7261
G01 X15.9285 Y56.7444
G01 X15.9385 Y56.7485
G01 X15.9720 Y56.7500
G01 X48.0344 Y56.7498
G01 X48.0615 Y56.7485
G01 X48.0715 Y56.7444
G01 X48.0963 Y56.7217
G01 X50.7833 Y54.0347
G02 Y53.9653 I-0.0190 J-0.0347
G01 X48.0917 Y51.2739
G01 X48.0715 Y51.2556
G01 X48.0615 Y51.2515
G01 X48.0280 Y51.2500
G01 X15.9656 Y51.2502
G01 X15.9385 Y51.2515
G01 Z-9.0000
G01 X15.9285 Y51.2556
G01 X15.9037 Y51.2783
G01 X13.2167 Y53.9653
G01 X13.1988 Y53.9857
G01 Y54.0143
G01 X13.2167 Y54.0347
G01 X15.9083 Y56.7261
G01 X15.9285 Y56.7444
G01 X15.9385 Y56.7485
G01 X15.9720 Y56.7500
G01 X48.0344 Y56.7498
G01 X48.0615 Y56.7485
G01 X48.0715 Y56.7444
G01 X48.0963 Y56.7217
G01 X50.7833 Y54.0347
G02 Y53.9653 I-0.0190 J-0.0347
G01 X48.0917 Y51.2739
G01 X48.0715 Y51.2556
G01 X48.0615 Y51.2515
G01 X48.0280 Y51.2500
G01 X15.9656 Y51.2502
G01 X15.9385 Y51.2515
G01 Z-10.0000
G01 X15.9285 Y51.2556
G01 X15.9037 Y51.2783
G01 X13.2167 Y53.9653
G01 X13.1988 Y53.9857
G01 Y54.0143
G01 X13.2167 Y54.0347
G01 X15.9083 Y56.7261
G01 X15.9285 Y56.7444
G01 X15.9385 Y56.7485
G01 X15.9720 Y56.7500
G01 X48.0344 Y56.7498
G01 X48.0615 Y56.7485
G01 X48.0715 Y56.7444
G01 X48.0963 Y56.7217
G01 X50.7833 Y54.0347
G02 Y53.9653 I-0.0190 J-0.0347
G01 X48.0917 Y51.2739
G01 X48.0715 Y51.2556
G01 X48.0615 Y51.2515
G01 X48.0280 Y51.2500
G01 X15.9656 Y51.2502
G01 X15.9385 Y51.2515
G01 Z-11.0000
G01 X15.9285 Y51.2556
G01 X15.9037 Y51.2783
G01 X13.2167 Y53.9653
G01 X13.1988 Y53.9857
G01 Y54.0143
G01 X13.2167 Y54.0347
G01 X15.9083 Y56.7261
G01 X15.9285 Y56.7444
G01 X15.9385 Y56.7485
G01 X15.9720 Y56.7500
G01 X48.0344 Y56.7498
G01 X48.0615 Y56.7485
G01 X48.0715 Y56.7444
G01 X48.0963 Y56.7217
G01 X50.7833 Y54.0347
G02 Y53.9653 I-0.0190 J-0.0347
G01 X48.0917 Y51.2739
G01 X48.0715 Y51.2556
G01 X48.0615 Y51.2515
G01 X48.0280 Y51.2500
G01 X15.9656 Y51.2502
G01 X15.9385 Y51.2515
G01 Z-12.0000
G01 X15.9285 Y51.2556
G01 X15.9037 Y51.2783
G01 X13.2167 Y53.9653
G01 X13.1988 Y53.9857
G01 Y54.0143
G01 X13.2167 Y54.0347
G01 X15.9083 Y56.7261
G01 X15.9285 Y56.7444
G01 X15.9385 Y56.7485
G01 X15.9720 Y56.7500
G01 X48.0344 Y56.7498
G01 X48.0615 Y56.7485
G01 X48.0715 Y56.7444
G01 X48.0963 Y56.7217
G01 X50.7833 Y54.0347
G02 Y53.9653 I-0.0190 J-0.0347
G01 X48.0917 Y51.2739
G01 X48.0715 Y51.2556
G01 X48.0615 Y51.2515
G01 X48.0280 Y51.2500
G01 X15.9656 Y51.2502
G01 X15.9385 Y51.2515
G00 Z5.0000


(No. 6 Hole: Hole 7)
G00 X10.0143 Y57.1988 Z5.0000
G00 Z0.5000
G01 Z-1.0000 F400
G01 X9.9857
G01 X9.9653 Y57.2167
G01 X7.2739 Y59.9083
G01 X7.2556 Y59.9285
G01 X7.2515 Y59.9385
G01 X7.2500 Y59.9720
G01 X7.2502 Y92.0344
G01 X7.2515 Y92.0615
G01 X7.2556 Y92.0715
G01 X7.2783 Y92.0963
G01 X9.9653 Y94.7833
G02 X10.0347 I0.0347 J-0.0190
G01 X12.7261 Y92.0917
G01 X12.7444 Y92.0715
G01 X12.7485 Y92.0615
G01 X12.7500 Y92.0280
G01 X12.7498 Y59.9656
G01 X12.7485 Y59.9385
G01 X12.7444 Y59.9285
G01 X12.7217 Y59.9037
G01 X10.0347 Y57.2167
G01 X10.0143 Y57.1988
G01 Z-2.0000
G01 X9.9857
G01 X9.9653 Y57.2167
G01 X7.2739 Y59.9083
G01 X7.2556 Y59.9285
G01 X7.2515 Y59.9385
G01 X7.2500 Y59.9720
G01 X7.2502 Y92.0344
G01 X7.2515 Y92.0615
G01 X7.2556 Y92.0715
G01 X7.2783 Y92.0963
G01 X9.9653 Y94.7833
G02 X10.0347 I0.0347 J-0.0190
G01 X12.7261 Y92.0917
G01 X12.7444 Y92.0715
G01 X12.7485 Y92.0615
G01 X12.7500 Y92.0280
G01 X12.7498 Y59.9656
G01 X12.7485 Y59.9385
G01 X12.7444 Y59.9285
G01 X12.7217 Y59.9037
G01 X10.0347 Y57.2167
G01 X10.0143 Y57.1988
G01 Z-3.0000
G01 X9.9857
G01 X9.9653 Y57.2167
G01 X7.2739 Y59.9083
G01 X7.2556 Y59.9285
G01 X7.2515 Y59.9385
G01 X7.2500 Y59.9720
G01 X7.2502 Y92.0344
G01 X7.2515 Y92.0615
G01 X7.2556 Y92.0715
G01 X7.2783 Y92.0963
G01 X9.9653 Y94.7833
G02 X10.0347 I0.0347 J-0.0190
G01 X12.7261 Y92.0917
G01 X12.7444 Y92.0715
G01 X12.7485 Y92.0615
G01 X12.7500 Y92.0280
G01 X12.7498 Y59.9656
G01 X12.7485 Y59.9385
G01 X12.7444 Y59.9285
G01 X12.7217 Y59.9037
G01 X10.0347 Y57.2167
G01 X10.0143 Y57.1988
G01 Z-4.0000
G01 X9.9857
G01 X9.9653 Y57.2167
G01 X7.2739 Y59.9083
G01 X7.2556 Y59.9285
G01 X7.2515 Y59.9385
G01 X7.2500 Y59.9720
G01 X7.2502 Y92.0344
G01 X7.2515 Y92.0615
G01 X7.2556 Y92.0715
G01 X7.2783 Y92.0963
G01 X9.9653 Y94.7833
G02 X10.0347 I0.0347 J-0.0190
G01 X12.7261 Y92.0917
G01 X12.7444 Y92.0715
G01 X12.7485 Y92.0615
G01 X12.7500 Y92.0280
G01 X12.7498 Y59.9656
G01 X12.7485 Y59.9385
G01 X12.7444 Y59.9285
G01 X12.7217 Y59.9037
G01 X10.0347 Y57.2167
G01 X10.0143 Y57.1988
G01 Z-5.0000
G01 X9.9857
G01 X9.9653 Y57.2167
G01 X7.2739 Y59.9083
G01 X7.2556 Y59.9285
G01 X7.2515 Y59.9385
G01 X7.2500 Y59.9720
G01 X7.2502 Y92.0344
G01 X7.2515 Y92.0615
G01 X7.2556 Y92.0715
G01 X7.2783 Y92.0963
G01 X9.9653 Y94.7833
G02 X10.0347 I0.0347 J-0.0190
G01 X12.7261 Y92.0917
G01 X12.7444 Y92.0715
G01 X12.7485 Y92.0615
G01 X12.7500 Y92.0280
G01 X12.7498 Y59.9656
G01 X12.7485 Y59.9385
G01 X12.7444 Y59.9285
G01 X12.7217 Y59.9037
G01 X10.0347 Y57.2167
G01 X10.0143 Y57.1988
G01 Z-6.0000
G01 X9.9857
G01 X9.9653 Y57.2167
G01 X7.2739 Y59.9083
G01 X7.2556 Y59.9285
G01 X7.2515 Y59.9385
G01 X7.2500 Y59.9720
G01 X7.2502 Y92.0344
G01 X7.2515 Y92.0615
G01 X7.2556 Y92.0715
G01 X7.2783 Y92.0963
G01 X9.9653 Y94.7833
G02 X10.0347 I0.0347 J-0.0190
G01 X12.7261 Y92.0917
G01 X12.7444 Y92.0715
G01 X12.7485 Y92.0615
G01 X12.7500 Y92.0280
G01 X12.7498 Y59.9656
G01 X12.7485 Y59.9385
G01 X12.7444 Y59.9285
G01 X12.7217 Y59.9037
G01 X10.0347 Y57.2167
G01 X10.0143 Y57.1988
G01 Z-7.0000
G01 X9.9857
G01 X9.9653 Y57.2167
G01 X7.2739 Y59.9083
G01 X7.2556 Y59.9285
G01 X7.2515 Y59.9385
G01 X7.2500 Y59.9720
G01 X7.2502 Y92.0344
G01 X7.2515 Y92.0615
G01 X7.2556 Y92.0715
G01 X7.2783 Y92.0963
G01 X9.9653 Y94.7833
G02 X10.0347 I0.0347 J-0.0190
G01 X12.7261 Y92.0917
G01 X12.7444 Y92.0715
G01 X12.7485 Y92.0615
G01 X12.7500 Y92.0280
G01 X12.7498 Y59.9656
G01 X12.7485 Y59.9385
G01 X12.7444 Y59.9285
G01 X12.7217 Y59.9037
G01 X10.0347 Y57.2167
G01 X10.0143 Y57.1988
G01 Z-8.0000
G01 X9.9857
G01 X9.9653 Y57.2167
G01 X7.2739 Y59.9083
G01 X7.2556 Y59.9285
G01 X7.2515 Y59.9385
G01 X7.2500 Y59.9720
G01 X7.2502 Y92.0344
G01 X7.2515 Y92.0615
G01 X7.2556 Y92.0715
G01 X7.2783 Y92.0963
G01 X9.9653 Y94.7833
G02 X10.0347 I0.0347 J-0.0190
G01 X12.7261 Y92.0917
G01 X12.7444 Y92.0715
G01 X12.7485 Y92.0615
G01 X12.7500 Y92.0280
G01 X12.7498 Y59.9656
G01 X12.7485 Y59.9385
G01 X12.7444 Y59.9285
G01 X12.7217 Y59.9037
G01 X10.0347 Y57.2167
G01 X10.0143 Y57.1988
G01 Z-9.0000
G01 X9.9857
G01 X9.9653 Y57.2167
G01 X7.2739 Y59.9083
G01 X7.2556 Y59.9285
G01 X7.2515 Y59.9385
G01 X7.2500 Y59.9720
G01 X7.2502 Y92.0344
G01 X7.2515 Y92.0615
G01 X7.2556 Y92.0715
G01 X7.2783 Y92.0963
G01 X9.9653 Y94.7833
G02 X10.0347 I0.0347 J-0.0190
G01 X12.7261 Y92.0917
G01 X12.7444 Y92.0715
G01 X12.7485 Y92.0615
G01 X12.7500 Y92.0280
G01 X12.7498 Y59.9656
G01 X12.7485 Y59.9385
G01 X12.7444 Y59.9285
G01 X12.7217 Y59.9037
G01 X10.0347 Y57.2167
G01 X10.0143 Y57.1988
G01 Z-10.0000
G01 X9.9857
G01 X9.9653 Y57.2167
G01 X7.2739 Y59.9083
G01 X7.2556 Y59.9285
G01 X7.2515 Y59.9385
G01 X7.2500 Y59.9720
G01 X7.2502 Y92.0344
G01 X7.2515 Y92.0615
G01 X7.2556 Y92.0715
G01 X7.2783 Y92.0963
G01 X9.9653 Y94.7833
G02 X10.0347 I0.0347 J-0.0190
G01 X12.7261 Y92.0917
G01 X12.7444 Y92.0715
G01 X12.7485 Y92.0615
G01 X12.7500 Y92.0280
G01 X12.7498 Y59.9656
G01 X12.7485 Y59.9385
G01 X12.7444 Y59.9285
G01 X12.7217 Y59.9037
G01 X10.0347 Y57.2167
G01 X10.0143 Y57.1988
G01 Z-11.0000
G01 X9.9857
G01 X9.9653 Y57.2167
G01 X7.2739 Y59.9083
G01 X7.2556 Y59.9285
G01 X7.2515 Y59.9385
G01 X7.2500 Y59.9720
G01 X7.2502 Y92.0344
G01 X7.2515 Y92.0615
G01 X7.2556 Y92.0715
G01 X7.2783 Y92.0963
G01 X9.9653 Y94.7833
G02 X10.0347 I0.0347 J-0.0190
G01 X12.7261 Y92.0917
G01 X12.7444 Y92.0715
G01 X12.7485 Y92.0615
G01 X12.7500 Y92.0280
G01 X12.7498 Y59.9656
G01 X12.7485 Y59.9385
G01 X12.7444 Y59.9285
G01 X12.7217 Y59.9037
G01 X10.0347 Y57.2167
G01 X10.0143 Y57.1988
G01 Z-12.0000
G01 X9.9857
G01 X9.9653 Y57.2167
G01 X7.2739 Y59.9083
G01 X7.2556 Y59.9285
G01 X7.2515 Y59.9385
G01 X7.2500 Y59.9720
G01 X7.2502 Y92.0344
G01 X7.2515 Y92.0615
G01 X7.2556 Y92.0715
G01 X7.2783 Y92.0963
G01 X9.9653 Y94.7833
G02 X10.0347 I0.0347 J-0.0190
G01 X12.7261 Y92.0917
G01 X12.7444 Y92.0715
G01 X12.7485 Y92.0615
G01 X12.7500 Y92.0280
G01 X12.7498 Y59.9656
G01 X12.7485 Y59.9385
G01 X12.7444 Y59.9285
G01 X12.7217 Y59.9037
G01 X10.0347 Y57.2167
G01 X10.0143 Y57.1988
G00 Z5.0000


(No. 7 Hole: Hole 6)
G00 X15.9385 Y95.2515 Z5.0000
G00 Z0.5000
G01 Z-1.0000 F400
G01 X15.9285 Y95.2556
G01 X15.9037 Y95.2783
G01 X13.2167 Y97.9653
G01 X13.1988 Y97.9857
G01 Y98.0143
G01 X13.2167 Y98.0347
G01 X15.9083 Y100.7261
G01 X15.9285 Y100.7444
G01 X15.9385 Y100.7485
G01 X15.9720 Y100.7500
G01 X48.0344 Y100.7498
G01 X48.0615 Y100.7485
G01 X48.0715 Y100.7444
G01 X48.0963 Y100.7217
G01 X50.7833 Y98.0347
G02 Y97.9653 I-0.0190 J-0.0347
G01 X48.0917 Y95.2739
G01 X48.0715 Y95.2556
G01 X48.0615 Y95.2515
G01 X48.0280 Y95.2500
G01 X15.9656 Y95.2502
G01 X15.9385 Y95.2515
G01 Z-2.0000
G01 X15.9285 Y95.2556
G01 X15.9037 Y95.2783
G01 X13.2167 Y97.9653
G01 X13.1988 Y97.9857
G01 Y98.0143
G01 X13.2167 Y98.0347
G01 X15.9083 Y100.7261
G01 X15.9285 Y100.7444
G01 X15.9385 Y100.7485
G01 X15.9720 Y100.7500
G01 X48.0344 Y100.7498
G01 X48.0615 Y100.7485
G01 X48.0715 Y100.7444
G01 X48.0963 Y100.7217
G01 X50.7833 Y98.0347
G02 Y97.9653 I-0.0190 J-0.0347
G01 X48.0917 Y95.2739
G01 X48.0715 Y95.2556
G01 X48.0615 Y95.2515
G01 X48.0280 Y95.2500
G01 X15.9656 Y95.2502
G01 X15.9385 Y95.2515
G01 Z-3.0000
G01 X15.9285 Y95.2556
G01 X15.9037 Y95.2783
G01 X13.2167 Y97.9653
G01 X13.1988 Y97.9857
G01 Y98.0143
G01 X13.2167 Y98.0347
G01 X15.9083 Y100.7261
G01 X15.9285 Y100.7444
G01 X15.9385 Y100.7485
G01 X15.9720 Y100.7500
G01 X48.0344 Y100.7498
G01 X48.0615 Y100.7485
G01 X48.0715 Y100.7444
G01 X48.0963 Y100.7217
G01 X50.7833 Y98.0347
G02 Y97.9653 I-0.0190 J-0.0347
G01 X48.0917 Y95.2739
G01 X48.0715 Y95.2556
G01 X48.0615 Y95.2515
G01 X48.0280 Y95.2500
G01 X15.9656 Y95.2502
G01 X15.9385 Y95.2515
G01 Z-4.0000
G01 X15.9285 Y95.2556
G01 X15.9037 Y95.2783
G01 X13.2167 Y97.9653
G01 X13.1988 Y97.9857
G01 Y98.0143
G01 X13.2167 Y98.0347
G01 X15.9083 Y100.7261
G01 X15.9285 Y100.7444
G01 X15.9385 Y100.7485
G01 X15.9720 Y100.7500
G01 X48.0344 Y100.7498
G01 X48.0615 Y100.7485
G01 X48.0715 Y100.7444
G01 X48.0963 Y100.7217
G01 X50.7833 Y98.0347
G02 Y97.9653 I-0.0190 J-0.0347
G01 X48.0917 Y95.2739
G01 X48.0715 Y95.2556
G01 X48.0615 Y95.2515
G01 X48.0280 Y95.2500
G01 X15.9656 Y95.2502
G01 X15.9385 Y95.2515
G01 Z-5.0000
G01 X15.9285 Y95.2556
G01 X15.9037 Y95.2783
G01 X13.2167 Y97.9653
G01 X13.1988 Y97.9857
G01 Y98.0143
G01 X13.2167 Y98.0347
G01 X15.9083 Y100.7261
G01 X15.9285 Y100.7444
G01 X15.9385 Y100.7485
G01 X15.9720 Y100.7500
G01 X48.0344 Y100.7498
G01 X48.0615 Y100.7485
G01 X48.0715 Y100.7444
G01 X48.0963 Y100.7217
G01 X50.7833 Y98.0347
G02 Y97.9653 I-0.0190 J-0.0347
G01 X48.0917 Y95.2739
G01 X48.0715 Y95.2556
G01 X48.0615 Y95.2515
G01 X48.0280 Y95.2500
G01 X15.9656 Y95.2502
G01 X15.9385 Y95.2515
G01 Z-6.0000
G01 X15.9285 Y95.2556
G01 X15.9037 Y95.2783
G01 X13.2167 Y97.9653
G01 X13.1988 Y97.9857
G01 Y98.0143
G01 X13.2167 Y98.0347
G01 X15.9083 Y100.7261
G01 X15.9285 Y100.7444
G01 X15.9385 Y100.7485
G01 X15.9720 Y100.7500
G01 X48.0344 Y100.7498
G01 X48.0615 Y100.7485
G01 X48.0715 Y100.7444
G01 X48.0963 Y100.7217
G01 X50.7833 Y98.0347
G02 Y97.9653 I-0.0190 J-0.0347
G01 X48.0917 Y95.2739
G01 X48.0715 Y95.2556
G01 X48.0615 Y95.2515
G01 X48.0280 Y95.2500
G01 X15.9656 Y95.2502
G01 X15.9385 Y95.2515
G01 Z-7.0000
G01 X15.9285 Y95.2556
G01 X15.9037 Y95.2783
G01 X13.2167 Y97.9653
G01 X13.1988 Y97.9857
G01 Y98.0143
G01 X13.2167 Y98.0347
G01 X15.9083 Y100.7261
G01 X15.9285 Y100.7444
G01 X15.9385 Y100.7485
G01 X15.9720 Y100.7500
G01 X48.0344 Y100.7498
G01 X48.0615 Y100.7485
G01 X48.0715 Y100.7444
G01 X48.0963 Y100.7217
G01 X50.7833 Y98.0347
G02 Y97.9653 I-0.0190 J-0.0347
G01 X48.0917 Y95.2739
G01 X48.0715 Y95.2556
G01 X48.0615 Y95.2515
G01 X48.0280 Y95.2500
G01 X15.9656 Y95.2502
G01 X15.9385 Y95.2515
G01 Z-8.0000
G01 X15.9285 Y95.2556
G01 X15.9037 Y95.2783
G01 X13.2167 Y97.9653
G01 X13.1988 Y97.9857
G01 Y98.0143
G01 X13.2167 Y98.0347
G01 X15.9083 Y100.7261
G01 X15.9285 Y100.7444
G01 X15.9385 Y100.7485
G01 X15.9720 Y100.7500
G01 X48.0344 Y100.7498
G01 X48.0615 Y100.7485
G01 X48.0715 Y100.7444
G01 X48.0963 Y100.7217
G01 X50.7833 Y98.0347
G02 Y97.9653 I-0.0190 J-0.0347
G01 X48.0917 Y95.2739
G01 X48.0715 Y95.2556
G01 X48.0615 Y95.2515
G01 X48.0280 Y95.2500
G01 X15.9656 Y95.2502
G01 X15.9385 Y95.2515
G01 Z-9.0000
G01 X15.9285 Y95.2556
G01 X15.9037 Y95.2783
G01 X13.2167 Y97.9653
G01 X13.1988 Y97.9857
G01 Y98.0143
G01 X13.2167 Y98.0347
G01 X15.9083 Y100.7261
G01 X15.9285 Y100.7444
G01 X15.9385 Y100.7485
G01 X15.9720 Y100.7500
G01 X48.0344 Y100.7498
G01 X48.0615 Y100.7485
G01 X48.0715 Y100.7444
G01 X48.0963 Y100.7217
G01 X50.7833 Y98.0347
G02 Y97.9653 I-0.0190 J-0.0347
G01 X48.0917 Y95.2739
G01 X48.0715 Y95.2556
G01 X48.0615 Y95.2515
G01 X48.0280 Y95.2500
G01 X15.9656 Y95.2502
G01 X15.9385 Y95.2515
G01 Z-10.0000
G01 X15.9285 Y95.2556
G01 X15.9037 Y95.2783
G01 X13.2167 Y97.9653
G01 X13.1988 Y97.9857
G01 Y98.0143
G01 X13.2167 Y98.0347
G01 X15.9083 Y100.7261
G01 X15.9285 Y100.7444
G01 X15.9385 Y100.7485
G01 X15.9720 Y100.7500
G01 X48.0344 Y100.7498
G01 X48.0615 Y100.7485
G01 X48.0715 Y100.7444
G01 X48.0963 Y100.7217
G01 X50.7833 Y98.0347
G02 Y97.9653 I-0.0190 J-0.0347
G01 X48.0917 Y95.2739
G01 X48.0715 Y95.2556
G01 X48.0615 Y95.2515
G01 X48.0280 Y95.2500
G01 X15.9656 Y95.2502
G01 X15.9385 Y95.2515
G01 Z-11.0000
G01 X15.9285 Y95.2556
G01 X15.9037 Y95.2783
G01 X13.2167 Y97.9653
G01 X13.1988 Y97.9857
G01 Y98.0143
G01 X13.2167 Y98.0347
G01 X15.9083 Y100.7261
G01 X15.9285 Y100.7444
G01 X15.9385 Y100.7485
G01 X15.9720 Y100.7500
G01 X48.0344 Y100.7498
G01 X48.0615 Y100.7485
G01 X48.0715 Y100.7444
G01 X48.0963 Y100.7217
G01 X50.7833 Y98.0347
G02 Y97.9653 I-0.0190 J-0.0347
G01 X48.0917 Y95.2739
G01 X48.0715 Y95.2556
G01 X48.0615 Y95.2515
G01 X48.0280 Y95.2500
G01 X15.9656 Y95.2502
G01 X15.9385 Y95.2515
G01 Z-12.0000
G01 X15.9285 Y95.2556
G01 X15.9037 Y95.2783
G01 X13.2167 Y97.9653
G01 X13.1988 Y97.9857
G01 Y98.0143
G01 X13.2167 Y98.0347
G01 X15.9083 Y100.7261
G01 X15.9285 Y100.7444
G01 X15.9385 Y100.7485
G01 X15.9720 Y100.7500
G01 X48.0344 Y100.7498
G01 X48.0615 Y100.7485
G01 X48.0715 Y100.7444
G01 X48.0963 Y100.7217
G01 X50.7833 Y98.0347
G02 Y97.9653 I-0.0190 J-0.0347
G01 X48.0917 Y95.2739
G01 X48.0715 Y95.2556
G01 X48.0615 Y95.2515
G01 X48.0280 Y95.2500
G01 X15.9656 Y95.2502
G01 X15.9385 Y95.2515
G00 Z5.0000


(No. 8 Part: Part 1)
G00 X-1.5000 Y0.0000 Z5.0000
G00 Z0.5000
G01 Z-1.0000 F400
G03 X-1.4330 Y-0.4433 I1.5000 J0.0000
G03 X0.0200 Y-1.5000 I1.4333 J0.4435
G01 X64.0000
G03 X65.5000 Y0.0200 I-0.0001 J1.5002
G01 Y108.0000
G03 X63.9800 Y109.5000 I-1.5002 J-0.0001
G01 X0.0000
G03 X-1.4962 Y108.1061 I0.0000 J-1.5000
G01 X-1.5000 Y107.9800
G01 Y0.0000
G01 Z-2.0000
G03 X-1.4330 Y-0.4433 I1.5000 J0.0000
G03 X0.0200 Y-1.5000 I1.4333 J0.4435
G01 X64.0000
G03 X65.5000 Y0.0200 I-0.0001 J1.5002
G01 Y108.0000
G03 X63.9800 Y109.5000 I-1.5002 J-0.0001
G01 X0.0000
G03 X-1.4962 Y108.1061 I0.0000 J-1.5000
G01 X-1.5000 Y107.9800
G01 Y0.0000
G01 Z-3.0000
G03 X-1.4330 Y-0.4433 I1.5000 J0.0000
G03 X0.0200 Y-1.5000 I1.4333 J0.4435
G01 X64.0000
G03 X65.5000 Y0.0200 I-0.0001 J1.5002
G01 Y108.0000
G03 X63.9800 Y109.5000 I-1.5002 J-0.0001
G01 X0.0000
G03 X-1.4962 Y108.1061 I0.0000 J-1.5000
G01 X-1.5000 Y107.9800
G01 Y0.0000
G01 Z-4.0000
G03 X-1.4330 Y-0.4433 I1.5000 J0.0000
G03 X0.0200 Y-1.5000 I1.4333 J0.4435
G01 X64.0000
G03 X65.5000 Y0.0200 I-0.0001 J1.5002
G01 Y108.0000
G03 X63.9800 Y109.5000 I-1.5002 J-0.0001
G01 X0.0000
G03 X-1.4962 Y108.1061 I0.0000 J-1.5000
G01 X-1.5000 Y107.9800
G01 Y0.0000
G01 Z-5.0000
G03 X-1.4330 Y-0.4433 I1.5000 J0.0000
G03 X0.0200 Y-1.5000 I1.4333 J0.4435
G01 X64.0000
G03 X65.5000 Y0.0200 I-0.0001 J1.5002
G01 Y108.0000
G03 X63.9800 Y109.5000 I-1.5002 J-0.0001
G01 X0.0000
G03 X-1.4962 Y108.1061 I0.0000 J-1.5000
G01 X-1.5000 Y107.9800
G01 Y0.0000
G01 Z-6.0000
G03 X-1.4330 Y-0.4433 I1.5000 J0.0000
G03 X0.0200 Y-1.5000 I1.4333 J0.4435
G01 X64.0000
G03 X65.5000 Y0.0200 I-0.0001 J1.5002
G01 Y108.0000
G03 X63.9800 Y109.5000 I-1.5002 J-0.0001
G01 X0.0000
G03 X-1.4962 Y108.1061 I0.0000 J-1.5000
G01 X-1.5000 Y107.9800
G01 Y0.0000
G01 Z-7.0000
G03 X-1.4330 Y-0.4433 I1.5000 J0.0000
G03 X0.0200 Y-1.5000 I1.4333 J0.4435
G01 X64.0000
G03 X65.5000 Y0.0200 I-0.0001 J1.5002
G01 Y108.0000
G03 X63.9800 Y109.5000 I-1.5002 J-0.0001
G01 X0.0000
G03 X-1.4962 Y108.1061 I0.0000 J-1.5000
G01 X-1.5000 Y107.9800
G01 Y0.0000
G01 Z-8.0000
G03 X-1.4330 Y-0.4433 I1.5000 J0.0000
G03 X0.0200 Y-1.5000 I1.4333 J0.4435
G01 X64.0000
G03 X65.5000 Y0.0200 I-0.0001 J1.5002
G01 Y108.0000
G03 X63.9800 Y109.5000 I-1.5002 J-0.0001
G01 X0.0000
G03 X-1.4962 Y108.1061 I0.0000 J-1.5000
G01 X-1.5000 Y107.9800
G01 Y0.0000
G01 Z-9.0000
G03 X-1.4330 Y-0.4433 I1.5000 J0.0000
G03 X0.0200 Y-1.5000 I1.4333 J0.4435
G01 X64.0000
G03 X65.5000 Y0.0200 I-0.0001 J1.5002
G01 Y108.0000
G03 X63.9800 Y109.5000 I-1.5002 J-0.0001
G01 X0.0000
G03 X-1.4962 Y108.1061 I0.0000 J-1.5000
G01 X-1.5000 Y107.9800
G01 Y0.0000
G01 Z-10.0000
G03 X-1.4330 Y-0.4433 I1.5000 J0.0000
G03 X0.0200 Y-1.5000 I1.4333 J0.4435
G01 X64.0000
G03 X65.5000 Y0.0200 I-0.0001 J1.5002
G01 Y108.0000
G03 X63.9800 Y109.5000 I-1.5002 J-0.0001
G01 X0.0000
G03 X-1.4962 Y108.1061 I0.0000 J-1.5000
G01 X-1.5000 Y107.9800
G01 Y0.0000
G01 Z-11.0000
G03 X-1.4330 Y-0.4433 I1.5000 J0.0000
G03 X0.0200 Y-1.5000 I1.4333 J0.4435
G01 X64.0000
G03 X65.5000 Y0.0200 I-0.0001 J1.5002
G01 Y108.0000
G03 X63.9800 Y109.5000 I-1.5002 J-0.0001
G01 X0.0000
G03 X-1.4962 Y108.1061 I0.0000 J-1.5000
G01 X-1.5000 Y107.9800
G01 Y0.0000
G01 Z-12.0000
G03 X-1.4330 Y-0.4433 I1.5000 J0.0000
G03 X0.0200 Y-1.5000 I1.4333 J0.4435
G01 X64.0000
G03 X65.5000 Y0.0200 I-0.0001 J1.5002
G01 Y108.0000
G03 X63.9800 Y109.5000 I-1.5002 J-0.0001
G01 X0.0000
G03 X-1.4962 Y108.1061 I0.0000 J-1.5000
G01 X-1.5000 Y107.9800
G01 Y0.0000
G00 Z5.0000
G00 X0.0000

M05
