(.../eagle/ulps/pcbgcode/pcb-gcode.ulp)
(Copyright 2005 - 2012 by John Johnson)
(See readme.txt for licensing terms.)
(This file generated from the board:)
(.../Timing-Gate/gate-controller-V2.brd)
(Current profile is .../pcbgcode/profiles/generic.pp  )
(This file generated 27/01/2020 23:06)
(Settings from pcb-machine.h)
(  Tool Size)
(0.1778 )
(Z Axis Settings)
(  High     Up        Down     Drill)
(15.0000 	2.5000 	-0.1250 	-2.0000 )
(spindle on time = 3.0000)
(milling depth = -0.2540)
(text depth = -0.1270)
(tool change at 0.0000 0.0000 45.0000 )
(feed rate xy = F400.00 )
(feed rate z  = F254.00 )
(Settings from pcb-defaults.h)
(isolate min = 0.0200)
(isolate max = 0.2500)
(isolate step = 0.1200)
(Generated bottom outlines, bottom drill, )
(Unit of measure: mm)
(Metric Mode)
G21
(Absolute Coordinates)
G90
G00 X0.0000 Y0.0000 
M03
G04 P3.000000
G00 Z2.5000 
G00 X-109.1555 Y63.9899 
G01 Z-0.1250 F254.00 
G01 X-109.0309 Y63.9565 F400.00 
G01 X-108.9192 Y63.8920 
G01 X-108.8280 Y63.8008 
G01 X-108.7635 Y63.6891 
G01 X-108.7301 Y63.5645 
G01 X-108.7301 Y63.4355 
G01 X-108.7635 Y63.3109 
G01 X-108.8280 Y63.1992 
G01 X-108.9192 Y63.1080 
G01 X-109.0309 Y63.0435 
G01 X-109.1555 Y63.0101 
G01 X-123.9701 Y63.0101 
G01 X-123.9701 Y62.7199 
G01 X-109.1555 Y62.7199 
G01 X-109.0309 Y62.6865 
G01 X-108.9192 Y62.6220 
G01 X-108.8280 Y62.5308 
G01 X-108.7635 Y62.4191 
G01 X-108.7301 Y62.2945 
G01 X-108.7301 Y60.8955 
G01 X-108.7635 Y60.7709 
G01 X-108.8280 Y60.6592 
G01 X-108.9192 Y60.5680 
G01 X-109.0309 Y60.5035 
G01 X-109.1555 Y60.4701 
G01 X-124.2571 Y60.4701 
G01 X-129.1480 Y55.5792 
G01 X-129.2392 Y55.4880 
G01 X-129.3509 Y55.4235 
G01 X-129.4755 Y55.3901 
G01 X-131.5095 Y55.3901 
G01 X-131.6341 Y55.4235 
G01 X-131.7458 Y55.4880 
G01 X-131.8370 Y55.5792 
G01 X-131.9015 Y55.6909 
G01 X-131.9349 Y55.8155 
G01 X-131.9349 Y55.9445 
G01 X-131.9015 Y56.0691 
G01 X-131.8370 Y56.1808 
G01 X-127.0578 Y60.9600 
G01 X-129.5400 Y63.4422 
G01 X-130.1172 Y62.8650 
G01 X-128.6042 Y61.3520 
G01 X-128.5130 Y61.2608 
G01 X-128.4485 Y61.1491 
G01 X-128.4151 Y61.0245 
G01 X-128.4151 Y60.2605 
G01 X-128.4485 Y60.1359 
G01 X-128.5130 Y60.0242 
G01 X-132.6572 Y55.8800 
G01 X-131.8771 Y55.0999 
G01 X-129.1079 Y55.0999 
G01 X-124.2170 Y59.9908 
G01 X-124.1258 Y60.0820 
G01 X-124.0141 Y60.1465 
G01 X-123.8895 Y60.1799 
G01 X-108.4399 Y60.1799 
G01 X-108.4399 Y64.2801 
G01 X-125.2401 Y64.2801 
G01 X-125.2401 Y62.1655 
G01 X-125.2735 Y62.0409 
G01 X-125.3380 Y61.9292 
G01 X-125.4292 Y61.8380 
G01 X-125.5409 Y61.7735 
G01 X-125.6655 Y61.7401 
G01 X-125.7945 Y61.7401 
G01 X-125.9191 Y61.7735 
G01 X-126.0308 Y61.8380 
G01 X-126.1220 Y61.9292 
G01 X-126.1865 Y62.0409 
G01 X-126.2199 Y62.1655 
G01 X-126.2199 Y64.8345 
G01 X-126.1865 Y64.9591 
G01 X-126.1220 Y65.0708 
G01 X-126.0308 Y65.1620 
G01 X-125.9191 Y65.2265 
G01 X-125.7945 Y65.2599 
G01 X-107.8855 Y65.2599 
G01 X-107.7609 Y65.2265 
G01 X-107.6492 Y65.1620 
G01 X-107.5580 Y65.0708 
G01 X-107.4935 Y64.9591 
G01 X-107.4601 Y64.8345 
G01 X-107.4601 Y59.6255 
G01 X-107.4935 Y59.5009 
G01 X-107.5580 Y59.3892 
G01 X-107.6492 Y59.2980 
G01 X-107.7609 Y59.2335 
G01 X-107.8855 Y59.2001 
G01 X-123.6221 Y59.2001 
G01 X-128.6042 Y54.2180 
G01 X-128.7159 Y54.1535 
G01 X-128.8405 Y54.1201 
G01 X-132.1445 Y54.1201 
G01 X-132.2691 Y54.1535 
G01 X-132.3808 Y54.2180 
G01 X-132.4720 Y54.3092 
G01 X-133.7420 Y55.5792 
G01 X-133.8065 Y55.6909 
G01 X-133.8399 Y55.8155 
G01 X-133.8399 Y55.9445 
G01 X-133.8065 Y56.0691 
G01 X-133.7420 Y56.1808 
G01 X-133.6508 Y56.2720 
G01 X-129.3949 Y60.5279 
G01 X-129.3949 Y60.7571 
G01 X-131.2020 Y62.5642 
G01 X-131.2665 Y62.6759 
G01 X-131.2999 Y62.8005 
G01 X-131.2999 Y62.9295 
G01 X-131.2665 Y63.0541 
G01 X-131.2020 Y63.1658 
G01 X-131.1108 Y63.2570 
G01 X-129.8408 Y64.5270 
G01 X-129.7291 Y64.5915 
G01 X-129.6045 Y64.6249 
G01 X-129.4755 Y64.6249 
G01 X-129.3509 Y64.5915 
G01 X-129.2392 Y64.5270 
G01 X-129.1480 Y64.4358 
G01 X-125.9730 Y61.2608 
G01 X-125.9085 Y61.1491 
G01 X-125.8751 Y61.0245 
G01 X-125.8751 Y60.8955 
G01 X-125.9085 Y60.7709 
G01 X-125.9730 Y60.6592 
G01 X-126.0642 Y60.5680 
G01 X-130.2623 Y56.3699 
G01 X-129.7429 Y56.3699 
G01 X-124.7608 Y61.3520 
G01 X-124.6491 Y61.4165 
G01 X-124.5245 Y61.4499 
G01 X-109.7099 Y61.4499 
G01 X-109.7099 Y61.7401 
G01 X-124.5245 Y61.7401 
G01 X-124.6491 Y61.7735 
G01 X-124.7608 Y61.8380 
G01 X-124.8520 Y61.9292 
G01 X-124.9165 Y62.0409 
G01 X-124.9499 Y62.1655 
G01 X-124.9499 Y63.5645 
G01 X-124.9165 Y63.6891 
G01 X-124.8520 Y63.8008 
G01 X-124.7608 Y63.8920 
G01 X-124.6491 Y63.9565 
G01 X-124.5245 Y63.9899 
G01 X-124.3955 Y63.9899 
G01 X-109.1555 Y63.9899 
G00 Z2.5000 
G00 X-64.7011 Y50.7055 
G01 Z-0.1250 F254.00 
G01 X-64.7011 Y50.8945 F400.00 
G01 X-64.6715 Y51.0813 
G01 X-64.6131 Y51.2611 
G01 X-64.5273 Y51.4295 
G01 X-64.4161 Y51.5825 
G01 X-64.2825 Y51.7161 
G01 X-64.1295 Y51.8273 
G01 X-63.9611 Y51.9131 
G01 X-63.7813 Y51.9715 
G01 X-63.5945 Y52.0011 
G01 X-63.4055 Y52.0011 
G01 X-63.2187 Y51.9715 
G01 X-63.0389 Y51.9131 
G01 X-62.8705 Y51.8273 
G01 X-62.7175 Y51.7161 
G01 X-62.5839 Y51.5825 
G01 X-62.4727 Y51.4295 
G01 X-62.4016 Y51.2899 
G01 X-62.0584 Y51.2899 
G01 X-61.9873 Y51.4295 
G01 X-61.8761 Y51.5825 
G01 X-61.7425 Y51.7161 
G01 X-61.5895 Y51.8273 
G01 X-61.4211 Y51.9131 
G01 X-61.2413 Y51.9715 
G01 X-61.0545 Y52.0011 
G01 X-60.8655 Y52.0011 
G01 X-60.6787 Y51.9715 
G01 X-60.4989 Y51.9131 
G01 X-60.3305 Y51.8273 
G01 X-60.1775 Y51.7161 
G01 X-60.0439 Y51.5825 
G01 X-59.9327 Y51.4295 
G01 X-59.8469 Y51.2611 
G01 X-59.7885 Y51.0813 
G01 X-59.7589 Y50.8945 
G01 X-59.7589 Y50.7055 
G01 X-59.7885 Y50.5187 
G01 X-59.8469 Y50.3389 
G01 X-59.9327 Y50.1705 
G01 X-60.0439 Y50.0175 
G01 X-60.1775 Y49.8839 
G01 X-60.3305 Y49.7727 
G01 X-60.4989 Y49.6869 
G01 X-60.6787 Y49.6285 
G01 X-60.8655 Y49.5989 
G01 X-61.0545 Y49.5989 
G01 X-61.2413 Y49.6285 
G01 X-61.4211 Y49.6869 
G01 X-61.5895 Y49.7727 
G01 X-61.7425 Y49.8839 
G01 X-61.8761 Y50.0175 
G01 X-61.9873 Y50.1705 
G01 X-62.0584 Y50.3101 
G01 X-62.4016 Y50.3101 
G01 X-62.4727 Y50.1705 
G01 X-62.5839 Y50.0175 
G01 X-62.7175 Y49.8839 
G01 X-62.8705 Y49.7727 
G01 X-63.0389 Y49.6869 
G01 X-63.2187 Y49.6285 
G01 X-63.4055 Y49.5989 
G01 X-63.5945 Y49.5989 
G01 X-63.7813 Y49.6285 
G01 X-63.9611 Y49.6869 
G01 X-64.1295 Y49.7727 
G01 X-64.2825 Y49.8839 
G01 X-64.4161 Y50.0175 
G01 X-64.5273 Y50.1705 
G01 X-64.6131 Y50.3389 
G01 X-64.6715 Y50.5187 
G01 X-64.7011 Y50.7055 
G00 Z2.5000 
G00 X-57.0811 Y43.0855 
G01 Z-0.1250 F254.00 
G01 X-57.0811 Y43.2745 F400.00 
G01 X-57.0515 Y43.4613 
G01 X-56.9931 Y43.6411 
G01 X-56.9073 Y43.8095 
G01 X-56.7961 Y43.9625 
G01 X-56.6625 Y44.0961 
G01 X-56.5095 Y44.2073 
G01 X-56.3699 Y44.2784 
G01 X-56.3699 Y58.4845 
G01 X-56.3365 Y58.6091 
G01 X-56.2720 Y58.7208 
G01 X-48.6520 Y66.3408 
G01 X-48.5608 Y66.4320 
G01 X-48.4491 Y66.4965 
G01 X-48.3245 Y66.5299 
G01 X-46.8184 Y66.5299 
G01 X-46.7473 Y66.6695 
G01 X-46.6361 Y66.8225 
G01 X-46.5025 Y66.9561 
G01 X-46.3495 Y67.0673 
G01 X-46.1811 Y67.1531 
G01 X-46.0013 Y67.2115 
G01 X-45.8145 Y67.2411 
G01 X-45.6255 Y67.2411 
G01 X-45.4387 Y67.2115 
G01 X-45.2589 Y67.1531 
G01 X-45.0905 Y67.0673 
G01 X-44.9375 Y66.9561 
G01 X-44.8039 Y66.8225 
G01 X-44.6927 Y66.6695 
G01 X-44.6216 Y66.5299 
G01 X-29.0384 Y66.5299 
G01 X-28.9673 Y66.6695 
G01 X-28.8561 Y66.8225 
G01 X-28.7225 Y66.9561 
G01 X-28.5695 Y67.0673 
G01 X-28.4011 Y67.1531 
G01 X-28.2213 Y67.2115 
G01 X-28.0345 Y67.2411 
G01 X-27.8455 Y67.2411 
G01 X-27.6587 Y67.2115 
G01 X-27.4789 Y67.1531 
G01 X-27.3105 Y67.0673 
G01 X-27.1575 Y66.9561 
G01 X-27.0239 Y66.8225 
G01 X-26.9127 Y66.6695 
G01 X-26.8269 Y66.5011 
G01 X-26.7685 Y66.3213 
G01 X-26.7389 Y66.1345 
G01 X-26.7389 Y65.9455 
G01 X-26.7685 Y65.7587 
G01 X-26.8269 Y65.5789 
G01 X-26.9127 Y65.4105 
G01 X-27.0239 Y65.2575 
G01 X-27.1575 Y65.1239 
G01 X-27.3105 Y65.0127 
G01 X-27.4789 Y64.9269 
G01 X-27.6587 Y64.8685 
G01 X-27.8455 Y64.8389 
G01 X-28.0345 Y64.8389 
G01 X-28.2213 Y64.8685 
G01 X-28.4011 Y64.9269 
G01 X-28.5695 Y65.0127 
G01 X-28.7225 Y65.1239 
G01 X-28.8561 Y65.2575 
G01 X-28.9673 Y65.4105 
G01 X-29.0384 Y65.5501 
G01 X-44.6216 Y65.5501 
G01 X-44.6927 Y65.4105 
G01 X-44.8039 Y65.2575 
G01 X-44.9375 Y65.1239 
G01 X-45.0905 Y65.0127 
G01 X-45.2589 Y64.9269 
G01 X-45.4387 Y64.8685 
G01 X-45.6255 Y64.8389 
G01 X-45.8145 Y64.8389 
G01 X-46.0013 Y64.8685 
G01 X-46.1811 Y64.9269 
G01 X-46.3495 Y65.0127 
G01 X-46.5025 Y65.1239 
G01 X-46.6361 Y65.2575 
G01 X-46.7473 Y65.4105 
G01 X-46.8184 Y65.5501 
G01 X-48.0571 Y65.5501 
G01 X-55.3901 Y58.2171 
G01 X-55.3901 Y44.2784 
G01 X-55.2505 Y44.2073 
G01 X-55.0975 Y44.0961 
G01 X-54.9639 Y43.9625 
G01 X-54.8527 Y43.8095 
G01 X-54.7669 Y43.6411 
G01 X-54.7085 Y43.4613 
G01 X-54.6789 Y43.2745 
G01 X-54.6789 Y43.0855 
G01 X-54.7085 Y42.8987 
G01 X-54.7669 Y42.7189 
G01 X-54.8527 Y42.5505 
G01 X-54.9639 Y42.3975 
G01 X-55.0975 Y42.2639 
G01 X-55.2505 Y42.1527 
G01 X-55.4189 Y42.0669 
G01 X-55.5987 Y42.0085 
G01 X-55.7855 Y41.9789 
G01 X-55.9745 Y41.9789 
G01 X-56.1613 Y42.0085 
G01 X-56.3411 Y42.0669 
G01 X-56.5095 Y42.1527 
G01 X-56.6625 Y42.2639 
G01 X-56.7961 Y42.3975 
G01 X-56.9073 Y42.5505 
G01 X-56.9931 Y42.7189 
G01 X-57.0515 Y42.8987 
G01 X-57.0811 Y43.0855 
G00 Z2.5000 
G00 X-95.1811 Y27.8455 
G01 Z-0.1250 F254.00 
G01 X-95.1811 Y28.0345 F400.00 
G01 X-95.1515 Y28.2213 
G01 X-95.0931 Y28.4011 
G01 X-95.0073 Y28.5695 
G01 X-94.8961 Y28.7225 
G01 X-94.7625 Y28.8561 
G01 X-94.6095 Y28.9673 
G01 X-94.4411 Y29.0531 
G01 X-94.2613 Y29.1115 
G01 X-94.0745 Y29.1411 
G01 X-93.8855 Y29.1411 
G01 X-93.6987 Y29.1115 
G01 X-93.5189 Y29.0531 
G01 X-93.3505 Y28.9673 
G01 X-93.1975 Y28.8561 
G01 X-93.0639 Y28.7225 
G01 X-92.9527 Y28.5695 
G01 X-92.8816 Y28.4299 
G01 X-64.5984 Y28.4299 
G01 X-64.5273 Y28.5695 
G01 X-64.4161 Y28.7225 
G01 X-64.2825 Y28.8561 
G01 X-64.1295 Y28.9673 
G01 X-63.9611 Y29.0531 
G01 X-63.7813 Y29.1115 
G01 X-63.5945 Y29.1411 
G01 X-63.4055 Y29.1411 
G01 X-63.2187 Y29.1115 
G01 X-63.0389 Y29.0531 
G01 X-62.8705 Y28.9673 
G01 X-62.7175 Y28.8561 
G01 X-62.5839 Y28.7225 
G01 X-62.4727 Y28.5695 
G01 X-62.4016 Y28.4299 
G01 X-62.0584 Y28.4299 
G01 X-61.9873 Y28.5695 
G01 X-61.8761 Y28.7225 
G01 X-61.7425 Y28.8561 
G01 X-61.5895 Y28.9673 
G01 X-61.4211 Y29.0531 
G01 X-61.2413 Y29.1115 
G01 X-61.0545 Y29.1411 
G01 X-60.8655 Y29.1411 
G01 X-60.6787 Y29.1115 
G01 X-60.4989 Y29.0531 
G01 X-60.3305 Y28.9673 
G01 X-60.1775 Y28.8561 
G01 X-60.0439 Y28.7225 
G01 X-59.9327 Y28.5695 
G01 X-59.8616 Y28.4299 
G01 X-54.4384 Y28.4299 
G01 X-54.3673 Y28.5695 
G01 X-54.2561 Y28.7225 
G01 X-54.1225 Y28.8561 
G01 X-53.9695 Y28.9673 
G01 X-53.8011 Y29.0531 
G01 X-53.6213 Y29.1115 
G01 X-53.4345 Y29.1411 
G01 X-53.2455 Y29.1411 
G01 X-53.0587 Y29.1115 
G01 X-52.8789 Y29.0531 
G01 X-52.7105 Y28.9673 
G01 X-52.5575 Y28.8561 
G01 X-52.4239 Y28.7225 
G01 X-52.3127 Y28.5695 
G01 X-52.2416 Y28.4299 
G01 X-51.0029 Y28.4299 
G01 X-48.7499 Y30.6829 
G01 X-48.7499 Y31.9216 
G01 X-48.8895 Y31.9927 
G01 X-49.0425 Y32.1039 
G01 X-49.1761 Y32.2375 
G01 X-49.2873 Y32.3905 
G01 X-49.3731 Y32.5589 
G01 X-49.4315 Y32.7387 
G01 X-49.4611 Y32.9255 
G01 X-49.4611 Y33.1145 
G01 X-49.4315 Y33.3013 
G01 X-49.3731 Y33.4811 
G01 X-49.2873 Y33.6495 
G01 X-49.1761 Y33.8025 
G01 X-49.0425 Y33.9361 
G01 X-48.8895 Y34.0473 
G01 X-48.7211 Y34.1331 
G01 X-48.5413 Y34.1915 
G01 X-48.3545 Y34.2211 
G01 X-48.1655 Y34.2211 
G01 X-47.9787 Y34.1915 
G01 X-47.7989 Y34.1331 
G01 X-47.6305 Y34.0473 
G01 X-47.4775 Y33.9361 
G01 X-47.3439 Y33.8025 
G01 X-47.2327 Y33.6495 
G01 X-47.1469 Y33.4811 
G01 X-47.0885 Y33.3013 
G01 X-47.0589 Y33.1145 
G01 X-47.0589 Y32.9255 
G01 X-47.0885 Y32.7387 
G01 X-47.1469 Y32.5589 
G01 X-47.2327 Y32.3905 
G01 X-47.3439 Y32.2375 
G01 X-47.4775 Y32.1039 
G01 X-47.6305 Y31.9927 
G01 X-47.7701 Y31.9216 
G01 X-47.7701 Y30.4155 
G01 X-47.8035 Y30.2909 
G01 X-47.8680 Y30.1792 
G01 X-47.9592 Y30.0880 
G01 X-50.4080 Y27.6392 
G01 X-50.4992 Y27.5480 
G01 X-50.6109 Y27.4835 
G01 X-50.7355 Y27.4501 
G01 X-52.2416 Y27.4501 
G01 X-52.3127 Y27.3105 
G01 X-52.4239 Y27.1575 
G01 X-52.5575 Y27.0239 
G01 X-52.7105 Y26.9127 
G01 X-52.8789 Y26.8269 
G01 X-53.0587 Y26.7685 
G01 X-53.2455 Y26.7389 
G01 X-53.4345 Y26.7389 
G01 X-53.6213 Y26.7685 
G01 X-53.8011 Y26.8269 
G01 X-53.9695 Y26.9127 
G01 X-54.1225 Y27.0239 
G01 X-54.2561 Y27.1575 
G01 X-54.3673 Y27.3105 
G01 X-54.4384 Y27.4501 
G01 X-59.8616 Y27.4501 
G01 X-59.9327 Y27.3105 
G01 X-60.0439 Y27.1575 
G01 X-60.1775 Y27.0239 
G01 X-60.3305 Y26.9127 
G01 X-60.4989 Y26.8269 
G01 X-60.6787 Y26.7685 
G01 X-60.8655 Y26.7389 
G01 X-61.0545 Y26.7389 
G01 X-61.2413 Y26.7685 
G01 X-61.4211 Y26.8269 
G01 X-61.5895 Y26.9127 
G01 X-61.7425 Y27.0239 
G01 X-61.8761 Y27.1575 
G01 X-61.9873 Y27.3105 
G01 X-62.0584 Y27.4501 
G01 X-62.4016 Y27.4501 
G01 X-62.4727 Y27.3105 
G01 X-62.5839 Y27.1575 
G01 X-62.7175 Y27.0239 
G01 X-62.8705 Y26.9127 
G01 X-63.0389 Y26.8269 
G01 X-63.2187 Y26.7685 
G01 X-63.4055 Y26.7389 
G01 X-63.5945 Y26.7389 
G01 X-63.7813 Y26.7685 
G01 X-63.9611 Y26.8269 
G01 X-64.1295 Y26.9127 
G01 X-64.2825 Y27.0239 
G01 X-64.4161 Y27.1575 
G01 X-64.5273 Y27.3105 
G01 X-64.5984 Y27.4501 
G01 X-92.8816 Y27.4501 
G01 X-92.9527 Y27.3105 
G01 X-93.0639 Y27.1575 
G01 X-93.1975 Y27.0239 
G01 X-93.3505 Y26.9127 
G01 X-93.5189 Y26.8269 
G01 X-93.6987 Y26.7685 
G01 X-93.8855 Y26.7389 
G01 X-94.0745 Y26.7389 
G01 X-94.2613 Y26.7685 
G01 X-94.4411 Y26.8269 
G01 X-94.6095 Y26.9127 
G01 X-94.7625 Y27.0239 
G01 X-94.8961 Y27.1575 
G01 X-95.0073 Y27.3105 
G01 X-95.0931 Y27.4789 
G01 X-95.1515 Y27.6587 
G01 X-95.1811 Y27.8455 
G00 Z2.5000 
G00 X-100.0873 Y48.8895 
G01 Z-0.1250 F254.00 
G01 X-99.9761 Y49.0425 F400.00 
G01 X-99.8425 Y49.1761 
G01 X-99.6895 Y49.2873 
G01 X-99.5211 Y49.3731 
G01 X-99.3413 Y49.4315 
G01 X-99.1545 Y49.4611 
G01 X-98.9655 Y49.4611 
G01 X-98.7787 Y49.4315 
G01 X-98.5989 Y49.3731 
G01 X-98.4305 Y49.2873 
G01 X-98.2775 Y49.1761 
G01 X-98.1439 Y49.0425 
G01 X-98.0327 Y48.8895 
G01 X-97.9616 Y48.7499 
G01 X-95.0784 Y48.7499 
G01 X-95.0073 Y48.8895 
G01 X-94.8961 Y49.0425 
G01 X-94.7625 Y49.1761 
G01 X-94.6095 Y49.2873 
G01 X-94.4699 Y49.3584 
G01 X-94.4699 Y69.9145 
G01 X-94.4365 Y70.0391 
G01 X-94.3720 Y70.1508 
G01 X-93.1020 Y71.4208 
G01 X-93.0108 Y71.5120 
G01 X-92.8991 Y71.5765 
G01 X-92.7745 Y71.6099 
G01 X-92.5384 Y71.6099 
G01 X-92.4673 Y71.7495 
G01 X-92.3561 Y71.9025 
G01 X-92.2225 Y72.0361 
G01 X-92.0695 Y72.1473 
G01 X-91.9011 Y72.2331 
G01 X-91.7213 Y72.2915 
G01 X-91.5345 Y72.3211 
G01 X-91.3455 Y72.3211 
G01 X-91.1587 Y72.2915 
G01 X-90.9789 Y72.2331 
G01 X-90.8105 Y72.1473 
G01 X-90.6575 Y72.0361 
G01 X-90.5239 Y71.9025 
G01 X-90.4127 Y71.7495 
G01 X-90.3416 Y71.6099 
G01 X-87.5611 Y71.6099 
G01 X-87.5611 Y72.2339 
G01 X-87.5445 Y72.2739 
G01 X-87.5139 Y72.3045 
G01 X-87.4739 Y72.3211 
G01 X-85.2461 Y72.3211 
G01 X-85.2061 Y72.3045 
G01 X-85.1755 Y72.2739 
G01 X-85.1589 Y72.2339 
G01 X-85.1589 Y70.0061 
G01 X-85.1755 Y69.9661 
G01 X-85.2061 Y69.9355 
G01 X-85.2461 Y69.9189 
G01 X-87.4739 Y69.9189 
G01 X-87.5139 Y69.9355 
G01 X-87.5445 Y69.9661 
G01 X-87.5611 Y70.0061 
G01 X-87.5611 Y70.6301 
G01 X-90.3416 Y70.6301 
G01 X-90.4127 Y70.4905 
G01 X-90.5239 Y70.3375 
G01 X-90.6575 Y70.2039 
G01 X-90.8105 Y70.0927 
G01 X-90.9789 Y70.0069 
G01 X-91.1587 Y69.9485 
G01 X-91.3455 Y69.9189 
G01 X-91.5345 Y69.9189 
G01 X-91.7213 Y69.9485 
G01 X-91.9011 Y70.0069 
G01 X-92.0695 Y70.0927 
G01 X-92.2225 Y70.2039 
G01 X-92.3561 Y70.3375 
G01 X-92.4673 Y70.4905 
G01 X-92.5278 Y70.6093 
G01 X-93.4901 Y69.6471 
G01 X-93.4901 Y49.3584 
G01 X-93.3505 Y49.2873 
G01 X-93.1975 Y49.1761 
G01 X-93.0639 Y49.0425 
G01 X-92.9527 Y48.8895 
G01 X-92.8669 Y48.7211 
G01 X-92.8085 Y48.5413 
G01 X-92.7789 Y48.3545 
G01 X-92.7789 Y48.1655 
G01 X-92.8085 Y47.9787 
G01 X-92.8669 Y47.7989 
G01 X-92.9527 Y47.6305 
G01 X-93.0639 Y47.4775 
G01 X-93.1975 Y47.3439 
G01 X-93.3505 Y47.2327 
G01 X-93.5189 Y47.1469 
G01 X-93.6987 Y47.0885 
G01 X-93.8855 Y47.0589 
G01 X-94.0745 Y47.0589 
G01 X-94.2613 Y47.0885 
G01 X-94.4411 Y47.1469 
G01 X-94.6095 Y47.2327 
G01 X-94.7625 Y47.3439 
G01 X-94.8961 Y47.4775 
G01 X-95.0073 Y47.6305 
G01 X-95.0784 Y47.7701 
G01 X-97.9616 Y47.7701 
G01 X-98.0327 Y47.6305 
G01 X-98.1439 Y47.4775 
G01 X-98.2775 Y47.3439 
G01 X-98.4305 Y47.2327 
G01 X-98.5989 Y47.1469 
G01 X-98.7787 Y47.0885 
G01 X-98.9655 Y47.0589 
G01 X-99.1545 Y47.0589 
G01 X-99.3413 Y47.0885 
G01 X-99.5211 Y47.1469 
G01 X-99.6895 Y47.2327 
G01 X-99.8425 Y47.3439 
G01 X-99.9761 Y47.4775 
G01 X-100.0873 Y47.6305 
G01 X-100.1584 Y47.7701 
G01 X-108.1216 Y47.7701 
G01 X-108.1927 Y47.6305 
G01 X-108.3039 Y47.4775 
G01 X-108.4375 Y47.3439 
G01 X-108.5905 Y47.2327 
G01 X-108.7589 Y47.1469 
G01 X-108.9387 Y47.0885 
G01 X-109.1255 Y47.0589 
G01 X-109.3145 Y47.0589 
G01 X-109.5013 Y47.0885 
G01 X-109.6811 Y47.1469 
G01 X-109.8495 Y47.2327 
G01 X-110.0025 Y47.3439 
G01 X-110.1361 Y47.4775 
G01 X-110.2473 Y47.6305 
G01 X-110.3331 Y47.7989 
G01 X-110.3915 Y47.9787 
G01 X-110.4211 Y48.1655 
G01 X-110.4211 Y48.3545 
G01 X-110.3915 Y48.5413 
G01 X-110.3331 Y48.7211 
G01 X-110.2473 Y48.8895 
G01 X-110.1361 Y49.0425 
G01 X-110.0025 Y49.1761 
G01 X-109.8495 Y49.2873 
G01 X-109.6811 Y49.3731 
G01 X-109.5013 Y49.4315 
G01 X-109.3145 Y49.4611 
G01 X-109.1255 Y49.4611 
G01 X-108.9387 Y49.4315 
G01 X-108.7589 Y49.3731 
G01 X-108.5905 Y49.2873 
G01 X-108.4375 Y49.1761 
G01 X-108.3039 Y49.0425 
G01 X-108.1927 Y48.8895 
G01 X-108.1216 Y48.7499 
G01 X-100.1584 Y48.7499 
G01 X-100.0873 Y48.8895 
G00 Z2.5000 
G00 X-26.6011 Y48.1655 
G01 Z-0.1250 F254.00 
G01 X-26.6011 Y48.3545 F400.00 
G01 X-26.5715 Y48.5413 
G01 X-26.5131 Y48.7211 
G01 X-26.4273 Y48.8895 
G01 X-26.3161 Y49.0425 
G01 X-26.1825 Y49.1761 
G01 X-26.0295 Y49.2873 
G01 X-25.8899 Y49.3584 
G01 X-25.8899 Y51.8671 
G01 X-26.8522 Y52.8293 
G01 X-26.9127 Y52.7105 
G01 X-27.0239 Y52.5575 
G01 X-27.1575 Y52.4239 
G01 X-27.3105 Y52.3127 
G01 X-27.4789 Y52.2269 
G01 X-27.6587 Y52.1685 
G01 X-27.8455 Y52.1389 
G01 X-28.0345 Y52.1389 
G01 X-28.2213 Y52.1685 
G01 X-28.4011 Y52.2269 
G01 X-28.5695 Y52.3127 
G01 X-28.7225 Y52.4239 
G01 X-28.8561 Y52.5575 
G01 X-28.9673 Y52.7105 
G01 X-29.0384 Y52.8501 
G01 X-38.1645 Y52.8501 
G01 X-38.2891 Y52.8835 
G01 X-38.4008 Y52.9480 
G01 X-38.4920 Y53.0392 
G01 X-43.3829 Y57.9301 
G01 X-44.6216 Y57.9301 
G01 X-44.6927 Y57.7905 
G01 X-44.8039 Y57.6375 
G01 X-44.9375 Y57.5038 
G01 X-45.0905 Y57.3927 
G01 X-45.2589 Y57.3069 
G01 X-45.4387 Y57.2485 
G01 X-45.6255 Y57.2189 
G01 X-45.8145 Y57.2189 
G01 X-46.0013 Y57.2485 
G01 X-46.1811 Y57.3069 
G01 X-46.3495 Y57.3927 
G01 X-46.5025 Y57.5038 
G01 X-46.6361 Y57.6375 
G01 X-46.7473 Y57.7905 
G01 X-46.8331 Y57.9589 
G01 X-46.8915 Y58.1387 
G01 X-46.9211 Y58.3255 
G01 X-46.9211 Y58.5145 
G01 X-46.8915 Y58.7013 
G01 X-46.8331 Y58.8811 
G01 X-46.7473 Y59.0495 
G01 X-46.6361 Y59.2025 
G01 X-46.5025 Y59.3361 
G01 X-46.3495 Y59.4473 
G01 X-46.1811 Y59.5331 
G01 X-46.0013 Y59.5915 
G01 X-45.8145 Y59.6211 
G01 X-45.6255 Y59.6211 
G01 X-45.4387 Y59.5915 
G01 X-45.2589 Y59.5331 
G01 X-45.0905 Y59.4473 
G01 X-44.9375 Y59.3361 
G01 X-44.8039 Y59.2025 
G01 X-44.6927 Y59.0495 
G01 X-44.6216 Y58.9099 
G01 X-43.1155 Y58.9099 
G01 X-42.9909 Y58.8765 
G01 X-42.8792 Y58.8120 
G01 X-42.7880 Y58.7208 
G01 X-37.8971 Y53.8299 
G01 X-29.0384 Y53.8299 
G01 X-28.9673 Y53.9695 
G01 X-28.8561 Y54.1225 
G01 X-28.7225 Y54.2561 
G01 X-28.5695 Y54.3673 
G01 X-28.4011 Y54.4531 
G01 X-28.2213 Y54.5115 
G01 X-28.0345 Y54.5411 
G01 X-27.8455 Y54.5411 
G01 X-27.6587 Y54.5115 
G01 X-27.4789 Y54.4531 
G01 X-27.3105 Y54.3673 
G01 X-27.1575 Y54.2561 
G01 X-27.0239 Y54.1225 
G01 X-26.9127 Y53.9695 
G01 X-26.8416 Y53.8299 
G01 X-26.6055 Y53.8299 
G01 X-26.4809 Y53.7965 
G01 X-26.3692 Y53.7320 
G01 X-25.0992 Y52.4620 
G01 X-25.0080 Y52.3708 
G01 X-24.9435 Y52.2591 
G01 X-24.9101 Y52.1345 
G01 X-24.9101 Y49.3584 
G01 X-24.7705 Y49.2873 
G01 X-24.6175 Y49.1761 
G01 X-24.4839 Y49.0425 
G01 X-24.3727 Y48.8895 
G01 X-24.2869 Y48.7211 
G01 X-24.2285 Y48.5413 
G01 X-24.1989 Y48.3545 
G01 X-24.1989 Y48.1655 
G01 X-24.2285 Y47.9787 
G01 X-24.2869 Y47.7989 
G01 X-24.3727 Y47.6305 
G01 X-24.4839 Y47.4775 
G01 X-24.6175 Y47.3439 
G01 X-24.7705 Y47.2327 
G01 X-24.9389 Y47.1469 
G01 X-25.1187 Y47.0885 
G01 X-25.3055 Y47.0589 
G01 X-25.4945 Y47.0589 
G01 X-25.6813 Y47.0885 
G01 X-25.8611 Y47.1469 
G01 X-26.0295 Y47.2327 
G01 X-26.1825 Y47.3439 
G01 X-26.3161 Y47.4775 
G01 X-26.4273 Y47.6305 
G01 X-26.5131 Y47.7989 
G01 X-26.5715 Y47.9787 
G01 X-26.6011 Y48.1655 
G00 Z2.5000 
G00 X-24.0611 Y48.1655 
G01 Z-0.1250 F254.00 
G01 X-24.0611 Y48.3545 F400.00 
G01 X-24.0315 Y48.5413 
G01 X-23.9731 Y48.7211 
G01 X-23.8873 Y48.8895 
G01 X-23.7761 Y49.0425 
G01 X-23.6425 Y49.1761 
G01 X-23.4895 Y49.2873 
G01 X-23.3499 Y49.3584 
G01 X-23.3499 Y53.1371 
G01 X-25.6029 Y55.3901 
G01 X-26.8416 Y55.3901 
G01 X-26.9127 Y55.2505 
G01 X-27.0239 Y55.0975 
G01 X-27.1575 Y54.9639 
G01 X-27.3105 Y54.8527 
G01 X-27.4789 Y54.7669 
G01 X-27.6587 Y54.7085 
G01 X-27.8455 Y54.6789 
G01 X-28.0345 Y54.6789 
G01 X-28.2213 Y54.7085 
G01 X-28.4011 Y54.7669 
G01 X-28.5695 Y54.8527 
G01 X-28.7225 Y54.9639 
G01 X-28.8561 Y55.0975 
G01 X-28.9673 Y55.2505 
G01 X-29.0384 Y55.3901 
G01 X-38.1645 Y55.3901 
G01 X-38.2891 Y55.4235 
G01 X-38.4008 Y55.4880 
G01 X-38.4920 Y55.5792 
G01 X-43.3829 Y60.4701 
G01 X-44.6216 Y60.4701 
G01 X-44.6927 Y60.3305 
G01 X-44.8039 Y60.1775 
G01 X-44.9375 Y60.0439 
G01 X-45.0905 Y59.9327 
G01 X-45.2589 Y59.8469 
G01 X-45.4387 Y59.7885 
G01 X-45.6255 Y59.7589 
G01 X-45.8145 Y59.7589 
G01 X-46.0013 Y59.7885 
G01 X-46.1811 Y59.8469 
G01 X-46.3495 Y59.9327 
G01 X-46.5025 Y60.0439 
G01 X-46.6361 Y60.1775 
G01 X-46.7473 Y60.3305 
G01 X-46.8331 Y60.4989 
G01 X-46.8915 Y60.6787 
G01 X-46.9211 Y60.8655 
G01 X-46.9211 Y61.0545 
G01 X-46.8915 Y61.2413 
G01 X-46.8331 Y61.4211 
G01 X-46.7473 Y61.5895 
G01 X-46.6361 Y61.7425 
G01 X-46.5025 Y61.8761 
G01 X-46.3495 Y61.9873 
G01 X-46.1811 Y62.0731 
G01 X-46.0013 Y62.1315 
G01 X-45.8145 Y62.1611 
G01 X-45.6255 Y62.1611 
G01 X-45.4387 Y62.1315 
G01 X-45.2589 Y62.0731 
G01 X-45.0905 Y61.9873 
G01 X-44.9375 Y61.8761 
G01 X-44.8039 Y61.7425 
G01 X-44.6927 Y61.5895 
G01 X-44.6216 Y61.4499 
G01 X-43.1155 Y61.4499 
G01 X-42.9909 Y61.4165 
G01 X-42.8792 Y61.3520 
G01 X-42.7880 Y61.2608 
G01 X-37.8971 Y56.3699 
G01 X-29.0384 Y56.3699 
G01 X-28.9673 Y56.5095 
G01 X-28.8561 Y56.6625 
G01 X-28.7225 Y56.7961 
G01 X-28.5695 Y56.9073 
G01 X-28.4011 Y56.9931 
G01 X-28.2213 Y57.0515 
G01 X-28.0345 Y57.0811 
G01 X-27.8455 Y57.0811 
G01 X-27.6587 Y57.0515 
G01 X-27.4789 Y56.9931 
G01 X-27.3105 Y56.9073 
G01 X-27.1575 Y56.7961 
G01 X-27.0239 Y56.6625 
G01 X-26.9127 Y56.5095 
G01 X-26.8416 Y56.3699 
G01 X-25.3355 Y56.3699 
G01 X-25.2109 Y56.3365 
G01 X-25.0992 Y56.2720 
G01 X-22.5592 Y53.7320 
G01 X-22.4680 Y53.6408 
G01 X-22.4035 Y53.5291 
G01 X-22.3701 Y53.4045 
G01 X-22.3701 Y49.3584 
G01 X-22.2305 Y49.2873 
G01 X-22.0775 Y49.1761 
G01 X-21.9439 Y49.0425 
G01 X-21.8327 Y48.8895 
G01 X-21.7469 Y48.7211 
G01 X-21.6885 Y48.5413 
G01 X-21.6589 Y48.3545 
G01 X-21.6589 Y48.1655 
G01 X-21.6885 Y47.9787 
G01 X-21.7469 Y47.7989 
G01 X-21.8327 Y47.6305 
G01 X-21.9439 Y47.4775 
G01 X-22.0775 Y47.3439 
G01 X-22.2305 Y47.2327 
G01 X-22.3989 Y47.1469 
G01 X-22.5787 Y47.0885 
G01 X-22.7655 Y47.0589 
G01 X-22.9545 Y47.0589 
G01 X-23.1413 Y47.0885 
G01 X-23.3211 Y47.1469 
G01 X-23.4895 Y47.2327 
G01 X-23.6425 Y47.3439 
G01 X-23.7761 Y47.4775 
G01 X-23.8873 Y47.6305 
G01 X-23.9731 Y47.7989 
G01 X-24.0315 Y47.9787 
G01 X-24.0611 Y48.1655 
G00 Z2.5000 
G00 X-21.5211 Y48.1655 
G01 Z-0.1250 F254.00 
G01 X-21.5211 Y48.3545 F400.00 
G01 X-21.4915 Y48.5413 
G01 X-21.4331 Y48.7211 
G01 X-21.3473 Y48.8895 
G01 X-21.2361 Y49.0425 
G01 X-21.1025 Y49.1761 
G01 X-20.9495 Y49.2873 
G01 X-20.8099 Y49.3584 
G01 X-20.8099 Y55.6771 
G01 X-23.0629 Y57.9301 
G01 X-26.8416 Y57.9301 
G01 X-26.9127 Y57.7905 
G01 X-27.0239 Y57.6375 
G01 X-27.1575 Y57.5038 
G01 X-27.3105 Y57.3927 
G01 X-27.4789 Y57.3069 
G01 X-27.6587 Y57.2485 
G01 X-27.8455 Y57.2189 
G01 X-28.0345 Y57.2189 
G01 X-28.2213 Y57.2485 
G01 X-28.4011 Y57.3069 
G01 X-28.5695 Y57.3927 
G01 X-28.7225 Y57.5038 
G01 X-28.8561 Y57.6375 
G01 X-28.9673 Y57.7905 
G01 X-29.0384 Y57.9301 
G01 X-38.1645 Y57.9301 
G01 X-38.2891 Y57.9635 
G01 X-38.4008 Y58.0280 
G01 X-40.2097 Y59.8369 
G01 X-40.3587 Y59.7885 
G01 X-40.5455 Y59.7589 
G01 X-40.7345 Y59.7589 
G01 X-40.9213 Y59.7885 
G01 X-41.1011 Y59.8469 
G01 X-41.2695 Y59.9327 
G01 X-41.4225 Y60.0439 
G01 X-41.5561 Y60.1775 
G01 X-41.6673 Y60.3305 
G01 X-41.7531 Y60.4989 
G01 X-41.8115 Y60.6787 
G01 X-41.8411 Y60.8655 
G01 X-41.8411 Y61.0545 
G01 X-41.8115 Y61.2413 
G01 X-41.7531 Y61.4211 
G01 X-41.6673 Y61.5895 
G01 X-41.5561 Y61.7425 
G01 X-41.4225 Y61.8761 
G01 X-41.2695 Y61.9873 
G01 X-41.1011 Y62.0731 
G01 X-40.9213 Y62.1315 
G01 X-40.7345 Y62.1611 
G01 X-40.5455 Y62.1611 
G01 X-40.3587 Y62.1315 
G01 X-40.1789 Y62.0731 
G01 X-40.0105 Y61.9873 
G01 X-39.8575 Y61.8761 
G01 X-39.7238 Y61.7425 
G01 X-39.6127 Y61.5895 
G01 X-39.5269 Y61.4211 
G01 X-39.4685 Y61.2413 
G01 X-39.4389 Y61.0545 
G01 X-39.4389 Y60.8655 
G01 X-39.4685 Y60.6787 
G01 X-39.5169 Y60.5297 
G01 X-37.8971 Y58.9099 
G01 X-29.0384 Y58.9099 
G01 X-28.9673 Y59.0495 
G01 X-28.8561 Y59.2025 
G01 X-28.7225 Y59.3361 
G01 X-28.5695 Y59.4473 
G01 X-28.4011 Y59.5331 
G01 X-28.2213 Y59.5915 
G01 X-28.0345 Y59.6211 
G01 X-27.8455 Y59.6211 
G01 X-27.6587 Y59.5915 
G01 X-27.4789 Y59.5331 
G01 X-27.3105 Y59.4473 
G01 X-27.1575 Y59.3361 
G01 X-27.0239 Y59.2025 
G01 X-26.9127 Y59.0495 
G01 X-26.8416 Y58.9099 
G01 X-22.7955 Y58.9099 
G01 X-22.6709 Y58.8765 
G01 X-22.5592 Y58.8120 
G01 X-20.0192 Y56.2720 
G01 X-19.9280 Y56.1808 
G01 X-19.8635 Y56.0691 
G01 X-19.8301 Y55.9445 
G01 X-19.8301 Y49.3584 
G01 X-19.6905 Y49.2873 
G01 X-19.5375 Y49.1761 
G01 X-19.4039 Y49.0425 
G01 X-19.2927 Y48.8895 
G01 X-19.2069 Y48.7211 
G01 X-19.1485 Y48.5413 
G01 X-19.1189 Y48.3545 
G01 X-19.1189 Y48.1655 
G01 X-19.1485 Y47.9787 
G01 X-19.2069 Y47.7989 
G01 X-19.2927 Y47.6305 
G01 X-19.4039 Y47.4775 
G01 X-19.5375 Y47.3439 
G01 X-19.6905 Y47.2327 
G01 X-19.8589 Y47.1469 
G01 X-20.0387 Y47.0885 
G01 X-20.2255 Y47.0589 
G01 X-20.4145 Y47.0589 
G01 X-20.6013 Y47.0885 
G01 X-20.7811 Y47.1469 
G01 X-20.9495 Y47.2327 
G01 X-21.1025 Y47.3439 
G01 X-21.2361 Y47.4775 
G01 X-21.3473 Y47.6305 
G01 X-21.4331 Y47.7989 
G01 X-21.4915 Y47.9787 
G01 X-21.5211 Y48.1655 
G00 Z2.5000 
G00 X-34.0473 Y69.2095 
G01 Z-0.1250 F254.00 
G01 X-33.9361 Y69.3625 F400.00 
G01 X-33.8025 Y69.4961 
G01 X-33.6495 Y69.6073 
G01 X-33.4811 Y69.6931 
G01 X-33.3013 Y69.7515 
G01 X-33.1145 Y69.7811 
G01 X-32.9255 Y69.7811 
G01 X-32.7387 Y69.7515 
G01 X-32.5589 Y69.6931 
G01 X-32.3905 Y69.6073 
G01 X-32.2375 Y69.4961 
G01 X-32.1039 Y69.3625 
G01 X-31.9927 Y69.2095 
G01 X-31.9216 Y69.0699 
G01 X-29.0384 Y69.0699 
G01 X-28.9673 Y69.2095 
G01 X-28.8561 Y69.3625 
G01 X-28.7225 Y69.4961 
G01 X-28.5695 Y69.6073 
G01 X-28.4011 Y69.6931 
G01 X-28.2213 Y69.7515 
G01 X-28.0345 Y69.7811 
G01 X-27.8455 Y69.7811 
G01 X-27.6587 Y69.7515 
G01 X-27.4789 Y69.6931 
G01 X-27.3105 Y69.6073 
G01 X-27.1575 Y69.4961 
G01 X-27.0239 Y69.3625 
G01 X-26.9127 Y69.2095 
G01 X-26.8269 Y69.0411 
G01 X-26.7685 Y68.8613 
G01 X-26.7389 Y68.6745 
G01 X-26.7389 Y68.4855 
G01 X-26.7685 Y68.2987 
G01 X-26.8269 Y68.1189 
G01 X-26.9127 Y67.9505 
G01 X-27.0239 Y67.7975 
G01 X-27.1575 Y67.6638 
G01 X-27.3105 Y67.5527 
G01 X-27.4789 Y67.4669 
G01 X-27.6587 Y67.4085 
G01 X-27.8455 Y67.3789 
G01 X-28.0345 Y67.3789 
G01 X-28.2213 Y67.4085 
G01 X-28.4011 Y67.4669 
G01 X-28.5695 Y67.5527 
G01 X-28.7225 Y67.6638 
G01 X-28.8561 Y67.7975 
G01 X-28.9673 Y67.9505 
G01 X-29.0384 Y68.0901 
G01 X-31.9216 Y68.0901 
G01 X-31.9927 Y67.9505 
G01 X-32.1039 Y67.7975 
G01 X-32.2375 Y67.6638 
G01 X-32.3905 Y67.5527 
G01 X-32.5589 Y67.4669 
G01 X-32.7387 Y67.4085 
G01 X-32.9255 Y67.3789 
G01 X-33.1145 Y67.3789 
G01 X-33.3013 Y67.4085 
G01 X-33.4811 Y67.4669 
G01 X-33.6495 Y67.5527 
G01 X-33.8025 Y67.6638 
G01 X-33.9361 Y67.7975 
G01 X-34.0473 Y67.9505 
G01 X-34.1184 Y68.0901 
G01 X-34.4616 Y68.0901 
G01 X-34.5327 Y67.9505 
G01 X-34.6439 Y67.7975 
G01 X-34.7775 Y67.6638 
G01 X-34.9305 Y67.5527 
G01 X-35.0989 Y67.4669 
G01 X-35.2787 Y67.4085 
G01 X-35.4655 Y67.3789 
G01 X-35.6545 Y67.3789 
G01 X-35.8413 Y67.4085 
G01 X-36.0211 Y67.4669 
G01 X-36.1895 Y67.5527 
G01 X-36.3425 Y67.6638 
G01 X-36.4761 Y67.7975 
G01 X-36.5873 Y67.9505 
G01 X-36.6731 Y68.1189 
G01 X-36.7315 Y68.2987 
G01 X-36.7611 Y68.4855 
G01 X-36.7611 Y68.6745 
G01 X-36.7315 Y68.8613 
G01 X-36.6731 Y69.0411 
G01 X-36.5873 Y69.2095 
G01 X-36.4761 Y69.3625 
G01 X-36.3425 Y69.4961 
G01 X-36.1895 Y69.6073 
G01 X-36.0211 Y69.6931 
G01 X-35.8413 Y69.7515 
G01 X-35.6545 Y69.7811 
G01 X-35.4655 Y69.7811 
G01 X-35.2787 Y69.7515 
G01 X-35.0989 Y69.6931 
G01 X-34.9305 Y69.6073 
G01 X-34.7775 Y69.4961 
G01 X-34.6439 Y69.3625 
G01 X-34.5327 Y69.2095 
G01 X-34.4616 Y69.0699 
G01 X-34.1184 Y69.0699 
G01 X-34.0473 Y69.2095 
G00 Z2.5000 
G00 X-13.9011 Y48.1655 
G01 Z-0.1250 F254.00 
G01 X-13.9011 Y48.3545 F400.00 
G01 X-13.8715 Y48.5413 
G01 X-13.8131 Y48.7211 
G01 X-13.7273 Y48.8895 
G01 X-13.6161 Y49.0425 
G01 X-13.4825 Y49.1761 
G01 X-13.3295 Y49.2873 
G01 X-13.1899 Y49.3584 
G01 X-13.1899 Y55.6771 
G01 X-20.7120 Y63.1992 
G01 X-20.7765 Y63.3109 
G01 X-20.8099 Y63.4355 
G01 X-20.8099 Y73.4571 
G01 X-25.6029 Y78.2501 
G01 X-26.8416 Y78.2501 
G01 X-26.9127 Y78.1105 
G01 X-27.0239 Y77.9575 
G01 X-27.1575 Y77.8239 
G01 X-27.3105 Y77.7127 
G01 X-27.4789 Y77.6269 
G01 X-27.6587 Y77.5685 
G01 X-27.8455 Y77.5389 
G01 X-28.0345 Y77.5389 
G01 X-28.2213 Y77.5685 
G01 X-28.4011 Y77.6269 
G01 X-28.5695 Y77.7127 
G01 X-28.7225 Y77.8239 
G01 X-28.8561 Y77.9575 
G01 X-28.9673 Y78.1105 
G01 X-29.0384 Y78.2501 
G01 X-30.2771 Y78.2501 
G01 X-32.6280 Y75.8992 
G01 X-32.7192 Y75.8080 
G01 X-32.8309 Y75.7435 
G01 X-32.9555 Y75.7101 
G01 X-44.6216 Y75.7101 
G01 X-44.6927 Y75.5705 
G01 X-44.8039 Y75.4175 
G01 X-44.9375 Y75.2839 
G01 X-45.0905 Y75.1727 
G01 X-45.2589 Y75.0869 
G01 X-45.4387 Y75.0285 
G01 X-45.6255 Y74.9989 
G01 X-45.8145 Y74.9989 
G01 X-46.0013 Y75.0285 
G01 X-46.1811 Y75.0869 
G01 X-46.3495 Y75.1727 
G01 X-46.5025 Y75.2839 
G01 X-46.6361 Y75.4175 
G01 X-46.7473 Y75.5705 
G01 X-46.8331 Y75.7389 
G01 X-46.8915 Y75.9187 
G01 X-46.9211 Y76.1055 
G01 X-46.9211 Y76.2945 
G01 X-46.8915 Y76.4813 
G01 X-46.8331 Y76.6611 
G01 X-46.7473 Y76.8295 
G01 X-46.6361 Y76.9825 
G01 X-46.5025 Y77.1161 
G01 X-46.3495 Y77.2273 
G01 X-46.1811 Y77.3131 
G01 X-46.0013 Y77.3715 
G01 X-45.8145 Y77.4011 
G01 X-45.6255 Y77.4011 
G01 X-45.4387 Y77.3715 
G01 X-45.2589 Y77.3131 
G01 X-45.0905 Y77.2273 
G01 X-44.9375 Y77.1161 
G01 X-44.8039 Y76.9825 
G01 X-44.6927 Y76.8295 
G01 X-44.6216 Y76.6899 
G01 X-33.2229 Y76.6899 
G01 X-30.8720 Y79.0408 
G01 X-30.7808 Y79.1320 
G01 X-30.6691 Y79.1965 
G01 X-30.5445 Y79.2299 
G01 X-29.0384 Y79.2299 
G01 X-28.9673 Y79.3695 
G01 X-28.8561 Y79.5225 
G01 X-28.7225 Y79.6561 
G01 X-28.5695 Y79.7673 
G01 X-28.4011 Y79.8531 
G01 X-28.2213 Y79.9115 
G01 X-28.0345 Y79.9411 
G01 X-27.8455 Y79.9411 
G01 X-27.6587 Y79.9115 
G01 X-27.4789 Y79.8531 
G01 X-27.3105 Y79.7673 
G01 X-27.1575 Y79.6561 
G01 X-27.0239 Y79.5225 
G01 X-26.9127 Y79.3695 
G01 X-26.8416 Y79.2299 
G01 X-25.3355 Y79.2299 
G01 X-25.2109 Y79.1965 
G01 X-25.0992 Y79.1320 
G01 X-20.0192 Y74.0520 
G01 X-19.9280 Y73.9608 
G01 X-19.8635 Y73.8491 
G01 X-19.8301 Y73.7245 
G01 X-19.8301 Y63.7029 
G01 X-12.3992 Y56.2720 
G01 X-12.3080 Y56.1808 
G01 X-12.2435 Y56.0691 
G01 X-12.2101 Y55.9445 
G01 X-12.2101 Y49.3584 
G01 X-12.0705 Y49.2873 
G01 X-11.9175 Y49.1761 
G01 X-11.7839 Y49.0425 
G01 X-11.6727 Y48.8895 
G01 X-11.5869 Y48.7211 
G01 X-11.5285 Y48.5413 
G01 X-11.4989 Y48.3545 
G01 X-11.4989 Y48.1655 
G01 X-11.5285 Y47.9787 
G01 X-11.5869 Y47.7989 
G01 X-11.6727 Y47.6305 
G01 X-11.7839 Y47.4775 
G01 X-11.9175 Y47.3439 
G01 X-12.0705 Y47.2327 
G01 X-12.2389 Y47.1469 
G01 X-12.4187 Y47.0885 
G01 X-12.6055 Y47.0589 
G01 X-12.7945 Y47.0589 
G01 X-12.9813 Y47.0885 
G01 X-13.1611 Y47.1469 
G01 X-13.3295 Y47.2327 
G01 X-13.4825 Y47.3439 
G01 X-13.6161 Y47.4775 
G01 X-13.7273 Y47.6305 
G01 X-13.8131 Y47.7989 
G01 X-13.8715 Y47.9787 
G01 X-13.9011 Y48.1655 
G00 Z2.5000 
G00 X-16.4411 Y48.1655 
G01 Z-0.1250 F254.00 
G01 X-16.4411 Y48.3545 F400.00 
G01 X-16.4115 Y48.5413 
G01 X-16.3531 Y48.7211 
G01 X-16.2673 Y48.8895 
G01 X-16.1561 Y49.0425 
G01 X-16.0225 Y49.1761 
G01 X-15.8695 Y49.2873 
G01 X-15.7299 Y49.3584 
G01 X-15.7299 Y55.6771 
G01 X-23.2520 Y63.1992 
G01 X-23.3165 Y63.3109 
G01 X-23.3499 Y63.4355 
G01 X-23.3499 Y73.4571 
G01 X-25.6029 Y75.7101 
G01 X-26.8416 Y75.7101 
G01 X-26.9127 Y75.5705 
G01 X-27.0239 Y75.4175 
G01 X-27.1575 Y75.2839 
G01 X-27.3105 Y75.1727 
G01 X-27.4789 Y75.0869 
G01 X-27.6587 Y75.0285 
G01 X-27.8455 Y74.9989 
G01 X-28.0345 Y74.9989 
G01 X-28.2213 Y75.0285 
G01 X-28.4011 Y75.0869 
G01 X-28.5695 Y75.1727 
G01 X-28.7225 Y75.2839 
G01 X-28.8561 Y75.4175 
G01 X-28.9673 Y75.5705 
G01 X-29.0384 Y75.7101 
G01 X-30.2771 Y75.7101 
G01 X-32.7192 Y73.2680 
G01 X-32.8309 Y73.2035 
G01 X-32.9555 Y73.1701 
G01 X-44.6216 Y73.1701 
G01 X-44.6927 Y73.0305 
G01 X-44.8039 Y72.8775 
G01 X-44.9375 Y72.7439 
G01 X-45.0905 Y72.6327 
G01 X-45.2589 Y72.5469 
G01 X-45.4387 Y72.4885 
G01 X-45.6255 Y72.4589 
G01 X-45.8145 Y72.4589 
G01 X-46.0013 Y72.4885 
G01 X-46.1811 Y72.5469 
G01 X-46.3495 Y72.6327 
G01 X-46.5025 Y72.7439 
G01 X-46.6361 Y72.8775 
G01 X-46.7473 Y73.0305 
G01 X-46.8331 Y73.1989 
G01 X-46.8915 Y73.3787 
G01 X-46.9211 Y73.5655 
G01 X-46.9211 Y73.7545 
G01 X-46.8915 Y73.9413 
G01 X-46.8331 Y74.1211 
G01 X-46.7473 Y74.2895 
G01 X-46.6361 Y74.4425 
G01 X-46.5025 Y74.5761 
G01 X-46.3495 Y74.6873 
G01 X-46.1811 Y74.7731 
G01 X-46.0013 Y74.8315 
G01 X-45.8145 Y74.8611 
G01 X-45.6255 Y74.8611 
G01 X-45.4387 Y74.8315 
G01 X-45.2589 Y74.7731 
G01 X-45.0905 Y74.6873 
G01 X-44.9375 Y74.5761 
G01 X-44.8039 Y74.4425 
G01 X-44.6927 Y74.2895 
G01 X-44.6216 Y74.1499 
G01 X-33.2229 Y74.1499 
G01 X-30.8720 Y76.5008 
G01 X-30.7808 Y76.5920 
G01 X-30.6691 Y76.6565 
G01 X-30.5445 Y76.6899 
G01 X-29.0384 Y76.6899 
G01 X-28.9673 Y76.8295 
G01 X-28.8561 Y76.9825 
G01 X-28.7225 Y77.1161 
G01 X-28.5695 Y77.2273 
G01 X-28.4011 Y77.3131 
G01 X-28.2213 Y77.3715 
G01 X-28.0345 Y77.4011 
G01 X-27.8455 Y77.4011 
G01 X-27.6587 Y77.3715 
G01 X-27.4789 Y77.3131 
G01 X-27.3105 Y77.2273 
G01 X-27.1575 Y77.1161 
G01 X-27.0239 Y76.9825 
G01 X-26.9127 Y76.8295 
G01 X-26.8416 Y76.6899 
G01 X-25.3355 Y76.6899 
G01 X-25.2109 Y76.6565 
G01 X-25.0992 Y76.5920 
G01 X-22.4680 Y73.9608 
G01 X-22.4035 Y73.8491 
G01 X-22.3701 Y73.7245 
G01 X-22.3701 Y63.7029 
G01 X-14.9392 Y56.2720 
G01 X-14.8480 Y56.1808 
G01 X-14.7835 Y56.0691 
G01 X-14.7501 Y55.9445 
G01 X-14.7501 Y49.3584 
G01 X-14.6105 Y49.2873 
G01 X-14.4575 Y49.1761 
G01 X-14.3239 Y49.0425 
G01 X-14.2127 Y48.8895 
G01 X-14.1269 Y48.7211 
G01 X-14.0685 Y48.5413 
G01 X-14.0389 Y48.3545 
G01 X-14.0389 Y48.1655 
G01 X-14.0685 Y47.9787 
G01 X-14.1269 Y47.7989 
G01 X-14.2127 Y47.6305 
G01 X-14.3239 Y47.4775 
G01 X-14.4575 Y47.3439 
G01 X-14.6105 Y47.2327 
G01 X-14.7789 Y47.1469 
G01 X-14.9587 Y47.0885 
G01 X-15.1455 Y47.0589 
G01 X-15.3345 Y47.0589 
G01 X-15.5213 Y47.0885 
G01 X-15.7011 Y47.1469 
G01 X-15.8695 Y47.2327 
G01 X-16.0225 Y47.3439 
G01 X-16.1561 Y47.4775 
G01 X-16.2673 Y47.6305 
G01 X-16.3531 Y47.7989 
G01 X-16.4115 Y47.9787 
G01 X-16.4411 Y48.1655 
G00 Z2.5000 
G00 X-29.1411 Y73.5655 
G01 Z-0.1250 F254.00 
G01 X-29.1411 Y73.7545 F400.00 
G01 X-29.1115 Y73.9413 
G01 X-29.0531 Y74.1211 
G01 X-28.9673 Y74.2895 
G01 X-28.8561 Y74.4425 
G01 X-28.7225 Y74.5761 
G01 X-28.5695 Y74.6873 
G01 X-28.4011 Y74.7731 
G01 X-28.2213 Y74.8315 
G01 X-28.0345 Y74.8611 
G01 X-27.8455 Y74.8611 
G01 X-27.6587 Y74.8315 
G01 X-27.4789 Y74.7731 
G01 X-27.3105 Y74.6873 
G01 X-27.1575 Y74.5761 
G01 X-27.0239 Y74.4425 
G01 X-26.9127 Y74.2895 
G01 X-26.8269 Y74.1211 
G01 X-26.7685 Y73.9413 
G01 X-26.7389 Y73.7545 
G01 X-26.7389 Y73.5655 
G01 X-26.7685 Y73.3787 
G01 X-26.8269 Y73.1989 
G01 X-26.9127 Y73.0305 
G01 X-27.0239 Y72.8775 
G01 X-27.1575 Y72.7439 
G01 X-27.3105 Y72.6327 
G01 X-27.4501 Y72.5616 
G01 X-27.4501 Y72.3211 
G01 X-26.8261 Y72.3211 
G01 X-26.7861 Y72.3045 
G01 X-26.7555 Y72.2739 
G01 X-26.7389 Y72.2339 
G01 X-26.7389 Y70.0061 
G01 X-26.7555 Y69.9661 
G01 X-26.7861 Y69.9355 
G01 X-26.8261 Y69.9189 
G01 X-29.0539 Y69.9189 
G01 X-29.0939 Y69.9355 
G01 X-29.1245 Y69.9661 
G01 X-29.1411 Y70.0061 
G01 X-29.1411 Y70.6301 
G01 X-29.3816 Y70.6301 
G01 X-29.4527 Y70.4905 
G01 X-29.5639 Y70.3375 
G01 X-29.6975 Y70.2039 
G01 X-29.8505 Y70.0927 
G01 X-30.0189 Y70.0069 
G01 X-30.1987 Y69.9485 
G01 X-30.3855 Y69.9189 
G01 X-30.5745 Y69.9189 
G01 X-30.7613 Y69.9485 
G01 X-30.9411 Y70.0069 
G01 X-31.1095 Y70.0927 
G01 X-31.2625 Y70.2039 
G01 X-31.3961 Y70.3375 
G01 X-31.5073 Y70.4905 
G01 X-31.5931 Y70.6589 
G01 X-31.6515 Y70.8387 
G01 X-31.6811 Y71.0255 
G01 X-31.6811 Y71.2145 
G01 X-31.6515 Y71.4013 
G01 X-31.5931 Y71.5811 
G01 X-31.5073 Y71.7495 
G01 X-31.3961 Y71.9025 
G01 X-31.2625 Y72.0361 
G01 X-31.1095 Y72.1473 
G01 X-30.9411 Y72.2331 
G01 X-30.7613 Y72.2915 
G01 X-30.5745 Y72.3211 
G01 X-30.3855 Y72.3211 
G01 X-30.1987 Y72.2915 
G01 X-30.0189 Y72.2331 
G01 X-29.8505 Y72.1473 
G01 X-29.6975 Y72.0361 
G01 X-29.5639 Y71.9025 
G01 X-29.4527 Y71.7495 
G01 X-29.3816 Y71.6099 
G01 X-29.1411 Y71.6099 
G01 X-29.1411 Y72.2339 
G01 X-29.1245 Y72.2739 
G01 X-29.0939 Y72.3045 
G01 X-29.0539 Y72.3211 
G01 X-28.4299 Y72.3211 
G01 X-28.4299 Y72.5616 
G01 X-28.5695 Y72.6327 
G01 X-28.7225 Y72.7439 
G01 X-28.8561 Y72.8775 
G01 X-28.9673 Y73.0305 
G01 X-29.0531 Y73.1989 
G01 X-29.1115 Y73.3787 
G01 X-29.1411 Y73.5655 
G00 Z2.5000 
G00 X-29.1411 Y59.8461 
G01 Z-0.1250 F254.00 
G01 X-29.1411 Y60.4701 F400.00 
G01 X-37.0016 Y60.4701 
G01 X-37.0727 Y60.3305 
G01 X-37.1838 Y60.1775 
G01 X-37.3175 Y60.0439 
G01 X-37.4705 Y59.9327 
G01 X-37.6389 Y59.8469 
G01 X-37.8187 Y59.7885 
G01 X-38.0055 Y59.7589 
G01 X-38.1945 Y59.7589 
G01 X-38.3813 Y59.7885 
G01 X-38.5611 Y59.8469 
G01 X-38.7295 Y59.9327 
G01 X-38.8825 Y60.0439 
G01 X-39.0161 Y60.1775 
G01 X-39.1273 Y60.3305 
G01 X-39.2131 Y60.4989 
G01 X-39.2715 Y60.6787 
G01 X-39.3011 Y60.8655 
G01 X-39.3011 Y61.0545 
G01 X-39.2715 Y61.2413 
G01 X-39.2131 Y61.4211 
G01 X-39.1273 Y61.5895 
G01 X-39.0161 Y61.7425 
G01 X-38.8825 Y61.8761 
G01 X-38.7295 Y61.9873 
G01 X-38.5611 Y62.0731 
G01 X-38.3813 Y62.1315 
G01 X-38.1945 Y62.1611 
G01 X-38.0055 Y62.1611 
G01 X-37.8187 Y62.1315 
G01 X-37.6389 Y62.0731 
G01 X-37.4705 Y61.9873 
G01 X-37.3175 Y61.8761 
G01 X-37.1838 Y61.7425 
G01 X-37.0727 Y61.5895 
G01 X-37.0016 Y61.4499 
G01 X-29.1411 Y61.4499 
G01 X-29.1411 Y62.0739 
G01 X-29.1245 Y62.1139 
G01 X-29.0939 Y62.1445 
G01 X-29.0539 Y62.1611 
G01 X-26.8261 Y62.1611 
G01 X-26.7861 Y62.1445 
G01 X-26.7555 Y62.1139 
G01 X-26.7389 Y62.0739 
G01 X-26.7389 Y61.4499 
G01 X-22.7955 Y61.4499 
G01 X-22.6709 Y61.4165 
G01 X-22.5592 Y61.3520 
G01 X-17.4792 Y56.2720 
G01 X-17.3880 Y56.1808 
G01 X-17.3235 Y56.0691 
G01 X-17.2901 Y55.9445 
G01 X-17.2901 Y49.3584 
G01 X-17.1505 Y49.2873 
G01 X-16.9975 Y49.1761 
G01 X-16.8638 Y49.0425 
G01 X-16.7527 Y48.8895 
G01 X-16.6669 Y48.7211 
G01 X-16.6085 Y48.5413 
G01 X-16.5789 Y48.3545 
G01 X-16.5789 Y48.1655 
G01 X-16.6085 Y47.9787 
G01 X-16.6669 Y47.7989 
G01 X-16.7527 Y47.6305 
G01 X-16.8638 Y47.4775 
G01 X-16.9975 Y47.3439 
G01 X-17.1505 Y47.2327 
G01 X-17.3189 Y47.1469 
G01 X-17.4987 Y47.0885 
G01 X-17.6855 Y47.0589 
G01 X-17.8745 Y47.0589 
G01 X-18.0613 Y47.0885 
G01 X-18.2411 Y47.1469 
G01 X-18.4095 Y47.2327 
G01 X-18.5625 Y47.3439 
G01 X-18.6961 Y47.4775 
G01 X-18.8073 Y47.6305 
G01 X-18.8931 Y47.7989 
G01 X-18.9515 Y47.9787 
G01 X-18.9811 Y48.1655 
G01 X-18.9811 Y48.3545 
G01 X-18.9515 Y48.5413 
G01 X-18.8931 Y48.7211 
G01 X-18.8073 Y48.8895 
G01 X-18.6961 Y49.0425 
G01 X-18.5625 Y49.1761 
G01 X-18.4095 Y49.2873 
G01 X-18.2699 Y49.3584 
G01 X-18.2699 Y55.6771 
G01 X-23.0629 Y60.4701 
G01 X-26.7389 Y60.4701 
G01 X-26.7389 Y59.8461 
G01 X-26.7555 Y59.8061 
G01 X-26.7861 Y59.7755 
G01 X-26.8261 Y59.7589 
G01 X-29.0539 Y59.7589 
G01 X-29.0939 Y59.7755 
G01 X-29.1245 Y59.8061 
G01 X-29.1411 Y59.8461 
G00 Z2.5000 
G00 X-28.9673 Y64.1295 
G01 Z-0.1250 F254.00 
G01 X-28.8561 Y64.2825 F400.00 
G01 X-28.7225 Y64.4161 
G01 X-28.5695 Y64.5273 
G01 X-28.4011 Y64.6131 
G01 X-28.2213 Y64.6715 
G01 X-28.0345 Y64.7011 
G01 X-27.8455 Y64.7011 
G01 X-27.6587 Y64.6715 
G01 X-27.4789 Y64.6131 
G01 X-27.3105 Y64.5273 
G01 X-27.1575 Y64.4161 
G01 X-27.0239 Y64.2825 
G01 X-26.9127 Y64.1295 
G01 X-26.8269 Y63.9611 
G01 X-26.7685 Y63.7813 
G01 X-26.7389 Y63.5945 
G01 X-26.7389 Y63.4055 
G01 X-26.7685 Y63.2187 
G01 X-26.8269 Y63.0389 
G01 X-26.9127 Y62.8705 
G01 X-27.0239 Y62.7175 
G01 X-27.1575 Y62.5839 
G01 X-27.3105 Y62.4727 
G01 X-27.4789 Y62.3869 
G01 X-27.6587 Y62.3285 
G01 X-27.8455 Y62.2989 
G01 X-28.0345 Y62.2989 
G01 X-28.2213 Y62.3285 
G01 X-28.4011 Y62.3869 
G01 X-28.5695 Y62.4727 
G01 X-28.7225 Y62.5839 
G01 X-28.8561 Y62.7175 
G01 X-28.9673 Y62.8705 
G01 X-29.0384 Y63.0101 
G01 X-31.9216 Y63.0101 
G01 X-31.9927 Y62.8705 
G01 X-32.1039 Y62.7175 
G01 X-32.2375 Y62.5839 
G01 X-32.3905 Y62.4727 
G01 X-32.5589 Y62.3869 
G01 X-32.7387 Y62.3285 
G01 X-32.9255 Y62.2989 
G01 X-33.1145 Y62.2989 
G01 X-33.3013 Y62.3285 
G01 X-33.4811 Y62.3869 
G01 X-33.6495 Y62.4727 
G01 X-33.8025 Y62.5839 
G01 X-33.9361 Y62.7175 
G01 X-34.0473 Y62.8705 
G01 X-34.1184 Y63.0101 
G01 X-44.6216 Y63.0101 
G01 X-44.6927 Y62.8705 
G01 X-44.8039 Y62.7175 
G01 X-44.9375 Y62.5839 
G01 X-45.0905 Y62.4727 
G01 X-45.2589 Y62.3869 
G01 X-45.4387 Y62.3285 
G01 X-45.6255 Y62.2989 
G01 X-45.8145 Y62.2989 
G01 X-46.0013 Y62.3285 
G01 X-46.1811 Y62.3869 
G01 X-46.3495 Y62.4727 
G01 X-46.5025 Y62.5839 
G01 X-46.6361 Y62.7175 
G01 X-46.7473 Y62.8705 
G01 X-46.8331 Y63.0389 
G01 X-46.8915 Y63.2187 
G01 X-46.9211 Y63.4055 
G01 X-46.9211 Y63.5945 
G01 X-46.8915 Y63.7813 
G01 X-46.8331 Y63.9611 
G01 X-46.7473 Y64.1295 
G01 X-46.6361 Y64.2825 
G01 X-46.5025 Y64.4161 
G01 X-46.3495 Y64.5273 
G01 X-46.1811 Y64.6131 
G01 X-46.0013 Y64.6715 
G01 X-45.8145 Y64.7011 
G01 X-45.6255 Y64.7011 
G01 X-45.4387 Y64.6715 
G01 X-45.2589 Y64.6131 
G01 X-45.0905 Y64.5273 
G01 X-44.9375 Y64.4161 
G01 X-44.8039 Y64.2825 
G01 X-44.6927 Y64.1295 
G01 X-44.6216 Y63.9899 
G01 X-34.1184 Y63.9899 
G01 X-34.0473 Y64.1295 
G01 X-33.9361 Y64.2825 
G01 X-33.8025 Y64.4161 
G01 X-33.6495 Y64.5273 
G01 X-33.4811 Y64.6131 
G01 X-33.3013 Y64.6715 
G01 X-33.1145 Y64.7011 
G01 X-32.9255 Y64.7011 
G01 X-32.7387 Y64.6715 
G01 X-32.5589 Y64.6131 
G01 X-32.3905 Y64.5273 
G01 X-32.2375 Y64.4161 
G01 X-32.1039 Y64.2825 
G01 X-31.9927 Y64.1295 
G01 X-31.9216 Y63.9899 
G01 X-29.0384 Y63.9899 
G01 X-28.9673 Y64.1295 
G00 Z2.5000 
G00 X-64.7011 Y17.6855 
G01 Z-0.1250 F254.00 
G01 X-64.7011 Y17.8745 F400.00 
G01 X-64.6715 Y18.0613 
G01 X-64.6131 Y18.2411 
G01 X-64.5273 Y18.4095 
G01 X-64.4161 Y18.5625 
G01 X-64.2825 Y18.6961 
G01 X-64.1295 Y18.8073 
G01 X-63.9611 Y18.8931 
G01 X-63.7813 Y18.9515 
G01 X-63.5945 Y18.9811 
G01 X-63.4055 Y18.9811 
G01 X-63.2187 Y18.9515 
G01 X-63.0389 Y18.8931 
G01 X-62.8705 Y18.8073 
G01 X-62.7175 Y18.6961 
G01 X-62.5839 Y18.5625 
G01 X-62.4727 Y18.4095 
G01 X-62.3869 Y18.2411 
G01 X-62.3285 Y18.0613 
G01 X-62.2989 Y17.8745 
G01 X-62.2989 Y17.6855 
G01 X-62.3285 Y17.4987 
G01 X-62.3869 Y17.3189 
G01 X-62.4727 Y17.1505 
G01 X-62.5839 Y16.9975 
G01 X-62.7175 Y16.8638 
G01 X-62.8705 Y16.7527 
G01 X-62.9893 Y16.6922 
G01 X-62.0271 Y15.7299 
G01 X-61.1629 Y15.7299 
G01 X-56.2720 Y20.6208 
G01 X-56.1808 Y20.7120 
G01 X-56.0691 Y20.7765 
G01 X-55.9445 Y20.8099 
G01 X-54.4384 Y20.8099 
G01 X-54.3673 Y20.9495 
G01 X-54.2561 Y21.1025 
G01 X-54.1225 Y21.2361 
G01 X-53.9695 Y21.3473 
G01 X-53.8011 Y21.4331 
G01 X-53.6213 Y21.4915 
G01 X-53.4345 Y21.5211 
G01 X-53.2455 Y21.5211 
G01 X-53.0587 Y21.4915 
G01 X-52.8789 Y21.4331 
G01 X-52.7105 Y21.3473 
G01 X-52.5575 Y21.2361 
G01 X-52.4239 Y21.1025 
G01 X-52.3127 Y20.9495 
G01 X-52.2416 Y20.8099 
G01 X-40.8429 Y20.8099 
G01 X-33.5099 Y28.1429 
G01 X-33.5099 Y31.9216 
G01 X-33.6495 Y31.9927 
G01 X-33.8025 Y32.1039 
G01 X-33.9361 Y32.2375 
G01 X-34.0473 Y32.3905 
G01 X-34.1331 Y32.5589 
G01 X-34.1915 Y32.7387 
G01 X-34.2211 Y32.9255 
G01 X-34.2211 Y33.1145 
G01 X-34.1915 Y33.3013 
G01 X-34.1331 Y33.4811 
G01 X-34.0473 Y33.6495 
G01 X-33.9361 Y33.8025 
G01 X-33.8025 Y33.9361 
G01 X-33.6495 Y34.0473 
G01 X-33.4811 Y34.1331 
G01 X-33.3013 Y34.1915 
G01 X-33.1145 Y34.2211 
G01 X-32.9255 Y34.2211 
G01 X-32.7387 Y34.1915 
G01 X-32.5589 Y34.1331 
G01 X-32.3905 Y34.0473 
G01 X-32.2375 Y33.9361 
G01 X-32.1039 Y33.8025 
G01 X-31.9927 Y33.6495 
G01 X-31.9069 Y33.4811 
G01 X-31.8485 Y33.3013 
G01 X-31.8189 Y33.1145 
G01 X-31.8189 Y32.9255 
G01 X-31.8485 Y32.7387 
G01 X-31.9069 Y32.5589 
G01 X-31.9927 Y32.3905 
G01 X-32.1039 Y32.2375 
G01 X-32.2375 Y32.1039 
G01 X-32.3905 Y31.9927 
G01 X-32.5301 Y31.9216 
G01 X-32.5301 Y27.8755 
G01 X-32.5635 Y27.7509 
G01 X-32.6280 Y27.6392 
G01 X-32.7192 Y27.5480 
G01 X-40.3392 Y19.9280 
G01 X-40.4509 Y19.8635 
G01 X-40.5755 Y19.8301 
G01 X-52.2416 Y19.8301 
G01 X-52.3127 Y19.6905 
G01 X-52.4239 Y19.5375 
G01 X-52.5575 Y19.4039 
G01 X-52.7105 Y19.2927 
G01 X-52.8789 Y19.2069 
G01 X-53.0587 Y19.1485 
G01 X-53.2455 Y19.1189 
G01 X-53.4345 Y19.1189 
G01 X-53.6213 Y19.1485 
G01 X-53.8011 Y19.2069 
G01 X-53.9695 Y19.2927 
G01 X-54.1225 Y19.4039 
G01 X-54.2561 Y19.5375 
G01 X-54.3673 Y19.6905 
G01 X-54.4384 Y19.8301 
G01 X-55.6771 Y19.8301 
G01 X-60.6592 Y14.8480 
G01 X-60.7709 Y14.7835 
G01 X-60.8955 Y14.7501 
G01 X-62.2945 Y14.7501 
G01 X-62.4191 Y14.7835 
G01 X-62.5308 Y14.8480 
G01 X-62.6220 Y14.9392 
G01 X-63.8008 Y16.1180 
G01 X-63.8920 Y16.2092 
G01 X-63.9565 Y16.3209 
G01 X-63.9899 Y16.4455 
G01 X-63.9899 Y16.6816 
G01 X-64.1295 Y16.7527 
G01 X-64.2825 Y16.8638 
G01 X-64.4161 Y16.9975 
G01 X-64.5273 Y17.1505 
G01 X-64.6131 Y17.3189 
G01 X-64.6715 Y17.4987 
G01 X-64.7011 Y17.6855 
G00 Z2.5000 
G00 X-92.6411 Y68.4855 
G01 Z-0.1250 F254.00 
G01 X-92.6411 Y68.6745 F400.00 
G01 X-92.6115 Y68.8613 
G01 X-92.5531 Y69.0411 
G01 X-92.4673 Y69.2095 
G01 X-92.3561 Y69.3625 
G01 X-92.2225 Y69.4961 
G01 X-92.0695 Y69.6073 
G01 X-91.9011 Y69.6931 
G01 X-91.7213 Y69.7515 
G01 X-91.5345 Y69.7811 
G01 X-91.3455 Y69.7811 
G01 X-91.1587 Y69.7515 
G01 X-90.9789 Y69.6931 
G01 X-90.8105 Y69.6073 
G01 X-90.6575 Y69.4961 
G01 X-90.5239 Y69.3625 
G01 X-90.4127 Y69.2095 
G01 X-90.3269 Y69.0411 
G01 X-90.2685 Y68.8613 
G01 X-90.2389 Y68.6745 
G01 X-90.2389 Y68.4855 
G01 X-90.2685 Y68.2987 
G01 X-90.3269 Y68.1189 
G01 X-90.4127 Y67.9505 
G01 X-90.5239 Y67.7975 
G01 X-90.6575 Y67.6638 
G01 X-90.8105 Y67.5527 
G01 X-90.9789 Y67.4669 
G01 X-91.1587 Y67.4085 
G01 X-91.3455 Y67.3789 
G01 X-91.5345 Y67.3789 
G01 X-91.7213 Y67.4085 
G01 X-91.9011 Y67.4669 
G01 X-92.0695 Y67.5527 
G01 X-92.2225 Y67.6638 
G01 X-92.3561 Y67.7975 
G01 X-92.4673 Y67.9505 
G01 X-92.5531 Y68.1189 
G01 X-92.6115 Y68.2987 
G01 X-92.6411 Y68.4855 
G00 Z2.5000 
G00 X-90.3261 Y80.0789 
G01 Z-0.1250 F254.00 
G01 X-92.5539 Y80.0789 F400.00 
G01 X-92.5939 Y80.0955 
G01 X-92.6245 Y80.1261 
G01 X-92.6411 Y80.1661 
G01 X-92.6411 Y82.3939 
G01 X-92.6245 Y82.4339 
G01 X-92.5939 Y82.4645 
G01 X-92.5539 Y82.4811 
G01 X-90.3261 Y82.4811 
G01 X-90.2861 Y82.4645 
G01 X-90.2555 Y82.4339 
G01 X-90.2389 Y82.3939 
G01 X-90.2389 Y80.1661 
G01 X-90.2555 Y80.1261 
G01 X-90.2861 Y80.0955 
G01 X-90.3261 Y80.0789 
G00 Z2.5000 
G00 X-84.8473 Y79.3695 
G01 Z-0.1250 F254.00 
G01 X-84.7361 Y79.5225 F400.00 
G01 X-84.6025 Y79.6561 
G01 X-84.4495 Y79.7673 
G01 X-84.2811 Y79.8531 
G01 X-84.1013 Y79.9115 
G01 X-83.9145 Y79.9411 
G01 X-83.7255 Y79.9411 
G01 X-83.5387 Y79.9115 
G01 X-83.3589 Y79.8531 
G01 X-83.1905 Y79.7673 
G01 X-83.0375 Y79.6561 
G01 X-82.9039 Y79.5225 
G01 X-82.7927 Y79.3695 
G01 X-82.7216 Y79.2299 
G01 X-79.8384 Y79.2299 
G01 X-79.7673 Y79.3695 
G01 X-79.6561 Y79.5225 
G01 X-79.5225 Y79.6561 
G01 X-79.3695 Y79.7673 
G01 X-79.2011 Y79.8531 
G01 X-79.0213 Y79.9115 
G01 X-78.8345 Y79.9411 
G01 X-78.6455 Y79.9411 
G01 X-78.4587 Y79.9115 
G01 X-78.2789 Y79.8531 
G01 X-78.1105 Y79.7673 
G01 X-77.9575 Y79.6561 
G01 X-77.8239 Y79.5225 
G01 X-77.7127 Y79.3695 
G01 X-77.6269 Y79.2011 
G01 X-77.5685 Y79.0213 
G01 X-77.5389 Y78.8345 
G01 X-77.5389 Y78.6455 
G01 X-77.5685 Y78.4587 
G01 X-77.6269 Y78.2789 
G01 X-77.7127 Y78.1105 
G01 X-77.8239 Y77.9575 
G01 X-77.9575 Y77.8239 
G01 X-78.1105 Y77.7127 
G01 X-78.2789 Y77.6269 
G01 X-78.4587 Y77.5685 
G01 X-78.6455 Y77.5389 
G01 X-78.8345 Y77.5389 
G01 X-79.0213 Y77.5685 
G01 X-79.2011 Y77.6269 
G01 X-79.3695 Y77.7127 
G01 X-79.5225 Y77.8239 
G01 X-79.6561 Y77.9575 
G01 X-79.7673 Y78.1105 
G01 X-79.8384 Y78.2501 
G01 X-82.7216 Y78.2501 
G01 X-82.7927 Y78.1105 
G01 X-82.9039 Y77.9575 
G01 X-83.0375 Y77.8239 
G01 X-83.1905 Y77.7127 
G01 X-83.3589 Y77.6269 
G01 X-83.5387 Y77.5685 
G01 X-83.7255 Y77.5389 
G01 X-83.9145 Y77.5389 
G01 X-84.1013 Y77.5685 
G01 X-84.2811 Y77.6269 
G01 X-84.4495 Y77.7127 
G01 X-84.6025 Y77.8239 
G01 X-84.7361 Y77.9575 
G01 X-84.8473 Y78.1105 
G01 X-84.9184 Y78.2501 
G01 X-85.2616 Y78.2501 
G01 X-85.3327 Y78.1105 
G01 X-85.4438 Y77.9575 
G01 X-85.5775 Y77.8239 
G01 X-85.7305 Y77.7127 
G01 X-85.8989 Y77.6269 
G01 X-86.0787 Y77.5685 
G01 X-86.2655 Y77.5389 
G01 X-86.4545 Y77.5389 
G01 X-86.6413 Y77.5685 
G01 X-86.8211 Y77.6269 
G01 X-86.9895 Y77.7127 
G01 X-87.1425 Y77.8239 
G01 X-87.2761 Y77.9575 
G01 X-87.3873 Y78.1105 
G01 X-87.4584 Y78.2501 
G01 X-90.3416 Y78.2501 
G01 X-90.4127 Y78.1105 
G01 X-90.5239 Y77.9575 
G01 X-90.6575 Y77.8239 
G01 X-90.8105 Y77.7127 
G01 X-90.9789 Y77.6269 
G01 X-91.1587 Y77.5685 
G01 X-91.3455 Y77.5389 
G01 X-91.5345 Y77.5389 
G01 X-91.7213 Y77.5685 
G01 X-91.9011 Y77.6269 
G01 X-92.0695 Y77.7127 
G01 X-92.2225 Y77.8239 
G01 X-92.3561 Y77.9575 
G01 X-92.4673 Y78.1105 
G01 X-92.5531 Y78.2789 
G01 X-92.6115 Y78.4587 
G01 X-92.6411 Y78.6455 
G01 X-92.6411 Y78.8345 
G01 X-92.6115 Y79.0213 
G01 X-92.5531 Y79.2011 
G01 X-92.4673 Y79.3695 
G01 X-92.3561 Y79.5225 
G01 X-92.2225 Y79.6561 
G01 X-92.0695 Y79.7673 
G01 X-91.9011 Y79.8531 
G01 X-91.7213 Y79.9115 
G01 X-91.5345 Y79.9411 
G01 X-91.3455 Y79.9411 
G01 X-91.1587 Y79.9115 
G01 X-90.9789 Y79.8531 
G01 X-90.8105 Y79.7673 
G01 X-90.6575 Y79.6561 
G01 X-90.5239 Y79.5225 
G01 X-90.4127 Y79.3695 
G01 X-90.3416 Y79.2299 
G01 X-87.4584 Y79.2299 
G01 X-87.3873 Y79.3695 
G01 X-87.2761 Y79.5225 
G01 X-87.1425 Y79.6561 
G01 X-86.9895 Y79.7673 
G01 X-86.8211 Y79.8531 
G01 X-86.6413 Y79.9115 
G01 X-86.4545 Y79.9411 
G01 X-86.2655 Y79.9411 
G01 X-86.0787 Y79.9115 
G01 X-85.8989 Y79.8531 
G01 X-85.7305 Y79.7673 
G01 X-85.5775 Y79.6561 
G01 X-85.4438 Y79.5225 
G01 X-85.3327 Y79.3695 
G01 X-85.2616 Y79.2299 
G01 X-84.9184 Y79.2299 
G01 X-84.8473 Y79.3695 
G00 Z2.5000 
G00 X-82.4811 Y65.9455 
G01 Z-0.1250 F254.00 
G01 X-82.4811 Y66.1345 F400.00 
G01 X-82.4515 Y66.3213 
G01 X-82.3931 Y66.5011 
G01 X-82.3073 Y66.6695 
G01 X-82.1961 Y66.8225 
G01 X-82.0625 Y66.9561 
G01 X-81.9095 Y67.0673 
G01 X-81.7411 Y67.1531 
G01 X-81.5613 Y67.2115 
G01 X-81.3745 Y67.2411 
G01 X-81.1855 Y67.2411 
G01 X-80.9987 Y67.2115 
G01 X-80.8189 Y67.1531 
G01 X-80.6505 Y67.0673 
G01 X-80.4975 Y66.9561 
G01 X-80.3638 Y66.8225 
G01 X-80.2527 Y66.6695 
G01 X-80.1669 Y66.5011 
G01 X-80.1085 Y66.3213 
G01 X-80.0789 Y66.1345 
G01 X-80.0789 Y65.9455 
G01 X-80.1085 Y65.7587 
G01 X-80.1669 Y65.5789 
G01 X-80.2527 Y65.4105 
G01 X-80.3638 Y65.2575 
G01 X-80.4975 Y65.1239 
G01 X-80.6505 Y65.0127 
G01 X-80.8189 Y64.9269 
G01 X-80.9987 Y64.8685 
G01 X-81.1855 Y64.8389 
G01 X-81.3745 Y64.8389 
G01 X-81.5613 Y64.8685 
G01 X-81.7103 Y64.9169 
G01 X-85.8701 Y60.7571 
G01 X-85.8701 Y51.8984 
G01 X-85.7305 Y51.8273 
G01 X-85.5775 Y51.7161 
G01 X-85.4438 Y51.5825 
G01 X-85.3327 Y51.4295 
G01 X-85.2469 Y51.2611 
G01 X-85.1885 Y51.0813 
G01 X-85.1589 Y50.8945 
G01 X-85.1589 Y50.7055 
G01 X-85.1885 Y50.5187 
G01 X-85.2469 Y50.3389 
G01 X-85.3327 Y50.1705 
G01 X-85.4438 Y50.0175 
G01 X-85.5775 Y49.8839 
G01 X-85.7305 Y49.7727 
G01 X-85.8989 Y49.6869 
G01 X-86.0787 Y49.6285 
G01 X-86.2655 Y49.5989 
G01 X-86.4545 Y49.5989 
G01 X-86.6413 Y49.6285 
G01 X-86.8211 Y49.6869 
G01 X-86.9895 Y49.7727 
G01 X-87.1425 Y49.8839 
G01 X-87.2761 Y50.0175 
G01 X-87.3873 Y50.1705 
G01 X-87.4731 Y50.3389 
G01 X-87.5315 Y50.5187 
G01 X-87.5611 Y50.7055 
G01 X-87.5611 Y50.8945 
G01 X-87.5315 Y51.0813 
G01 X-87.4731 Y51.2611 
G01 X-87.3873 Y51.4295 
G01 X-87.2761 Y51.5825 
G01 X-87.1425 Y51.7161 
G01 X-86.9895 Y51.8273 
G01 X-86.8499 Y51.8984 
G01 X-86.8499 Y61.0245 
G01 X-86.8165 Y61.1491 
G01 X-86.7520 Y61.2608 
G01 X-86.6608 Y61.3520 
G01 X-82.4031 Y65.6097 
G01 X-82.4515 Y65.7587 
G01 X-82.4811 Y65.9455 
G00 Z2.5000 
G00 X-82.3073 Y76.8295 
G01 Z-0.1250 F254.00 
G01 X-82.1961 Y76.9825 F400.00 
G01 X-82.0625 Y77.1161 
G01 X-81.9095 Y77.2273 
G01 X-81.7411 Y77.3131 
G01 X-81.5613 Y77.3715 
G01 X-81.3745 Y77.4011 
G01 X-81.1855 Y77.4011 
G01 X-80.9987 Y77.3715 
G01 X-80.8189 Y77.3131 
G01 X-80.6505 Y77.2273 
G01 X-80.4975 Y77.1161 
G01 X-80.3638 Y76.9825 
G01 X-80.2527 Y76.8295 
G01 X-80.1669 Y76.6611 
G01 X-80.1085 Y76.4813 
G01 X-80.0789 Y76.2945 
G01 X-80.0789 Y76.1055 
G01 X-80.1085 Y75.9187 
G01 X-80.1669 Y75.7389 
G01 X-80.2527 Y75.5705 
G01 X-80.3638 Y75.4175 
G01 X-80.4975 Y75.2839 
G01 X-80.6505 Y75.1727 
G01 X-80.8189 Y75.0869 
G01 X-80.9987 Y75.0285 
G01 X-81.1855 Y74.9989 
G01 X-81.3745 Y74.9989 
G01 X-81.5613 Y75.0285 
G01 X-81.7411 Y75.0869 
G01 X-81.9095 Y75.1727 
G01 X-82.0625 Y75.2839 
G01 X-82.1961 Y75.4175 
G01 X-82.3073 Y75.5705 
G01 X-82.3784 Y75.7101 
G01 X-85.2616 Y75.7101 
G01 X-85.3327 Y75.5705 
G01 X-85.4438 Y75.4175 
G01 X-85.5775 Y75.2839 
G01 X-85.7305 Y75.1727 
G01 X-85.8989 Y75.0869 
G01 X-86.0787 Y75.0285 
G01 X-86.2655 Y74.9989 
G01 X-86.4545 Y74.9989 
G01 X-86.6413 Y75.0285 
G01 X-86.8211 Y75.0869 
G01 X-86.9895 Y75.1727 
G01 X-87.1425 Y75.2839 
G01 X-87.2761 Y75.4175 
G01 X-87.3873 Y75.5705 
G01 X-87.4584 Y75.7101 
G01 X-90.3416 Y75.7101 
G01 X-90.4127 Y75.5705 
G01 X-90.5239 Y75.4175 
G01 X-90.6575 Y75.2839 
G01 X-90.8105 Y75.1727 
G01 X-90.9789 Y75.0869 
G01 X-91.1587 Y75.0285 
G01 X-91.3455 Y74.9989 
G01 X-91.5345 Y74.9989 
G01 X-91.7213 Y75.0285 
G01 X-91.9011 Y75.0869 
G01 X-92.0695 Y75.1727 
G01 X-92.2225 Y75.2839 
G01 X-92.3561 Y75.4175 
G01 X-92.4673 Y75.5705 
G01 X-92.5531 Y75.7389 
G01 X-92.6115 Y75.9187 
G01 X-92.6411 Y76.1055 
G01 X-92.6411 Y76.2945 
G01 X-92.6115 Y76.4813 
G01 X-92.5531 Y76.6611 
G01 X-92.4673 Y76.8295 
G01 X-92.3561 Y76.9825 
G01 X-92.2225 Y77.1161 
G01 X-92.0695 Y77.2273 
G01 X-91.9011 Y77.3131 
G01 X-91.7213 Y77.3715 
G01 X-91.5345 Y77.4011 
G01 X-91.3455 Y77.4011 
G01 X-91.1587 Y77.3715 
G01 X-90.9789 Y77.3131 
G01 X-90.8105 Y77.2273 
G01 X-90.6575 Y77.1161 
G01 X-90.5239 Y76.9825 
G01 X-90.4127 Y76.8295 
G01 X-90.3416 Y76.6899 
G01 X-87.4584 Y76.6899 
G01 X-87.3873 Y76.8295 
G01 X-87.2761 Y76.9825 
G01 X-87.1425 Y77.1161 
G01 X-86.9895 Y77.2273 
G01 X-86.8211 Y77.3131 
G01 X-86.6413 Y77.3715 
G01 X-86.4545 Y77.4011 
G01 X-86.2655 Y77.4011 
G01 X-86.0787 Y77.3715 
G01 X-85.8989 Y77.3131 
G01 X-85.7305 Y77.2273 
G01 X-85.5775 Y77.1161 
G01 X-85.4438 Y76.9825 
G01 X-85.3327 Y76.8295 
G01 X-85.2616 Y76.6899 
G01 X-82.3784 Y76.6899 
G01 X-82.3073 Y76.8295 
G00 Z2.5000 
G00 X-87.3873 Y74.2895 
G01 Z-0.1250 F254.00 
G01 X-87.2761 Y74.4425 F400.00 
G01 X-87.1425 Y74.5761 
G01 X-86.9895 Y74.6873 
G01 X-86.8211 Y74.7731 
G01 X-86.6413 Y74.8315 
G01 X-86.4545 Y74.8611 
G01 X-86.2655 Y74.8611 
G01 X-86.0787 Y74.8315 
G01 X-85.8989 Y74.7731 
G01 X-85.7305 Y74.6873 
G01 X-85.5775 Y74.5761 
G01 X-85.4438 Y74.4425 
G01 X-85.3327 Y74.2895 
G01 X-85.2616 Y74.1499 
G01 X-78.6755 Y74.1499 
G01 X-78.5509 Y74.1165 
G01 X-78.4392 Y74.0520 
G01 X-78.3480 Y73.9608 
G01 X-78.2835 Y73.8491 
G01 X-78.2501 Y73.7245 
G01 X-78.2501 Y69.6784 
G01 X-78.1105 Y69.6073 
G01 X-77.9575 Y69.4961 
G01 X-77.8239 Y69.3625 
G01 X-77.7127 Y69.2095 
G01 X-77.6269 Y69.0411 
G01 X-77.5685 Y68.8613 
G01 X-77.5389 Y68.6745 
G01 X-77.5389 Y68.4855 
G01 X-77.5685 Y68.2987 
G01 X-77.6269 Y68.1189 
G01 X-77.7127 Y67.9505 
G01 X-77.8239 Y67.7975 
G01 X-77.9575 Y67.6638 
G01 X-78.1105 Y67.5527 
G01 X-78.2501 Y67.4816 
G01 X-78.2501 Y63.4355 
G01 X-78.2835 Y63.3109 
G01 X-78.3480 Y63.1992 
G01 X-78.4392 Y63.1080 
G01 X-83.3301 Y58.2171 
G01 X-83.3301 Y56.9784 
G01 X-83.1905 Y56.9073 
G01 X-83.0375 Y56.7961 
G01 X-82.9039 Y56.6625 
G01 X-82.7927 Y56.5095 
G01 X-82.7069 Y56.3411 
G01 X-82.6485 Y56.1613 
G01 X-82.6189 Y55.9745 
G01 X-82.6189 Y55.7855 
G01 X-82.6485 Y55.5987 
G01 X-82.7069 Y55.4189 
G01 X-82.7927 Y55.2505 
G01 X-82.9039 Y55.0975 
G01 X-83.0375 Y54.9639 
G01 X-83.1905 Y54.8527 
G01 X-83.3589 Y54.7669 
G01 X-83.5387 Y54.7085 
G01 X-83.7255 Y54.6789 
G01 X-83.9145 Y54.6789 
G01 X-84.1013 Y54.7085 
G01 X-84.2811 Y54.7669 
G01 X-84.4495 Y54.8527 
G01 X-84.6025 Y54.9639 
G01 X-84.7361 Y55.0975 
G01 X-84.8473 Y55.2505 
G01 X-84.9331 Y55.4189 
G01 X-84.9915 Y55.5987 
G01 X-85.0211 Y55.7855 
G01 X-85.0211 Y55.9745 
G01 X-84.9915 Y56.1613 
G01 X-84.9331 Y56.3411 
G01 X-84.8473 Y56.5095 
G01 X-84.7361 Y56.6625 
G01 X-84.6025 Y56.7961 
G01 X-84.4495 Y56.9073 
G01 X-84.3099 Y56.9784 
G01 X-84.3099 Y58.4845 
G01 X-84.2765 Y58.6091 
G01 X-84.2120 Y58.7208 
G01 X-84.1208 Y58.8120 
G01 X-79.2299 Y63.7029 
G01 X-79.2299 Y67.4816 
G01 X-79.3695 Y67.5527 
G01 X-79.5225 Y67.6638 
G01 X-79.6561 Y67.7975 
G01 X-79.7673 Y67.9505 
G01 X-79.8531 Y68.1189 
G01 X-79.9115 Y68.2987 
G01 X-79.9411 Y68.4855 
G01 X-79.9411 Y68.6745 
G01 X-79.9115 Y68.8613 
G01 X-79.8531 Y69.0411 
G01 X-79.7673 Y69.2095 
G01 X-79.6561 Y69.3625 
G01 X-79.5225 Y69.4961 
G01 X-79.3695 Y69.6073 
G01 X-79.2299 Y69.6784 
G01 X-79.2299 Y73.1701 
G01 X-85.2616 Y73.1701 
G01 X-85.3327 Y73.0305 
G01 X-85.4438 Y72.8775 
G01 X-85.5775 Y72.7439 
G01 X-85.7305 Y72.6327 
G01 X-85.8989 Y72.5469 
G01 X-86.0787 Y72.4885 
G01 X-86.2655 Y72.4589 
G01 X-86.4545 Y72.4589 
G01 X-86.6413 Y72.4885 
G01 X-86.8211 Y72.5469 
G01 X-86.9895 Y72.6327 
G01 X-87.1425 Y72.7439 
G01 X-87.2761 Y72.8775 
G01 X-87.3873 Y73.0305 
G01 X-87.4584 Y73.1701 
G01 X-90.3416 Y73.1701 
G01 X-90.4127 Y73.0305 
G01 X-90.5239 Y72.8775 
G01 X-90.6575 Y72.7439 
G01 X-90.8105 Y72.6327 
G01 X-90.9789 Y72.5469 
G01 X-91.1587 Y72.4885 
G01 X-91.3455 Y72.4589 
G01 X-91.5345 Y72.4589 
G01 X-91.7213 Y72.4885 
G01 X-91.9011 Y72.5469 
G01 X-92.0695 Y72.6327 
G01 X-92.2225 Y72.7439 
G01 X-92.3561 Y72.8775 
G01 X-92.4673 Y73.0305 
G01 X-92.5384 Y73.1701 
G01 X-96.3171 Y73.1701 
G01 X-98.5701 Y70.9171 
G01 X-98.5701 Y53.2755 
G01 X-98.6035 Y53.1509 
G01 X-98.6680 Y53.0392 
G01 X-98.7592 Y52.9480 
G01 X-101.2992 Y50.4080 
G01 X-101.4109 Y50.3435 
G01 X-101.5355 Y50.3101 
G01 X-108.1216 Y50.3101 
G01 X-108.1927 Y50.1705 
G01 X-108.3039 Y50.0175 
G01 X-108.4375 Y49.8839 
G01 X-108.5905 Y49.7727 
G01 X-108.7589 Y49.6869 
G01 X-108.9387 Y49.6285 
G01 X-109.1255 Y49.5989 
G01 X-109.3145 Y49.5989 
G01 X-109.5013 Y49.6285 
G01 X-109.6811 Y49.6869 
G01 X-109.8495 Y49.7727 
G01 X-110.0025 Y49.8839 
G01 X-110.1361 Y50.0175 
G01 X-110.2473 Y50.1705 
G01 X-110.3331 Y50.3389 
G01 X-110.3915 Y50.5187 
G01 X-110.4211 Y50.7055 
G01 X-110.4211 Y50.8945 
G01 X-110.3915 Y51.0813 
G01 X-110.3331 Y51.2611 
G01 X-110.2473 Y51.4295 
G01 X-110.1361 Y51.5825 
G01 X-110.0025 Y51.7161 
G01 X-109.8495 Y51.8273 
G01 X-109.6811 Y51.9131 
G01 X-109.5013 Y51.9715 
G01 X-109.3145 Y52.0011 
G01 X-109.1255 Y52.0011 
G01 X-108.9387 Y51.9715 
G01 X-108.7589 Y51.9131 
G01 X-108.5905 Y51.8273 
G01 X-108.4375 Y51.7161 
G01 X-108.3039 Y51.5825 
G01 X-108.1927 Y51.4295 
G01 X-108.1216 Y51.2899 
G01 X-101.8029 Y51.2899 
G01 X-99.5499 Y53.5429 
G01 X-99.5499 Y71.1845 
G01 X-99.5165 Y71.3091 
G01 X-99.4520 Y71.4208 
G01 X-96.8208 Y74.0520 
G01 X-96.7091 Y74.1165 
G01 X-96.5845 Y74.1499 
G01 X-92.5384 Y74.1499 
G01 X-92.4673 Y74.2895 
G01 X-92.3561 Y74.4425 
G01 X-92.2225 Y74.5761 
G01 X-92.0695 Y74.6873 
G01 X-91.9011 Y74.7731 
G01 X-91.7213 Y74.8315 
G01 X-91.5345 Y74.8611 
G01 X-91.3455 Y74.8611 
G01 X-91.1587 Y74.8315 
G01 X-90.9789 Y74.7731 
G01 X-90.8105 Y74.6873 
G01 X-90.6575 Y74.5761 
G01 X-90.5239 Y74.4425 
G01 X-90.4127 Y74.2895 
G01 X-90.3416 Y74.1499 
G01 X-87.4584 Y74.1499 
G01 X-87.3873 Y74.2895 
G00 Z2.5000 
G00 X-46.7473 Y84.4495 
G01 Z-0.1250 F254.00 
G01 X-46.6361 Y84.6025 F400.00 
G01 X-46.5025 Y84.7361 
G01 X-46.3495 Y84.8473 
G01 X-46.1811 Y84.9331 
G01 X-46.0013 Y84.9915 
G01 X-45.8145 Y85.0211 
G01 X-45.6255 Y85.0211 
G01 X-45.4387 Y84.9915 
G01 X-45.2589 Y84.9331 
G01 X-45.0905 Y84.8473 
G01 X-44.9375 Y84.7361 
G01 X-44.8039 Y84.6025 
G01 X-44.6927 Y84.4495 
G01 X-44.6069 Y84.2811 
G01 X-44.5485 Y84.1013 
G01 X-44.5189 Y83.9145 
G01 X-44.5189 Y83.7255 
G01 X-44.5485 Y83.5387 
G01 X-44.6069 Y83.3589 
G01 X-44.6927 Y83.1905 
G01 X-44.8039 Y83.0375 
G01 X-44.9375 Y82.9039 
G01 X-45.0905 Y82.7927 
G01 X-45.2589 Y82.7069 
G01 X-45.4387 Y82.6485 
G01 X-45.6255 Y82.6189 
G01 X-45.8145 Y82.6189 
G01 X-46.0013 Y82.6485 
G01 X-46.1811 Y82.7069 
G01 X-46.3495 Y82.7927 
G01 X-46.5025 Y82.9039 
G01 X-46.6361 Y83.0375 
G01 X-46.7473 Y83.1905 
G01 X-46.8184 Y83.3301 
G01 X-48.9595 Y83.3301 
G01 X-49.0841 Y83.3635 
G01 X-49.1958 Y83.4280 
G01 X-51.0029 Y85.2351 
G01 X-65.8371 Y85.2351 
G01 X-67.6442 Y83.4280 
G01 X-67.7559 Y83.3635 
G01 X-67.8805 Y83.3301 
G01 X-93.7771 Y83.3301 
G01 X-101.1101 Y75.9971 
G01 X-101.1101 Y58.3555 
G01 X-101.1435 Y58.2309 
G01 X-101.2080 Y58.1192 
G01 X-101.2992 Y58.0280 
G01 X-103.8392 Y55.4880 
G01 X-103.9509 Y55.4235 
G01 X-104.0755 Y55.3901 
G01 X-111.5571 Y55.3901 
G01 X-113.8101 Y53.1371 
G01 X-113.8101 Y42.7479 
G01 X-112.1921 Y41.1299 
G01 X-110.3184 Y41.1299 
G01 X-110.2473 Y41.2695 
G01 X-110.1361 Y41.4225 
G01 X-110.0025 Y41.5561 
G01 X-109.8495 Y41.6673 
G01 X-109.6811 Y41.7531 
G01 X-109.5013 Y41.8115 
G01 X-109.3145 Y41.8411 
G01 X-109.1255 Y41.8411 
G01 X-108.9387 Y41.8115 
G01 X-108.7589 Y41.7531 
G01 X-108.5905 Y41.6673 
G01 X-108.4375 Y41.5561 
G01 X-108.3039 Y41.4225 
G01 X-108.1927 Y41.2695 
G01 X-108.1069 Y41.1011 
G01 X-108.0485 Y40.9213 
G01 X-108.0189 Y40.7345 
G01 X-108.0189 Y40.5455 
G01 X-108.0485 Y40.3587 
G01 X-108.1069 Y40.1789 
G01 X-108.1927 Y40.0105 
G01 X-108.3039 Y39.8575 
G01 X-108.4375 Y39.7238 
G01 X-108.5905 Y39.6127 
G01 X-108.7589 Y39.5269 
G01 X-108.9387 Y39.4685 
G01 X-109.1255 Y39.4389 
G01 X-109.3145 Y39.4389 
G01 X-109.5013 Y39.4685 
G01 X-109.6811 Y39.5269 
G01 X-109.8495 Y39.6127 
G01 X-110.0025 Y39.7238 
G01 X-110.1361 Y39.8575 
G01 X-110.2473 Y40.0105 
G01 X-110.3184 Y40.1501 
G01 X-112.4595 Y40.1501 
G01 X-112.5841 Y40.1835 
G01 X-112.6958 Y40.2480 
G01 X-114.6008 Y42.1530 
G01 X-114.6920 Y42.2442 
G01 X-114.7565 Y42.3559 
G01 X-114.7899 Y42.4805 
G01 X-114.7899 Y53.4045 
G01 X-114.7565 Y53.5291 
G01 X-114.6920 Y53.6408 
G01 X-112.1520 Y56.1808 
G01 X-112.0608 Y56.2720 
G01 X-111.9491 Y56.3365 
G01 X-111.8245 Y56.3699 
G01 X-104.3429 Y56.3699 
G01 X-102.0899 Y58.6229 
G01 X-102.0899 Y76.2645 
G01 X-102.0565 Y76.3891 
G01 X-101.9920 Y76.5008 
G01 X-94.3720 Y84.1208 
G01 X-94.2808 Y84.2120 
G01 X-94.1691 Y84.2765 
G01 X-94.0445 Y84.3099 
G01 X-68.1479 Y84.3099 
G01 X-66.3408 Y86.1170 
G01 X-66.2291 Y86.1815 
G01 X-66.1045 Y86.2149 
G01 X-50.7355 Y86.2149 
G01 X-50.6109 Y86.1815 
G01 X-50.4992 Y86.1170 
G01 X-50.4080 Y86.0258 
G01 X-48.6921 Y84.3099 
G01 X-46.8184 Y84.3099 
G01 X-46.7473 Y84.4495 
G00 Z2.5000 
G00 X-46.9211 Y78.6455 
G01 Z-0.1250 F254.00 
G01 X-46.9211 Y78.8345 F400.00 
G01 X-46.8915 Y79.0213 
G01 X-46.8331 Y79.2011 
G01 X-46.7473 Y79.3695 
G01 X-46.6361 Y79.5225 
G01 X-46.5025 Y79.6561 
G01 X-46.3495 Y79.7673 
G01 X-46.1811 Y79.8531 
G01 X-46.0013 Y79.9115 
G01 X-45.8145 Y79.9411 
G01 X-45.6255 Y79.9411 
G01 X-45.4387 Y79.9115 
G01 X-45.2589 Y79.8531 
G01 X-45.0905 Y79.7673 
G01 X-44.9375 Y79.6561 
G01 X-44.8039 Y79.5225 
G01 X-44.6927 Y79.3695 
G01 X-44.6069 Y79.2011 
G01 X-44.5485 Y79.0213 
G01 X-44.5189 Y78.8345 
G01 X-44.5189 Y78.6455 
G01 X-44.5485 Y78.4587 
G01 X-44.6069 Y78.2789 
G01 X-44.6927 Y78.1105 
G01 X-44.8039 Y77.9575 
G01 X-44.9375 Y77.8239 
G01 X-45.0905 Y77.7127 
G01 X-45.2589 Y77.6269 
G01 X-45.4387 Y77.5685 
G01 X-45.6255 Y77.5389 
G01 X-45.8145 Y77.5389 
G01 X-46.0013 Y77.5685 
G01 X-46.1811 Y77.6269 
G01 X-46.3495 Y77.7127 
G01 X-46.5025 Y77.8239 
G01 X-46.6361 Y77.9575 
G01 X-46.7473 Y78.1105 
G01 X-46.8331 Y78.2789 
G01 X-46.8915 Y78.4587 
G01 X-46.9211 Y78.6455 
G00 Z2.5000 
G00 X-61.9873 Y84.4495 
G01 Z-0.1250 F254.00 
G01 X-61.8761 Y84.6025 F400.00 
G01 X-61.7425 Y84.7361 
G01 X-61.5895 Y84.8473 
G01 X-61.4211 Y84.9331 
G01 X-61.2413 Y84.9915 
G01 X-61.0545 Y85.0211 
G01 X-60.8655 Y85.0211 
G01 X-60.6787 Y84.9915 
G01 X-60.4989 Y84.9331 
G01 X-60.3305 Y84.8473 
G01 X-60.1775 Y84.7361 
G01 X-60.0439 Y84.6025 
G01 X-59.9327 Y84.4495 
G01 X-59.8469 Y84.2811 
G01 X-59.7885 Y84.1013 
G01 X-59.7589 Y83.9145 
G01 X-59.7589 Y83.7255 
G01 X-59.7885 Y83.5387 
G01 X-59.8469 Y83.3589 
G01 X-59.9327 Y83.1905 
G01 X-60.0439 Y83.0375 
G01 X-60.1775 Y82.9039 
G01 X-60.3305 Y82.7927 
G01 X-60.4989 Y82.7069 
G01 X-60.6787 Y82.6485 
G01 X-60.8655 Y82.6189 
G01 X-61.0545 Y82.6189 
G01 X-61.2413 Y82.6485 
G01 X-61.4211 Y82.7069 
G01 X-61.5895 Y82.7927 
G01 X-61.7425 Y82.9039 
G01 X-61.8761 Y83.0375 
G01 X-61.9873 Y83.1905 
G01 X-62.0584 Y83.3301 
G01 X-65.2021 Y83.3301 
G01 X-75.7101 Y72.8221 
G01 X-75.7101 Y62.8005 
G01 X-75.7435 Y62.6759 
G01 X-75.8080 Y62.5642 
G01 X-75.8992 Y62.4730 
G01 X-80.7901 Y57.5821 
G01 X-80.7901 Y52.0055 
G01 X-80.8235 Y51.8809 
G01 X-80.8880 Y51.7692 
G01 X-80.9792 Y51.6780 
G01 X-87.3292 Y45.3280 
G01 X-87.4409 Y45.2635 
G01 X-87.5655 Y45.2301 
G01 X-108.1216 Y45.2301 
G01 X-108.1927 Y45.0905 
G01 X-108.3039 Y44.9375 
G01 X-108.4375 Y44.8039 
G01 X-108.5905 Y44.6927 
G01 X-108.7589 Y44.6069 
G01 X-108.9387 Y44.5485 
G01 X-109.1255 Y44.5189 
G01 X-109.3145 Y44.5189 
G01 X-109.5013 Y44.5485 
G01 X-109.6811 Y44.6069 
G01 X-109.8495 Y44.6927 
G01 X-110.0025 Y44.8039 
G01 X-110.1361 Y44.9375 
G01 X-110.2473 Y45.0905 
G01 X-110.3331 Y45.2589 
G01 X-110.3915 Y45.4387 
G01 X-110.4211 Y45.6255 
G01 X-110.4211 Y45.8145 
G01 X-110.3915 Y46.0013 
G01 X-110.3331 Y46.1811 
G01 X-110.2473 Y46.3495 
G01 X-110.1361 Y46.5025 
G01 X-110.0025 Y46.6361 
G01 X-109.8495 Y46.7473 
G01 X-109.6811 Y46.8331 
G01 X-109.5013 Y46.8915 
G01 X-109.3145 Y46.9211 
G01 X-109.1255 Y46.9211 
G01 X-108.9387 Y46.8915 
G01 X-108.7589 Y46.8331 
G01 X-108.5905 Y46.7473 
G01 X-108.4375 Y46.6361 
G01 X-108.3039 Y46.5025 
G01 X-108.1927 Y46.3495 
G01 X-108.1216 Y46.2099 
G01 X-87.8329 Y46.2099 
G01 X-81.7699 Y52.2729 
G01 X-81.7699 Y57.8495 
G01 X-81.7365 Y57.9741 
G01 X-81.6720 Y58.0858 
G01 X-76.6899 Y63.0679 
G01 X-76.6899 Y73.0895 
G01 X-76.6565 Y73.2141 
G01 X-76.5920 Y73.3258 
G01 X-76.5008 Y73.4170 
G01 X-65.7058 Y84.2120 
G01 X-65.5941 Y84.2765 
G01 X-65.4695 Y84.3099 
G01 X-62.0584 Y84.3099 
G01 X-61.9873 Y84.4495 
G00 Z2.5000 
G00 X-46.9211 Y71.0255 
G01 Z-0.1250 F254.00 
G01 X-46.9211 Y71.2145 F400.00 
G01 X-46.8915 Y71.4013 
G01 X-46.8331 Y71.5811 
G01 X-46.7473 Y71.7495 
G01 X-46.6361 Y71.9025 
G01 X-46.5025 Y72.0361 
G01 X-46.3495 Y72.1473 
G01 X-46.1811 Y72.2331 
G01 X-46.0013 Y72.2915 
G01 X-45.8145 Y72.3211 
G01 X-45.6255 Y72.3211 
G01 X-45.4387 Y72.2915 
G01 X-45.2589 Y72.2331 
G01 X-45.0905 Y72.1473 
G01 X-44.9375 Y72.0361 
G01 X-44.8039 Y71.9025 
G01 X-44.6927 Y71.7495 
G01 X-44.6216 Y71.6099 
G01 X-39.1984 Y71.6099 
G01 X-39.1273 Y71.7495 
G01 X-39.0161 Y71.9025 
G01 X-38.8825 Y72.0361 
G01 X-38.7295 Y72.1473 
G01 X-38.5611 Y72.2331 
G01 X-38.3813 Y72.2915 
G01 X-38.1945 Y72.3211 
G01 X-38.0055 Y72.3211 
G01 X-37.8187 Y72.2915 
G01 X-37.6389 Y72.2331 
G01 X-37.4705 Y72.1473 
G01 X-37.3175 Y72.0361 
G01 X-37.1838 Y71.9025 
G01 X-37.0727 Y71.7495 
G01 X-36.9869 Y71.5811 
G01 X-36.9285 Y71.4013 
G01 X-36.8989 Y71.2145 
G01 X-36.8989 Y71.0255 
G01 X-36.9285 Y70.8387 
G01 X-36.9869 Y70.6589 
G01 X-37.0727 Y70.4905 
G01 X-37.1838 Y70.3375 
G01 X-37.3175 Y70.2039 
G01 X-37.4705 Y70.0927 
G01 X-37.6389 Y70.0069 
G01 X-37.8187 Y69.9485 
G01 X-38.0055 Y69.9189 
G01 X-38.1945 Y69.9189 
G01 X-38.3813 Y69.9485 
G01 X-38.5611 Y70.0069 
G01 X-38.7295 Y70.0927 
G01 X-38.8825 Y70.2039 
G01 X-39.0161 Y70.3375 
G01 X-39.1273 Y70.4905 
G01 X-39.1984 Y70.6301 
G01 X-44.6216 Y70.6301 
G01 X-44.6927 Y70.4905 
G01 X-44.8039 Y70.3375 
G01 X-44.9375 Y70.2039 
G01 X-45.0905 Y70.0927 
G01 X-45.2589 Y70.0069 
G01 X-45.4387 Y69.9485 
G01 X-45.6255 Y69.9189 
G01 X-45.8145 Y69.9189 
G01 X-46.0013 Y69.9485 
G01 X-46.1811 Y70.0069 
G01 X-46.3495 Y70.0927 
G01 X-46.5025 Y70.2039 
G01 X-46.6361 Y70.3375 
G01 X-46.7473 Y70.4905 
G01 X-46.8331 Y70.6589 
G01 X-46.8915 Y70.8387 
G01 X-46.9211 Y71.0255 
G00 Z2.5000 
G00 X-46.9211 Y68.4855 
G01 Z-0.1250 F254.00 
G01 X-46.9211 Y68.6745 F400.00 
G01 X-46.8915 Y68.8613 
G01 X-46.8331 Y69.0411 
G01 X-46.7473 Y69.2095 
G01 X-46.6361 Y69.3625 
G01 X-46.5025 Y69.4961 
G01 X-46.3495 Y69.6073 
G01 X-46.1811 Y69.6931 
G01 X-46.0013 Y69.7515 
G01 X-45.8145 Y69.7811 
G01 X-45.6255 Y69.7811 
G01 X-45.4387 Y69.7515 
G01 X-45.2589 Y69.6931 
G01 X-45.0905 Y69.6073 
G01 X-44.9375 Y69.4961 
G01 X-44.8039 Y69.3625 
G01 X-44.6927 Y69.2095 
G01 X-44.6216 Y69.0699 
G01 X-41.7384 Y69.0699 
G01 X-41.6673 Y69.2095 
G01 X-41.5561 Y69.3625 
G01 X-41.4225 Y69.4961 
G01 X-41.2695 Y69.6073 
G01 X-41.1011 Y69.6931 
G01 X-40.9213 Y69.7515 
G01 X-40.7345 Y69.7811 
G01 X-40.5455 Y69.7811 
G01 X-40.3587 Y69.7515 
G01 X-40.1789 Y69.6931 
G01 X-40.0105 Y69.6073 
G01 X-39.8575 Y69.4961 
G01 X-39.7238 Y69.3625 
G01 X-39.6127 Y69.2095 
G01 X-39.5269 Y69.0411 
G01 X-39.4685 Y68.8613 
G01 X-39.4389 Y68.6745 
G01 X-39.4389 Y68.4855 
G01 X-39.4685 Y68.2987 
G01 X-39.5269 Y68.1189 
G01 X-39.6127 Y67.9505 
G01 X-39.7238 Y67.7975 
G01 X-39.8575 Y67.6638 
G01 X-40.0105 Y67.5527 
G01 X-40.1789 Y67.4669 
G01 X-40.3587 Y67.4085 
G01 X-40.5455 Y67.3789 
G01 X-40.7345 Y67.3789 
G01 X-40.9213 Y67.4085 
G01 X-41.1011 Y67.4669 
G01 X-41.2695 Y67.5527 
G01 X-41.4225 Y67.6638 
G01 X-41.5561 Y67.7975 
G01 X-41.6673 Y67.9505 
G01 X-41.7384 Y68.0901 
G01 X-44.6216 Y68.0901 
G01 X-44.6927 Y67.9505 
G01 X-44.8039 Y67.7975 
G01 X-44.9375 Y67.6638 
G01 X-45.0905 Y67.5527 
G01 X-45.2589 Y67.4669 
G01 X-45.4387 Y67.4085 
G01 X-45.6255 Y67.3789 
G01 X-45.8145 Y67.3789 
G01 X-46.0013 Y67.4085 
G01 X-46.1811 Y67.4669 
G01 X-46.3495 Y67.5527 
G01 X-46.5025 Y67.6638 
G01 X-46.6361 Y67.7975 
G01 X-46.7473 Y67.9505 
G01 X-46.8331 Y68.1189 
G01 X-46.8915 Y68.2987 
G01 X-46.9211 Y68.4855 
G00 Z2.5000 
G00 X-46.7473 Y56.5095 
G01 Z-0.1250 F254.00 
G01 X-46.6361 Y56.6625 F400.00 
G01 X-46.5025 Y56.7961 
G01 X-46.3495 Y56.9073 
G01 X-46.1811 Y56.9931 
G01 X-46.0013 Y57.0515 
G01 X-45.8145 Y57.0811 
G01 X-45.6255 Y57.0811 
G01 X-45.4387 Y57.0515 
G01 X-45.2589 Y56.9931 
G01 X-45.0905 Y56.9073 
G01 X-44.9375 Y56.7961 
G01 X-44.8039 Y56.6625 
G01 X-44.6927 Y56.5095 
G01 X-44.6069 Y56.3411 
G01 X-44.5485 Y56.1613 
G01 X-44.5189 Y55.9745 
G01 X-44.5189 Y55.7855 
G01 X-44.5485 Y55.5987 
G01 X-44.6069 Y55.4189 
G01 X-44.6927 Y55.2505 
G01 X-44.8039 Y55.0975 
G01 X-44.9375 Y54.9639 
G01 X-45.0905 Y54.8527 
G01 X-45.2589 Y54.7669 
G01 X-45.4387 Y54.7085 
G01 X-45.6255 Y54.6789 
G01 X-45.8145 Y54.6789 
G01 X-46.0013 Y54.7085 
G01 X-46.1811 Y54.7669 
G01 X-46.3495 Y54.8527 
G01 X-46.5025 Y54.9639 
G01 X-46.6361 Y55.0975 
G01 X-46.7473 Y55.2505 
G01 X-46.8078 Y55.3693 
G01 X-47.7701 Y54.4071 
G01 X-47.7701 Y44.2784 
G01 X-47.6305 Y44.2073 
G01 X-47.4775 Y44.0961 
G01 X-47.3439 Y43.9625 
G01 X-47.2327 Y43.8095 
G01 X-47.1616 Y43.6699 
G01 X-36.6584 Y43.6699 
G01 X-36.5873 Y43.8095 
G01 X-36.4761 Y43.9625 
G01 X-36.3425 Y44.0961 
G01 X-36.1895 Y44.2073 
G01 X-36.0211 Y44.2931 
G01 X-35.8413 Y44.3515 
G01 X-35.6545 Y44.3811 
G01 X-35.4655 Y44.3811 
G01 X-35.2787 Y44.3515 
G01 X-35.0989 Y44.2931 
G01 X-34.9305 Y44.2073 
G01 X-34.7775 Y44.0961 
G01 X-34.6439 Y43.9625 
G01 X-34.5327 Y43.8095 
G01 X-34.4616 Y43.6699 
G01 X-30.4155 Y43.6699 
G01 X-30.2909 Y43.6365 
G01 X-30.1792 Y43.5720 
G01 X-25.8303 Y39.2231 
G01 X-25.6813 Y39.2715 
G01 X-25.4945 Y39.3011 
G01 X-25.3055 Y39.3011 
G01 X-25.1187 Y39.2715 
G01 X-24.9389 Y39.2131 
G01 X-24.7705 Y39.1273 
G01 X-24.6175 Y39.0161 
G01 X-24.4839 Y38.8825 
G01 X-24.3727 Y38.7295 
G01 X-24.3016 Y38.5899 
G01 X-23.9584 Y38.5899 
G01 X-23.8873 Y38.7295 
G01 X-23.7761 Y38.8825 
G01 X-23.6425 Y39.0161 
G01 X-23.4895 Y39.1273 
G01 X-23.3211 Y39.2131 
G01 X-23.1413 Y39.2715 
G01 X-22.9545 Y39.3011 
G01 X-22.7655 Y39.3011 
G01 X-22.5787 Y39.2715 
G01 X-22.3989 Y39.2131 
G01 X-22.2305 Y39.1273 
G01 X-22.0775 Y39.0161 
G01 X-21.9439 Y38.8825 
G01 X-21.8327 Y38.7295 
G01 X-21.7616 Y38.5899 
G01 X-21.4184 Y38.5899 
G01 X-21.3473 Y38.7295 
G01 X-21.2361 Y38.8825 
G01 X-21.1025 Y39.0161 
G01 X-20.9495 Y39.1273 
G01 X-20.7811 Y39.2131 
G01 X-20.6013 Y39.2715 
G01 X-20.4145 Y39.3011 
G01 X-20.2255 Y39.3011 
G01 X-20.0387 Y39.2715 
G01 X-19.8589 Y39.2131 
G01 X-19.6905 Y39.1273 
G01 X-19.5375 Y39.0161 
G01 X-19.4039 Y38.8825 
G01 X-19.2927 Y38.7295 
G01 X-19.2216 Y38.5899 
G01 X-18.8784 Y38.5899 
G01 X-18.8073 Y38.7295 
G01 X-18.6961 Y38.8825 
G01 X-18.5625 Y39.0161 
G01 X-18.4095 Y39.1273 
G01 X-18.2411 Y39.2131 
G01 X-18.0613 Y39.2715 
G01 X-17.8745 Y39.3011 
G01 X-17.6855 Y39.3011 
G01 X-17.4987 Y39.2715 
G01 X-17.3189 Y39.2131 
G01 X-17.1505 Y39.1273 
G01 X-16.9975 Y39.0161 
G01 X-16.8638 Y38.8825 
G01 X-16.7527 Y38.7295 
G01 X-16.6816 Y38.5899 
G01 X-16.3384 Y38.5899 
G01 X-16.2673 Y38.7295 
G01 X-16.1561 Y38.8825 
G01 X-16.0225 Y39.0161 
G01 X-15.8695 Y39.1273 
G01 X-15.7011 Y39.2131 
G01 X-15.5213 Y39.2715 
G01 X-15.3345 Y39.3011 
G01 X-15.1455 Y39.3011 
G01 X-14.9587 Y39.2715 
G01 X-14.7789 Y39.2131 
G01 X-14.6105 Y39.1273 
G01 X-14.4575 Y39.0161 
G01 X-14.3239 Y38.8825 
G01 X-14.2127 Y38.7295 
G01 X-14.1416 Y38.5899 
G01 X-13.7984 Y38.5899 
G01 X-13.7273 Y38.7295 
G01 X-13.6161 Y38.8825 
G01 X-13.4825 Y39.0161 
G01 X-13.3295 Y39.1273 
G01 X-13.1611 Y39.2131 
G01 X-12.9813 Y39.2715 
G01 X-12.7945 Y39.3011 
G01 X-12.6055 Y39.3011 
G01 X-12.4187 Y39.2715 
G01 X-12.2389 Y39.2131 
G01 X-12.0705 Y39.1273 
G01 X-11.9175 Y39.0161 
G01 X-11.7839 Y38.8825 
G01 X-11.6727 Y38.7295 
G01 X-11.5869 Y38.5611 
G01 X-11.5285 Y38.3813 
G01 X-11.4989 Y38.1945 
G01 X-11.4989 Y38.0055 
G01 X-11.5285 Y37.8187 
G01 X-11.5869 Y37.6389 
G01 X-11.6727 Y37.4705 
G01 X-11.7839 Y37.3175 
G01 X-11.9175 Y37.1838 
G01 X-12.0705 Y37.0727 
G01 X-12.2389 Y36.9869 
G01 X-12.4187 Y36.9285 
G01 X-12.6055 Y36.8989 
G01 X-12.7945 Y36.8989 
G01 X-12.9813 Y36.9285 
G01 X-13.1611 Y36.9869 
G01 X-13.3295 Y37.0727 
G01 X-13.4825 Y37.1838 
G01 X-13.6161 Y37.3175 
G01 X-13.7273 Y37.4705 
G01 X-13.7984 Y37.6101 
G01 X-14.1416 Y37.6101 
G01 X-14.2127 Y37.4705 
G01 X-14.3239 Y37.3175 
G01 X-14.4575 Y37.1838 
G01 X-14.6105 Y37.0727 
G01 X-14.7789 Y36.9869 
G01 X-14.9587 Y36.9285 
G01 X-15.1455 Y36.8989 
G01 X-15.3345 Y36.8989 
G01 X-15.5213 Y36.9285 
G01 X-15.7011 Y36.9869 
G01 X-15.8695 Y37.0727 
G01 X-16.0225 Y37.1838 
G01 X-16.1561 Y37.3175 
G01 X-16.2673 Y37.4705 
G01 X-16.3384 Y37.6101 
G01 X-16.6816 Y37.6101 
G01 X-16.7527 Y37.4705 
G01 X-16.8638 Y37.3175 
G01 X-16.9975 Y37.1838 
G01 X-17.1505 Y37.0727 
G01 X-17.3189 Y36.9869 
G01 X-17.4987 Y36.9285 
G01 X-17.6855 Y36.8989 
G01 X-17.8745 Y36.8989 
G01 X-18.0613 Y36.9285 
G01 X-18.2411 Y36.9869 
G01 X-18.4095 Y37.0727 
G01 X-18.5625 Y37.1838 
G01 X-18.6961 Y37.3175 
G01 X-18.8073 Y37.4705 
G01 X-18.8784 Y37.6101 
G01 X-19.2216 Y37.6101 
G01 X-19.2927 Y37.4705 
G01 X-19.4039 Y37.3175 
G01 X-19.5375 Y37.1838 
G01 X-19.6905 Y37.0727 
G01 X-19.8589 Y36.9869 
G01 X-20.0387 Y36.9285 
G01 X-20.2255 Y36.8989 
G01 X-20.4145 Y36.8989 
G01 X-20.6013 Y36.9285 
G01 X-20.7811 Y36.9869 
G01 X-20.9495 Y37.0727 
G01 X-21.1025 Y37.1838 
G01 X-21.2361 Y37.3175 
G01 X-21.3473 Y37.4705 
G01 X-21.4184 Y37.6101 
G01 X-21.7616 Y37.6101 
G01 X-21.8327 Y37.4705 
G01 X-21.9439 Y37.3175 
G01 X-22.0775 Y37.1838 
G01 X-22.2305 Y37.0727 
G01 X-22.3989 Y36.9869 
G01 X-22.5787 Y36.9285 
G01 X-22.7655 Y36.8989 
G01 X-22.9545 Y36.8989 
G01 X-23.1413 Y36.9285 
G01 X-23.3211 Y36.9869 
G01 X-23.4895 Y37.0727 
G01 X-23.6425 Y37.1838 
G01 X-23.7761 Y37.3175 
G01 X-23.8873 Y37.4705 
G01 X-23.9584 Y37.6101 
G01 X-24.3016 Y37.6101 
G01 X-24.3727 Y37.4705 
G01 X-24.4839 Y37.3175 
G01 X-24.6175 Y37.1838 
G01 X-24.7705 Y37.0727 
G01 X-24.9389 Y36.9869 
G01 X-25.1187 Y36.9285 
G01 X-25.3055 Y36.8989 
G01 X-25.4945 Y36.8989 
G01 X-25.6813 Y36.9285 
G01 X-25.8611 Y36.9869 
G01 X-26.0295 Y37.0727 
G01 X-26.1825 Y37.1838 
G01 X-26.3161 Y37.3175 
G01 X-26.4273 Y37.4705 
G01 X-26.5131 Y37.6389 
G01 X-26.5715 Y37.8187 
G01 X-26.6011 Y38.0055 
G01 X-26.6011 Y38.1945 
G01 X-26.5715 Y38.3813 
G01 X-26.5231 Y38.5303 
G01 X-30.6829 Y42.6901 
G01 X-34.4616 Y42.6901 
G01 X-34.5327 Y42.5505 
G01 X-34.6439 Y42.3975 
G01 X-34.7775 Y42.2639 
G01 X-34.9305 Y42.1527 
G01 X-35.0989 Y42.0669 
G01 X-35.2787 Y42.0085 
G01 X-35.4655 Y41.9789 
G01 X-35.6545 Y41.9789 
G01 X-35.8413 Y42.0085 
G01 X-36.0211 Y42.0669 
G01 X-36.1895 Y42.1527 
G01 X-36.3425 Y42.2639 
G01 X-36.4761 Y42.3975 
G01 X-36.5873 Y42.5505 
G01 X-36.6584 Y42.6901 
G01 X-47.1616 Y42.6901 
G01 X-47.2327 Y42.5505 
G01 X-47.3439 Y42.3975 
G01 X-47.4775 Y42.2639 
G01 X-47.6305 Y42.1527 
G01 X-47.7989 Y42.0669 
G01 X-47.9787 Y42.0085 
G01 X-48.1655 Y41.9789 
G01 X-48.3545 Y41.9789 
G01 X-48.5413 Y42.0085 
G01 X-48.7211 Y42.0669 
G01 X-48.8895 Y42.1527 
G01 X-49.0425 Y42.2639 
G01 X-49.1761 Y42.3975 
G01 X-49.2873 Y42.5505 
G01 X-49.3731 Y42.7189 
G01 X-49.4315 Y42.8987 
G01 X-49.4611 Y43.0855 
G01 X-49.4611 Y43.2745 
G01 X-49.4315 Y43.4613 
G01 X-49.3731 Y43.6411 
G01 X-49.2873 Y43.8095 
G01 X-49.1761 Y43.9625 
G01 X-49.0425 Y44.0961 
G01 X-48.8895 Y44.2073 
G01 X-48.7499 Y44.2784 
G01 X-48.7499 Y54.6745 
G01 X-48.7165 Y54.7991 
G01 X-48.6520 Y54.9108 
G01 X-47.2908 Y56.2720 
G01 X-47.1791 Y56.3365 
G01 X-47.0545 Y56.3699 
G01 X-46.8184 Y56.3699 
G01 X-46.7473 Y56.5095 
G00 Z2.5000 
G00 X-46.9211 Y53.2455 
G01 Z-0.1250 F254.00 
G01 X-46.9211 Y53.4345 F400.00 
G01 X-46.8915 Y53.6213 
G01 X-46.8331 Y53.8011 
G01 X-46.7473 Y53.9695 
G01 X-46.6361 Y54.1225 
G01 X-46.5025 Y54.2561 
G01 X-46.3495 Y54.3673 
G01 X-46.1811 Y54.4531 
G01 X-46.0013 Y54.5115 
G01 X-45.8145 Y54.5411 
G01 X-45.6255 Y54.5411 
G01 X-45.4387 Y54.5115 
G01 X-45.2589 Y54.4531 
G01 X-45.0905 Y54.3673 
G01 X-44.9375 Y54.2561 
G01 X-44.8039 Y54.1225 
G01 X-44.6927 Y53.9695 
G01 X-44.6069 Y53.8011 
G01 X-44.5485 Y53.6213 
G01 X-44.5189 Y53.4345 
G01 X-44.5189 Y53.2455 
G01 X-44.5485 Y53.0587 
G01 X-44.6069 Y52.8789 
G01 X-44.6927 Y52.7105 
G01 X-44.8039 Y52.5575 
G01 X-44.9375 Y52.4239 
G01 X-45.0905 Y52.3127 
G01 X-45.2589 Y52.2269 
G01 X-45.4387 Y52.1685 
G01 X-45.6255 Y52.1389 
G01 X-45.8145 Y52.1389 
G01 X-46.0013 Y52.1685 
G01 X-46.1811 Y52.2269 
G01 X-46.3495 Y52.3127 
G01 X-46.5025 Y52.4239 
G01 X-46.6361 Y52.5575 
G01 X-46.7473 Y52.7105 
G01 X-46.8331 Y52.8789 
G01 X-46.8915 Y53.0587 
G01 X-46.9211 Y53.2455 
G00 Z2.5000 
G00 X-46.9211 Y50.7055 
G01 Z-0.1250 F254.00 
G01 X-46.9211 Y50.8945 F400.00 
G01 X-46.8915 Y51.0813 
G01 X-46.8331 Y51.2611 
G01 X-46.7473 Y51.4295 
G01 X-46.6361 Y51.5825 
G01 X-46.5025 Y51.7161 
G01 X-46.3495 Y51.8273 
G01 X-46.1811 Y51.9131 
G01 X-46.0013 Y51.9715 
G01 X-45.8145 Y52.0011 
G01 X-45.6255 Y52.0011 
G01 X-45.4387 Y51.9715 
G01 X-45.2589 Y51.9131 
G01 X-45.0905 Y51.8273 
G01 X-44.9375 Y51.7161 
G01 X-44.8039 Y51.5825 
G01 X-44.6927 Y51.4295 
G01 X-44.6216 Y51.2899 
G01 X-39.1984 Y51.2899 
G01 X-39.1273 Y51.4295 
G01 X-39.0161 Y51.5825 
G01 X-38.8825 Y51.7161 
G01 X-38.7295 Y51.8273 
G01 X-38.5611 Y51.9131 
G01 X-38.3813 Y51.9715 
G01 X-38.1945 Y52.0011 
G01 X-38.0055 Y52.0011 
G01 X-37.8187 Y51.9715 
G01 X-37.6389 Y51.9131 
G01 X-37.4705 Y51.8273 
G01 X-37.3175 Y51.7161 
G01 X-37.1838 Y51.5825 
G01 X-37.0727 Y51.4295 
G01 X-37.0016 Y51.2899 
G01 X-31.5784 Y51.2899 
G01 X-31.5073 Y51.4295 
G01 X-31.3961 Y51.5825 
G01 X-31.2625 Y51.7161 
G01 X-31.1095 Y51.8273 
G01 X-30.9411 Y51.9131 
G01 X-30.7613 Y51.9715 
G01 X-30.5745 Y52.0011 
G01 X-30.3855 Y52.0011 
G01 X-30.1987 Y51.9715 
G01 X-30.0189 Y51.9131 
G01 X-29.8505 Y51.8273 
G01 X-29.6975 Y51.7161 
G01 X-29.5639 Y51.5825 
G01 X-29.4527 Y51.4295 
G01 X-29.3816 Y51.2899 
G01 X-29.0384 Y51.2899 
G01 X-28.9673 Y51.4295 
G01 X-28.8561 Y51.5825 
G01 X-28.7225 Y51.7161 
G01 X-28.5695 Y51.8273 
G01 X-28.4011 Y51.9131 
G01 X-28.2213 Y51.9715 
G01 X-28.0345 Y52.0011 
G01 X-27.8455 Y52.0011 
G01 X-27.6587 Y51.9715 
G01 X-27.4789 Y51.9131 
G01 X-27.3105 Y51.8273 
G01 X-27.1575 Y51.7161 
G01 X-27.0239 Y51.5825 
G01 X-26.9127 Y51.4295 
G01 X-26.8269 Y51.2611 
G01 X-26.7685 Y51.0813 
G01 X-26.7389 Y50.8945 
G01 X-26.7389 Y50.7055 
G01 X-26.7685 Y50.5187 
G01 X-26.8269 Y50.3389 
G01 X-26.9127 Y50.1705 
G01 X-27.0239 Y50.0175 
G01 X-27.1575 Y49.8839 
G01 X-27.3105 Y49.7727 
G01 X-27.4789 Y49.6869 
G01 X-27.6587 Y49.6285 
G01 X-27.8455 Y49.5989 
G01 X-28.0345 Y49.5989 
G01 X-28.2213 Y49.6285 
G01 X-28.4011 Y49.6869 
G01 X-28.5695 Y49.7727 
G01 X-28.7225 Y49.8839 
G01 X-28.8561 Y50.0175 
G01 X-28.9673 Y50.1705 
G01 X-29.0384 Y50.3101 
G01 X-29.3816 Y50.3101 
G01 X-29.4527 Y50.1705 
G01 X-29.5639 Y50.0175 
G01 X-29.6975 Y49.8839 
G01 X-29.8505 Y49.7727 
G01 X-30.0189 Y49.6869 
G01 X-30.1987 Y49.6285 
G01 X-30.3855 Y49.5989 
G01 X-30.5745 Y49.5989 
G01 X-30.7613 Y49.6285 
G01 X-30.9411 Y49.6869 
G01 X-31.1095 Y49.7727 
G01 X-31.2625 Y49.8839 
G01 X-31.3961 Y50.0175 
G01 X-31.5073 Y50.1705 
G01 X-31.5784 Y50.3101 
G01 X-37.0016 Y50.3101 
G01 X-37.0727 Y50.1705 
G01 X-37.1838 Y50.0175 
G01 X-37.3175 Y49.8839 
G01 X-37.4705 Y49.7727 
G01 X-37.6389 Y49.6869 
G01 X-37.8187 Y49.6285 
G01 X-38.0055 Y49.5989 
G01 X-38.1945 Y49.5989 
G01 X-38.3813 Y49.6285 
G01 X-38.5611 Y49.6869 
G01 X-38.7295 Y49.7727 
G01 X-38.8825 Y49.8839 
G01 X-39.0161 Y50.0175 
G01 X-39.1273 Y50.1705 
G01 X-39.1984 Y50.3101 
G01 X-44.6216 Y50.3101 
G01 X-44.6927 Y50.1705 
G01 X-44.8039 Y50.0175 
G01 X-44.9375 Y49.8839 
G01 X-45.0905 Y49.7727 
G01 X-45.2589 Y49.6869 
G01 X-45.4387 Y49.6285 
G01 X-45.6255 Y49.5989 
G01 X-45.8145 Y49.5989 
G01 X-46.0013 Y49.6285 
G01 X-46.1811 Y49.6869 
G01 X-46.3495 Y49.7727 
G01 X-46.5025 Y49.8839 
G01 X-46.6361 Y50.0175 
G01 X-46.7473 Y50.1705 
G01 X-46.8331 Y50.3389 
G01 X-46.8915 Y50.5187 
G01 X-46.9211 Y50.7055 
G00 Z2.5000 
G00 X-46.9211 Y48.1655 
G01 Z-0.1250 F254.00 
G01 X-46.9211 Y48.3545 F400.00 
G01 X-46.8915 Y48.5413 
G01 X-46.8331 Y48.7211 
G01 X-46.7473 Y48.8895 
G01 X-46.6361 Y49.0425 
G01 X-46.5025 Y49.1761 
G01 X-46.3495 Y49.2873 
G01 X-46.1811 Y49.3731 
G01 X-46.0013 Y49.4315 
G01 X-45.8145 Y49.4611 
G01 X-45.6255 Y49.4611 
G01 X-45.4387 Y49.4315 
G01 X-45.2589 Y49.3731 
G01 X-45.0905 Y49.2873 
G01 X-44.9375 Y49.1761 
G01 X-44.8039 Y49.0425 
G01 X-44.6927 Y48.8895 
G01 X-44.6069 Y48.7211 
G01 X-44.5485 Y48.5413 
G01 X-44.5189 Y48.3545 
G01 X-44.5189 Y48.1655 
G01 X-44.5485 Y47.9787 
G01 X-44.6069 Y47.7989 
G01 X-44.6927 Y47.6305 
G01 X-44.8039 Y47.4775 
G01 X-44.9375 Y47.3439 
G01 X-45.0905 Y47.2327 
G01 X-45.2589 Y47.1469 
G01 X-45.4387 Y47.0885 
G01 X-45.6255 Y47.0589 
G01 X-45.8145 Y47.0589 
G01 X-46.0013 Y47.0885 
G01 X-46.1811 Y47.1469 
G01 X-46.3495 Y47.2327 
G01 X-46.5025 Y47.3439 
G01 X-46.6361 Y47.4775 
G01 X-46.7473 Y47.6305 
G01 X-46.8331 Y47.7989 
G01 X-46.8915 Y47.9787 
G01 X-46.9211 Y48.1655 
G00 Z2.5000 
G00 X-61.9873 Y76.8295 
G01 Z-0.1250 F254.00 
G01 X-61.8761 Y76.9825 F400.00 
G01 X-61.7425 Y77.1161 
G01 X-61.5895 Y77.2273 
G01 X-61.4211 Y77.3131 
G01 X-61.2413 Y77.3715 
G01 X-61.0545 Y77.4011 
G01 X-60.8655 Y77.4011 
G01 X-60.6787 Y77.3715 
G01 X-60.4989 Y77.3131 
G01 X-60.3305 Y77.2273 
G01 X-60.1775 Y77.1161 
G01 X-60.0439 Y76.9825 
G01 X-59.9327 Y76.8295 
G01 X-59.8469 Y76.6611 
G01 X-59.7885 Y76.4813 
G01 X-59.7589 Y76.2945 
G01 X-59.7589 Y76.1055 
G01 X-59.7885 Y75.9187 
G01 X-59.8469 Y75.7389 
G01 X-59.9327 Y75.5705 
G01 X-60.0439 Y75.4175 
G01 X-60.1775 Y75.2839 
G01 X-60.3305 Y75.1727 
G01 X-60.4989 Y75.0869 
G01 X-60.6787 Y75.0285 
G01 X-60.8655 Y74.9989 
G01 X-61.0545 Y74.9989 
G01 X-61.2413 Y75.0285 
G01 X-61.4211 Y75.0869 
G01 X-61.5895 Y75.1727 
G01 X-61.7425 Y75.2839 
G01 X-61.8761 Y75.4175 
G01 X-61.9873 Y75.5705 
G01 X-62.0584 Y75.7101 
G01 X-63.2971 Y75.7101 
G01 X-68.0901 Y70.9171 
G01 X-68.0901 Y60.8955 
G01 X-68.1235 Y60.7709 
G01 X-68.1880 Y60.6592 
G01 X-68.2792 Y60.5680 
G01 X-73.1701 Y55.6771 
G01 X-73.1701 Y50.1005 
G01 X-73.2035 Y49.9759 
G01 X-73.2680 Y49.8642 
G01 X-73.3592 Y49.7730 
G01 X-85.4242 Y37.7080 
G01 X-85.5359 Y37.6435 
G01 X-85.6605 Y37.6101 
G01 X-97.9616 Y37.6101 
G01 X-98.0327 Y37.4705 
G01 X-98.1439 Y37.3175 
G01 X-98.2775 Y37.1838 
G01 X-98.4305 Y37.0727 
G01 X-98.5989 Y36.9869 
G01 X-98.7787 Y36.9285 
G01 X-98.9655 Y36.8989 
G01 X-99.1545 Y36.8989 
G01 X-99.3413 Y36.9285 
G01 X-99.5211 Y36.9869 
G01 X-99.6895 Y37.0727 
G01 X-99.8425 Y37.1838 
G01 X-99.9761 Y37.3175 
G01 X-100.0873 Y37.4705 
G01 X-100.1584 Y37.6101 
G01 X-103.9371 Y37.6101 
G01 X-106.2880 Y35.2592 
G01 X-106.3792 Y35.1680 
G01 X-106.4909 Y35.1035 
G01 X-106.6155 Y35.0701 
G01 X-108.1216 Y35.0701 
G01 X-108.1927 Y34.9305 
G01 X-108.3039 Y34.7775 
G01 X-108.4375 Y34.6439 
G01 X-108.5905 Y34.5327 
G01 X-108.7589 Y34.4469 
G01 X-108.9387 Y34.3885 
G01 X-109.1255 Y34.3589 
G01 X-109.3145 Y34.3589 
G01 X-109.5013 Y34.3885 
G01 X-109.6811 Y34.4469 
G01 X-109.8495 Y34.5327 
G01 X-110.0025 Y34.6439 
G01 X-110.1361 Y34.7775 
G01 X-110.2473 Y34.9305 
G01 X-110.3331 Y35.0989 
G01 X-110.3915 Y35.2787 
G01 X-110.4211 Y35.4655 
G01 X-110.4211 Y35.6545 
G01 X-110.3915 Y35.8413 
G01 X-110.3331 Y36.0211 
G01 X-110.2473 Y36.1895 
G01 X-110.1361 Y36.3425 
G01 X-110.0025 Y36.4761 
G01 X-109.8495 Y36.5873 
G01 X-109.6811 Y36.6731 
G01 X-109.5013 Y36.7315 
G01 X-109.3145 Y36.7611 
G01 X-109.1255 Y36.7611 
G01 X-108.9387 Y36.7315 
G01 X-108.7589 Y36.6731 
G01 X-108.5905 Y36.5873 
G01 X-108.4375 Y36.4761 
G01 X-108.3039 Y36.3425 
G01 X-108.1927 Y36.1895 
G01 X-108.1216 Y36.0499 
G01 X-106.8829 Y36.0499 
G01 X-104.4408 Y38.4920 
G01 X-104.3291 Y38.5565 
G01 X-104.2045 Y38.5899 
G01 X-100.1584 Y38.5899 
G01 X-100.0873 Y38.7295 
G01 X-99.9761 Y38.8825 
G01 X-99.8425 Y39.0161 
G01 X-99.6895 Y39.1273 
G01 X-99.5211 Y39.2131 
G01 X-99.3413 Y39.2715 
G01 X-99.1545 Y39.3011 
G01 X-98.9655 Y39.3011 
G01 X-98.7787 Y39.2715 
G01 X-98.5989 Y39.2131 
G01 X-98.4305 Y39.1273 
G01 X-98.2775 Y39.0161 
G01 X-98.1439 Y38.8825 
G01 X-98.0327 Y38.7295 
G01 X-97.9616 Y38.5899 
G01 X-85.9279 Y38.5899 
G01 X-74.1499 Y50.3679 
G01 X-74.1499 Y55.9445 
G01 X-74.1165 Y56.0691 
G01 X-74.0520 Y56.1808 
G01 X-69.0699 Y61.1629 
G01 X-69.0699 Y71.1845 
G01 X-69.0365 Y71.3091 
G01 X-68.9720 Y71.4208 
G01 X-68.8808 Y71.5120 
G01 X-63.8008 Y76.5920 
G01 X-63.6891 Y76.6565 
G01 X-63.5645 Y76.6899 
G01 X-62.0584 Y76.6899 
G01 X-61.9873 Y76.8295 
G00 Z2.5000 
G00 X-62.1611 Y73.5655 
G01 Z-0.1250 F254.00 
G01 X-62.1611 Y73.7545 F400.00 
G01 X-62.1315 Y73.9413 
G01 X-62.0731 Y74.1211 
G01 X-61.9873 Y74.2895 
G01 X-61.8761 Y74.4425 
G01 X-61.7425 Y74.5761 
G01 X-61.5895 Y74.6873 
G01 X-61.4211 Y74.7731 
G01 X-61.2413 Y74.8315 
G01 X-61.0545 Y74.8611 
G01 X-60.8655 Y74.8611 
G01 X-60.6787 Y74.8315 
G01 X-60.4989 Y74.7731 
G01 X-60.3305 Y74.6873 
G01 X-60.1775 Y74.5761 
G01 X-60.0439 Y74.4425 
G01 X-59.9327 Y74.2895 
G01 X-59.8469 Y74.1211 
G01 X-59.7885 Y73.9413 
G01 X-59.7589 Y73.7545 
G01 X-59.7589 Y73.5655 
G01 X-59.7885 Y73.3787 
G01 X-59.8469 Y73.1989 
G01 X-59.9327 Y73.0305 
G01 X-60.0439 Y72.8775 
G01 X-60.1775 Y72.7439 
G01 X-60.3305 Y72.6327 
G01 X-60.4989 Y72.5469 
G01 X-60.6787 Y72.4885 
G01 X-60.8655 Y72.4589 
G01 X-61.0545 Y72.4589 
G01 X-61.2413 Y72.4885 
G01 X-61.4211 Y72.5469 
G01 X-61.5895 Y72.6327 
G01 X-61.7425 Y72.7439 
G01 X-61.8761 Y72.8775 
G01 X-61.9873 Y73.0305 
G01 X-62.0731 Y73.1989 
G01 X-62.1315 Y73.3787 
G01 X-62.1611 Y73.5655 
G00 Z2.5000 
G00 X-61.9873 Y71.7495 
G01 Z-0.1250 F254.00 
G01 X-61.8761 Y71.9025 F400.00 
G01 X-61.7425 Y72.0361 
G01 X-61.5895 Y72.1473 
G01 X-61.4211 Y72.2331 
G01 X-61.2413 Y72.2915 
G01 X-61.0545 Y72.3211 
G01 X-60.8655 Y72.3211 
G01 X-60.6787 Y72.2915 
G01 X-60.4989 Y72.2331 
G01 X-60.3305 Y72.1473 
G01 X-60.1775 Y72.0361 
G01 X-60.0439 Y71.9025 
G01 X-59.9327 Y71.7495 
G01 X-59.8469 Y71.5811 
G01 X-59.7885 Y71.4013 
G01 X-59.7589 Y71.2145 
G01 X-59.7589 Y71.0255 
G01 X-59.7885 Y70.8387 
G01 X-59.8469 Y70.6589 
G01 X-59.9327 Y70.4905 
G01 X-60.0439 Y70.3375 
G01 X-60.1775 Y70.2039 
G01 X-60.3305 Y70.0927 
G01 X-60.4989 Y70.0069 
G01 X-60.6787 Y69.9485 
G01 X-60.8655 Y69.9189 
G01 X-61.0545 Y69.9189 
G01 X-61.2413 Y69.9485 
G01 X-61.4211 Y70.0069 
G01 X-61.5895 Y70.0927 
G01 X-61.7425 Y70.2039 
G01 X-61.8761 Y70.3375 
G01 X-61.9873 Y70.4905 
G01 X-62.0584 Y70.6301 
G01 X-63.2971 Y70.6301 
G01 X-65.5501 Y68.3771 
G01 X-65.5501 Y60.2605 
G01 X-65.5835 Y60.1359 
G01 X-65.6480 Y60.0242 
G01 X-65.7392 Y59.9330 
G01 X-70.6301 Y55.0421 
G01 X-70.6301 Y49.4655 
G01 X-70.6635 Y49.3409 
G01 X-70.7280 Y49.2292 
G01 X-70.8192 Y49.1380 
G01 X-84.6980 Y35.2592 
G01 X-84.7892 Y35.1680 
G01 X-84.9009 Y35.1035 
G01 X-85.0255 Y35.0701 
G01 X-103.9371 Y35.0701 
G01 X-106.1901 Y32.8171 
G01 X-106.1901 Y23.9584 
G01 X-106.0505 Y23.8873 
G01 X-105.8975 Y23.7761 
G01 X-105.7639 Y23.6425 
G01 X-105.6527 Y23.4895 
G01 X-105.5669 Y23.3211 
G01 X-105.5085 Y23.1413 
G01 X-105.4789 Y22.9545 
G01 X-105.4789 Y22.7655 
G01 X-105.5085 Y22.5787 
G01 X-105.5669 Y22.3989 
G01 X-105.6527 Y22.2305 
G01 X-105.7639 Y22.0775 
G01 X-105.8975 Y21.9439 
G01 X-106.0505 Y21.8327 
G01 X-106.2189 Y21.7469 
G01 X-106.3987 Y21.6885 
G01 X-106.5855 Y21.6589 
G01 X-106.7745 Y21.6589 
G01 X-106.9613 Y21.6885 
G01 X-107.1411 Y21.7469 
G01 X-107.3095 Y21.8327 
G01 X-107.4625 Y21.9439 
G01 X-107.5961 Y22.0775 
G01 X-107.7073 Y22.2305 
G01 X-107.7931 Y22.3989 
G01 X-107.8515 Y22.5787 
G01 X-107.8811 Y22.7655 
G01 X-107.8811 Y22.9545 
G01 X-107.8515 Y23.1413 
G01 X-107.7931 Y23.3211 
G01 X-107.7073 Y23.4895 
G01 X-107.5961 Y23.6425 
G01 X-107.4625 Y23.7761 
G01 X-107.3095 Y23.8873 
G01 X-107.1699 Y23.9584 
G01 X-107.1699 Y33.0845 
G01 X-107.1365 Y33.2091 
G01 X-107.0720 Y33.3208 
G01 X-106.9808 Y33.4120 
G01 X-104.4408 Y35.9520 
G01 X-104.3291 Y36.0165 
G01 X-104.2045 Y36.0499 
G01 X-85.2929 Y36.0499 
G01 X-71.6099 Y49.7329 
G01 X-71.6099 Y55.3095 
G01 X-71.5765 Y55.4341 
G01 X-71.5120 Y55.5458 
G01 X-66.5299 Y60.5279 
G01 X-66.5299 Y68.6445 
G01 X-66.4965 Y68.7691 
G01 X-66.4320 Y68.8808 
G01 X-66.3408 Y68.9720 
G01 X-63.8008 Y71.5120 
G01 X-63.6891 Y71.5765 
G01 X-63.5645 Y71.6099 
G01 X-62.0584 Y71.6099 
G01 X-61.9873 Y71.7495 
G00 Z2.5000 
G00 X-62.1611 Y68.4855 
G01 Z-0.1250 F254.00 
G01 X-62.1611 Y68.6745 F400.00 
G01 X-62.1315 Y68.8613 
G01 X-62.0731 Y69.0411 
G01 X-61.9873 Y69.2095 
G01 X-61.8761 Y69.3625 
G01 X-61.7425 Y69.4961 
G01 X-61.5895 Y69.6073 
G01 X-61.4211 Y69.6931 
G01 X-61.2413 Y69.7515 
G01 X-61.0545 Y69.7811 
G01 X-60.8655 Y69.7811 
G01 X-60.6787 Y69.7515 
G01 X-60.4989 Y69.6931 
G01 X-60.3305 Y69.6073 
G01 X-60.1775 Y69.4961 
G01 X-60.0439 Y69.3625 
G01 X-59.9327 Y69.2095 
G01 X-59.8469 Y69.0411 
G01 X-59.7885 Y68.8613 
G01 X-59.7589 Y68.6745 
G01 X-59.7589 Y68.4855 
G01 X-59.7885 Y68.2987 
G01 X-59.8469 Y68.1189 
G01 X-59.9327 Y67.9505 
G01 X-60.0439 Y67.7975 
G01 X-60.1775 Y67.6638 
G01 X-60.3305 Y67.5527 
G01 X-60.4989 Y67.4669 
G01 X-60.6787 Y67.4085 
G01 X-60.8655 Y67.3789 
G01 X-61.0545 Y67.3789 
G01 X-61.2413 Y67.4085 
G01 X-61.4211 Y67.4669 
G01 X-61.5895 Y67.5527 
G01 X-61.7425 Y67.6638 
G01 X-61.8761 Y67.7975 
G01 X-61.9873 Y67.9505 
G01 X-62.0731 Y68.1189 
G01 X-62.1315 Y68.2987 
G01 X-62.1611 Y68.4855 
G00 Z2.5000 
G00 X-62.1611 Y65.9455 
G01 Z-0.1250 F254.00 
G01 X-62.1611 Y66.1345 F400.00 
G01 X-62.1315 Y66.3213 
G01 X-62.0731 Y66.5011 
G01 X-61.9873 Y66.6695 
G01 X-61.8761 Y66.8225 
G01 X-61.7425 Y66.9561 
G01 X-61.5895 Y67.0673 
G01 X-61.4211 Y67.1531 
G01 X-61.2413 Y67.2115 
G01 X-61.0545 Y67.2411 
G01 X-60.8655 Y67.2411 
G01 X-60.6787 Y67.2115 
G01 X-60.4989 Y67.1531 
G01 X-60.3305 Y67.0673 
G01 X-60.1775 Y66.9561 
G01 X-60.0439 Y66.8225 
G01 X-59.9327 Y66.6695 
G01 X-59.8469 Y66.5011 
G01 X-59.7885 Y66.3213 
G01 X-59.7589 Y66.1345 
G01 X-59.7589 Y65.9455 
G01 X-59.7885 Y65.7587 
G01 X-59.8469 Y65.5789 
G01 X-59.9327 Y65.4105 
G01 X-60.0439 Y65.2575 
G01 X-60.1775 Y65.1239 
G01 X-60.3305 Y65.0127 
G01 X-60.4989 Y64.9269 
G01 X-60.6787 Y64.8685 
G01 X-60.8655 Y64.8389 
G01 X-61.0545 Y64.8389 
G01 X-61.2413 Y64.8685 
G01 X-61.4211 Y64.9269 
G01 X-61.5895 Y65.0127 
G01 X-61.7425 Y65.1239 
G01 X-61.8761 Y65.2575 
G01 X-61.9873 Y65.4105 
G01 X-62.0731 Y65.5789 
G01 X-62.1315 Y65.7587 
G01 X-62.1611 Y65.9455 
G00 Z2.5000 
G00 X-62.1611 Y63.4055 
G01 Z-0.1250 F254.00 
G01 X-62.1611 Y63.5945 F400.00 
G01 X-62.1315 Y63.7813 
G01 X-62.0731 Y63.9611 
G01 X-61.9873 Y64.1295 
G01 X-61.8761 Y64.2825 
G01 X-61.7425 Y64.4161 
G01 X-61.5895 Y64.5273 
G01 X-61.4211 Y64.6131 
G01 X-61.2413 Y64.6715 
G01 X-61.0545 Y64.7011 
G01 X-60.8655 Y64.7011 
G01 X-60.6787 Y64.6715 
G01 X-60.4989 Y64.6131 
G01 X-60.3305 Y64.5273 
G01 X-60.1775 Y64.4161 
G01 X-60.0439 Y64.2825 
G01 X-59.9327 Y64.1295 
G01 X-59.8469 Y63.9611 
G01 X-59.7885 Y63.7813 
G01 X-59.7589 Y63.5945 
G01 X-59.7589 Y63.4055 
G01 X-59.7885 Y63.2187 
G01 X-59.8469 Y63.0389 
G01 X-59.9327 Y62.8705 
G01 X-60.0439 Y62.7175 
G01 X-60.1775 Y62.5839 
G01 X-60.3305 Y62.4727 
G01 X-60.4989 Y62.3869 
G01 X-60.6787 Y62.3285 
G01 X-60.8655 Y62.2989 
G01 X-61.0545 Y62.2989 
G01 X-61.2413 Y62.3285 
G01 X-61.4211 Y62.3869 
G01 X-61.5895 Y62.4727 
G01 X-61.7425 Y62.5839 
G01 X-61.8761 Y62.7175 
G01 X-61.9873 Y62.8705 
G01 X-62.0731 Y63.0389 
G01 X-62.1315 Y63.2187 
G01 X-62.1611 Y63.4055 
G00 Z2.5000 
G00 X-62.1611 Y60.8655 
G01 Z-0.1250 F254.00 
G01 X-62.1611 Y61.0545 F400.00 
G01 X-62.1315 Y61.2413 
G01 X-62.0731 Y61.4211 
G01 X-61.9873 Y61.5895 
G01 X-61.8761 Y61.7425 
G01 X-61.7425 Y61.8761 
G01 X-61.5895 Y61.9873 
G01 X-61.4211 Y62.0731 
G01 X-61.2413 Y62.1315 
G01 X-61.0545 Y62.1611 
G01 X-60.8655 Y62.1611 
G01 X-60.6787 Y62.1315 
G01 X-60.4989 Y62.0731 
G01 X-60.3305 Y61.9873 
G01 X-60.1775 Y61.8761 
G01 X-60.0439 Y61.7425 
G01 X-59.9327 Y61.5895 
G01 X-59.8469 Y61.4211 
G01 X-59.7885 Y61.2413 
G01 X-59.7589 Y61.0545 
G01 X-59.7589 Y60.8655 
G01 X-59.7885 Y60.6787 
G01 X-59.8469 Y60.4989 
G01 X-59.9327 Y60.3305 
G01 X-60.0439 Y60.1775 
G01 X-60.1775 Y60.0439 
G01 X-60.3305 Y59.9327 
G01 X-60.4989 Y59.8469 
G01 X-60.6787 Y59.7885 
G01 X-60.8655 Y59.7589 
G01 X-61.0545 Y59.7589 
G01 X-61.2413 Y59.7885 
G01 X-61.4211 Y59.8469 
G01 X-61.5895 Y59.9327 
G01 X-61.7425 Y60.0439 
G01 X-61.8761 Y60.1775 
G01 X-61.9873 Y60.3305 
G01 X-62.0731 Y60.4989 
G01 X-62.1315 Y60.6787 
G01 X-62.1611 Y60.8655 
G00 Z2.5000 
G00 X-62.1611 Y58.3255 
G01 Z-0.1250 F254.00 
G01 X-62.1611 Y58.5145 F400.00 
G01 X-62.1315 Y58.7013 
G01 X-62.0731 Y58.8811 
G01 X-61.9873 Y59.0495 
G01 X-61.8761 Y59.2025 
G01 X-61.7425 Y59.3361 
G01 X-61.5895 Y59.4473 
G01 X-61.4211 Y59.5331 
G01 X-61.2413 Y59.5915 
G01 X-61.0545 Y59.6211 
G01 X-60.8655 Y59.6211 
G01 X-60.6787 Y59.5915 
G01 X-60.4989 Y59.5331 
G01 X-60.3305 Y59.4473 
G01 X-60.1775 Y59.3361 
G01 X-60.0439 Y59.2025 
G01 X-59.9327 Y59.0495 
G01 X-59.8616 Y58.9099 
G01 X-58.3555 Y58.9099 
G01 X-58.2309 Y58.8765 
G01 X-58.1192 Y58.8120 
G01 X-58.0280 Y58.7208 
G01 X-57.9635 Y58.6091 
G01 X-57.9301 Y58.4845 
G01 X-57.9301 Y41.1299 
G01 X-44.2784 Y41.1299 
G01 X-44.2073 Y41.2695 
G01 X-44.0961 Y41.4225 
G01 X-43.9625 Y41.5561 
G01 X-43.8095 Y41.6673 
G01 X-43.6411 Y41.7531 
G01 X-43.4613 Y41.8115 
G01 X-43.2745 Y41.8411 
G01 X-43.0855 Y41.8411 
G01 X-42.8987 Y41.8115 
G01 X-42.7189 Y41.7531 
G01 X-42.5505 Y41.6673 
G01 X-42.3975 Y41.5561 
G01 X-42.2639 Y41.4225 
G01 X-42.1527 Y41.2695 
G01 X-42.0669 Y41.1011 
G01 X-42.0085 Y40.9213 
G01 X-41.9789 Y40.7345 
G01 X-41.9789 Y40.5455 
G01 X-42.0085 Y40.3587 
G01 X-42.0669 Y40.1789 
G01 X-42.1527 Y40.0105 
G01 X-42.2639 Y39.8575 
G01 X-42.3975 Y39.7238 
G01 X-42.5505 Y39.6127 
G01 X-42.7189 Y39.5269 
G01 X-42.8987 Y39.4685 
G01 X-43.0855 Y39.4389 
G01 X-43.2745 Y39.4389 
G01 X-43.4613 Y39.4685 
G01 X-43.6411 Y39.5269 
G01 X-43.8095 Y39.6127 
G01 X-43.9625 Y39.7238 
G01 X-44.0961 Y39.8575 
G01 X-44.2073 Y40.0105 
G01 X-44.2784 Y40.1501 
G01 X-58.4845 Y40.1501 
G01 X-58.6091 Y40.1835 
G01 X-58.7208 Y40.2480 
G01 X-58.8120 Y40.3392 
G01 X-58.8765 Y40.4509 
G01 X-58.9099 Y40.5755 
G01 X-58.9099 Y57.9301 
G01 X-59.8616 Y57.9301 
G01 X-59.9327 Y57.7905 
G01 X-60.0439 Y57.6375 
G01 X-60.1775 Y57.5038 
G01 X-60.3305 Y57.3927 
G01 X-60.4989 Y57.3069 
G01 X-60.6787 Y57.2485 
G01 X-60.8655 Y57.2189 
G01 X-61.0545 Y57.2189 
G01 X-61.2413 Y57.2485 
G01 X-61.4211 Y57.3069 
G01 X-61.5895 Y57.3927 
G01 X-61.7425 Y57.5038 
G01 X-61.8761 Y57.6375 
G01 X-61.9873 Y57.7905 
G01 X-62.0731 Y57.9589 
G01 X-62.1315 Y58.1387 
G01 X-62.1611 Y58.3255 
G00 Z2.5000 
G00 X-62.1611 Y53.2455 
G01 Z-0.1250 F254.00 
G01 X-62.1611 Y53.4345 F400.00 
G01 X-62.1315 Y53.6213 
G01 X-62.0731 Y53.8011 
G01 X-61.9873 Y53.9695 
G01 X-61.8761 Y54.1225 
G01 X-61.7425 Y54.2561 
G01 X-61.5895 Y54.3673 
G01 X-61.4211 Y54.4531 
G01 X-61.2413 Y54.5115 
G01 X-61.0545 Y54.5411 
G01 X-60.8655 Y54.5411 
G01 X-60.6787 Y54.5115 
G01 X-60.4989 Y54.4531 
G01 X-60.3305 Y54.3673 
G01 X-60.1775 Y54.2561 
G01 X-60.0439 Y54.1225 
G01 X-59.9327 Y53.9695 
G01 X-59.8469 Y53.8011 
G01 X-59.7885 Y53.6213 
G01 X-59.7589 Y53.4345 
G01 X-59.7589 Y53.2455 
G01 X-59.7885 Y53.0587 
G01 X-59.8469 Y52.8789 
G01 X-59.9327 Y52.7105 
G01 X-60.0439 Y52.5575 
G01 X-60.1775 Y52.4239 
G01 X-60.3305 Y52.3127 
G01 X-60.4989 Y52.2269 
G01 X-60.6787 Y52.1685 
G01 X-60.8655 Y52.1389 
G01 X-61.0545 Y52.1389 
G01 X-61.2413 Y52.1685 
G01 X-61.4211 Y52.2269 
G01 X-61.5895 Y52.3127 
G01 X-61.7425 Y52.4239 
G01 X-61.8761 Y52.5575 
G01 X-61.9873 Y52.7105 
G01 X-62.0731 Y52.8789 
G01 X-62.1315 Y53.0587 
G01 X-62.1611 Y53.2455 
G00 Z2.5000 
G00 X-54.3673 Y23.4895 
G01 Z-0.1250 F254.00 
G01 X-54.2561 Y23.6425 F400.00 
G01 X-54.1225 Y23.7761 
G01 X-53.9695 Y23.8873 
G01 X-53.8011 Y23.9731 
G01 X-53.6213 Y24.0315 
G01 X-53.4345 Y24.0611 
G01 X-53.2455 Y24.0611 
G01 X-53.0587 Y24.0315 
G01 X-52.8789 Y23.9731 
G01 X-52.7105 Y23.8873 
G01 X-52.5575 Y23.7761 
G01 X-52.4239 Y23.6425 
G01 X-52.3127 Y23.4895 
G01 X-52.2269 Y23.3211 
G01 X-52.1685 Y23.1413 
G01 X-52.1389 Y22.9545 
G01 X-52.1389 Y22.7655 
G01 X-52.1685 Y22.5787 
G01 X-52.2269 Y22.3989 
G01 X-52.3127 Y22.2305 
G01 X-52.4239 Y22.0775 
G01 X-52.5575 Y21.9439 
G01 X-52.7105 Y21.8327 
G01 X-52.8789 Y21.7469 
G01 X-53.0587 Y21.6885 
G01 X-53.2455 Y21.6589 
G01 X-53.4345 Y21.6589 
G01 X-53.6213 Y21.6885 
G01 X-53.8011 Y21.7469 
G01 X-53.9695 Y21.8327 
G01 X-54.1225 Y21.9439 
G01 X-54.2561 Y22.0775 
G01 X-54.3673 Y22.2305 
G01 X-54.4384 Y22.3701 
G01 X-54.7816 Y22.3701 
G01 X-54.8527 Y22.2305 
G01 X-54.9639 Y22.0775 
G01 X-55.0975 Y21.9439 
G01 X-55.2505 Y21.8327 
G01 X-55.4189 Y21.7469 
G01 X-55.5987 Y21.6885 
G01 X-55.7855 Y21.6589 
G01 X-55.9745 Y21.6589 
G01 X-56.1613 Y21.6885 
G01 X-56.3411 Y21.7469 
G01 X-56.5095 Y21.8327 
G01 X-56.6625 Y21.9439 
G01 X-56.7961 Y22.0775 
G01 X-56.9073 Y22.2305 
G01 X-56.9784 Y22.3701 
G01 X-58.2171 Y22.3701 
G01 X-60.4701 Y20.1171 
G01 X-60.4701 Y18.8784 
G01 X-60.3305 Y18.8073 
G01 X-60.1775 Y18.6961 
G01 X-60.0439 Y18.5625 
G01 X-59.9327 Y18.4095 
G01 X-59.8469 Y18.2411 
G01 X-59.7885 Y18.0613 
G01 X-59.7589 Y17.8745 
G01 X-59.7589 Y17.6855 
G01 X-59.7885 Y17.4987 
G01 X-59.8469 Y17.3189 
G01 X-59.9327 Y17.1505 
G01 X-60.0439 Y16.9975 
G01 X-60.1775 Y16.8638 
G01 X-60.3305 Y16.7527 
G01 X-60.4989 Y16.6669 
G01 X-60.6787 Y16.6085 
G01 X-60.8655 Y16.5789 
G01 X-61.0545 Y16.5789 
G01 X-61.2413 Y16.6085 
G01 X-61.4211 Y16.6669 
G01 X-61.5895 Y16.7527 
G01 X-61.7425 Y16.8638 
G01 X-61.8761 Y16.9975 
G01 X-61.9873 Y17.1505 
G01 X-62.0731 Y17.3189 
G01 X-62.1315 Y17.4987 
G01 X-62.1611 Y17.6855 
G01 X-62.1611 Y17.8745 
G01 X-62.1315 Y18.0613 
G01 X-62.0731 Y18.2411 
G01 X-61.9873 Y18.4095 
G01 X-61.8761 Y18.5625 
G01 X-61.7425 Y18.6961 
G01 X-61.5895 Y18.8073 
G01 X-61.4499 Y18.8784 
G01 X-61.4499 Y20.3845 
G01 X-61.4165 Y20.5091 
G01 X-61.3520 Y20.6208 
G01 X-61.2608 Y20.7120 
G01 X-58.7208 Y23.2520 
G01 X-58.6091 Y23.3165 
G01 X-58.4845 Y23.3499 
