(.../eagle/ulps/pcbgcode/pcb-gcode.ulp)
(Copyright 2005 - 2012 by John Johnson)
(See readme.txt for licensing terms.)
(This file generated from the board:)
(.../Timing-Gate/gate-controller-V2.brd)
(Current profile is .../pcbgcode/profiles/generic.pp  )
(This file generated 27/01/2020 23:08)
(Settings from pcb-machine.h)
(  Tool Size)
(0.1778 )
(Z Axis Settings)
(  High     Up        Down     Drill)
(15.0000 	2.5000 	-0.1250 	-2.0000 )
(spindle on time = 3.0000)
(milling depth = -0.2540)
(text depth = -0.1270)
(tool change at 0.0000 0.0000 45.0000 )
(feed rate xy = F400.00 )
(feed rate z  = F254.00 )
(Settings from pcb-defaults.h)
(isolate min = 0.0200)
(isolate max = 0.2500)
(isolate step = 0.1200)
(Generated bottom outlines, bottom drill, )
(Unit of measure: mm)
( Tool|       Size       |  Min Sub |  Max Sub |   Count )
( T01  1.000mm 0.0394in 0.0000in 0.0000in )
(Metric Mode)
G21
(Absolute Coordinates)
G90
M05
G00 Z45.0000 
G00 X0.0000 Y0.0000 
M06 T01  ; 1.0000 
G01 Z0.0000 F254.00 
M06 T01  ; 1.0000 
G00 Z2.5000 
M03
G04 P3.000000
G00 Z2.500000
G00 X-33.0200 Y33.0200 
G01 Z-2.0000 F254.00 
G01 Z2.500000
(R2.5000  P1.000000)
(G00 Z2.500000)
G00 X-33.0200 Y63.5000 
G01 Z-2.000000
G01 Z2.500000
(G00 Z2.500000)
G00 X-33.0200 Y68.5800 
G01 Z-2.000000
G01 Z2.500000
(G00 Z2.500000)
G00 X-33.0200 Y78.7400 
G01 Z-2.000000
G01 Z2.500000
(G00 Z2.500000)
G00 X-35.5600 Y43.1800 
G01 Z-2.000000
G01 Z2.500000
(G00 Z2.500000)
G00 X-35.5600 Y68.5800 
G01 Z-2.000000
G01 Z2.500000
(G00 Z2.500000)
G00 X-38.1000 Y33.0200 
G01 Z-2.000000
G01 Z2.500000
(G00 Z2.500000)
G00 X-38.1000 Y50.8000 
G01 Z-2.000000
G01 Z2.500000
(G00 Z2.500000)
G00 X-38.1000 Y60.9600 
G01 Z-2.000000
G01 Z2.500000
(G00 Z2.500000)
G00 X-38.1000 Y71.1200 
G01 Z-2.000000
G01 Z2.500000
(G00 Z2.500000)
G00 X-40.6400 Y60.9600 
G01 Z-2.000000
G01 Z2.500000
(G00 Z2.500000)
G00 X-40.6400 Y68.5800 
G01 Z-2.000000
G01 Z2.500000
(G00 Z2.500000)
G00 X-43.1800 Y40.6400 
G01 Z-2.000000
G01 Z2.500000
(G00 Z2.500000)
G00 X-43.1800 Y78.7400 
G01 Z-2.000000
G01 Z2.500000
(G00 Z2.500000)
G00 X-45.7200 Y48.2600 
G01 Z-2.000000
G01 Z2.500000
(G00 Z2.500000)
G00 X-45.7200 Y50.8000 
G01 Z-2.000000
G01 Z2.500000
(G00 Z2.500000)
G00 X-45.7200 Y53.3400 
G01 Z-2.000000
G01 Z2.500000
(G00 Z2.500000)
G00 X-45.7200 Y55.8800 
G01 Z-2.000000
G01 Z2.500000
(G00 Z2.500000)
G00 X-45.7200 Y58.4200 
G01 Z-2.000000
G01 Z2.500000
(G00 Z2.500000)
G00 X-45.7200 Y60.9600 
G01 Z-2.000000
G01 Z2.500000
(G00 Z2.500000)
G00 X-45.7200 Y63.5000 
G01 Z-2.000000
G01 Z2.500000
(G00 Z2.500000)
G00 X-45.7200 Y66.0400 
G01 Z-2.000000
G01 Z2.500000
(G00 Z2.500000)
G00 X-45.7200 Y68.5800 
G01 Z-2.000000
G01 Z2.500000
(G00 Z2.500000)
G00 X-45.7200 Y71.1200 
G01 Z-2.000000
G01 Z2.500000
(G00 Z2.500000)
G00 X-45.7200 Y73.6600 
G01 Z-2.000000
G01 Z2.500000
(G00 Z2.500000)
G00 X-45.7200 Y76.2000 
G01 Z-2.000000
G01 Z2.500000
(G00 Z2.500000)
G00 X-45.7200 Y78.7400 
G01 Z-2.000000
G01 Z2.500000
(G00 Z2.500000)
G00 X-45.7200 Y81.2800 
G01 Z-2.000000
G01 Z2.500000
(G00 Z2.500000)
G00 X-45.7200 Y83.8200 
G01 Z-2.000000
G01 Z2.500000
(G00 Z2.500000)
G00 X-48.2600 Y33.0200 
G01 Z-2.000000
G01 Z2.500000
(G00 Z2.500000)
G00 X-48.2600 Y43.1800 
G01 Z-2.000000
G01 Z2.500000
(G00 Z2.500000)
G00 X-53.3400 Y15.2400 
G01 Z-2.000000
G01 Z2.500000
(G00 Z2.500000)
G00 X-53.3400 Y17.7800 
G01 Z-2.000000
G01 Z2.500000
(G00 Z2.500000)
G00 X-53.3400 Y20.3200 
G01 Z-2.000000
G01 Z2.500000
(G00 Z2.500000)
G00 X-53.3400 Y22.8600 
G01 Z-2.000000
G01 Z2.500000
(G00 Z2.500000)
G00 X-53.3400 Y25.4000 
G01 Z-2.000000
G01 Z2.500000
(G00 Z2.500000)
G00 X-53.3400 Y27.9400 
G01 Z-2.000000
G01 Z2.500000
(G00 Z2.500000)
G00 X-55.8800 Y43.1800 
G01 Z-2.000000
G01 Z2.500000
(G00 Z2.500000)
G00 X-55.8800 Y22.8600 
G01 Z-2.000000
G01 Z2.500000
(G00 Z2.500000)
G00 X-60.9600 Y48.2600 
G01 Z-2.000000
G01 Z2.500000
(G00 Z2.500000)
G00 X-60.9600 Y50.8000 
G01 Z-2.000000
G01 Z2.500000
(G00 Z2.500000)
G00 X-60.9600 Y53.3400 
G01 Z-2.000000
G01 Z2.500000
(G00 Z2.500000)
G00 X-60.9600 Y55.8800 
G01 Z-2.000000
G01 Z2.500000
(G00 Z2.500000)
G00 X-60.9600 Y58.4200 
G01 Z-2.000000
G01 Z2.500000
(G00 Z2.500000)
G00 X-60.9600 Y60.9600 
G01 Z-2.000000
G01 Z2.500000
(G00 Z2.500000)
G00 X-60.9600 Y63.5000 
G01 Z-2.000000
G01 Z2.500000
(G00 Z2.500000)
G00 X-60.9600 Y66.0400 
G01 Z-2.000000
G01 Z2.500000
(G00 Z2.500000)
G00 X-60.9600 Y68.5800 
G01 Z-2.000000
G01 Z2.500000
(G00 Z2.500000)
G00 X-60.9600 Y71.1200 
G01 Z-2.000000
G01 Z2.500000
(G00 Z2.500000)
G00 X-60.9600 Y73.6600 
G01 Z-2.000000
G01 Z2.500000
(G00 Z2.500000)
G00 X-60.9600 Y76.2000 
G01 Z-2.000000
G01 Z2.500000
(G00 Z2.500000)
G00 X-60.9600 Y78.7400 
G01 Z-2.000000
G01 Z2.500000
(G00 Z2.500000)
G00 X-60.9600 Y81.2800 
G01 Z-2.000000
G01 Z2.500000
(G00 Z2.500000)
G00 X-60.9600 Y83.8200 
G01 Z-2.000000
G01 Z2.500000
(G00 Z2.500000)
G00 X-60.9600 Y17.7800 
G01 Z-2.000000
G01 Z2.500000
(G00 Z2.500000)
G00 X-60.9600 Y27.9400 
G01 Z-2.000000
G01 Z2.500000
(G00 Z2.500000)
G00 X-63.5000 Y48.2600 
G01 Z-2.000000
G01 Z2.500000
(G00 Z2.500000)
G00 X-63.5000 Y50.8000 
G01 Z-2.000000
G01 Z2.500000
(G00 Z2.500000)
G00 X-63.5000 Y55.8800 
G01 Z-2.000000
G01 Z2.500000
(G00 Z2.500000)
G00 X-63.5000 Y17.7800 
G01 Z-2.000000
G01 Z2.500000
(G00 Z2.500000)
G00 X-63.5000 Y27.9400 
G01 Z-2.000000
G01 Z2.500000
(G00 Z2.500000)
G00 X-78.7400 Y68.5800 
G01 Z-2.000000
G01 Z2.500000
(G00 Z2.500000)
G00 X-78.7400 Y78.7400 
G01 Z-2.000000
G01 Z2.500000
(G00 Z2.500000)
G00 X-81.2800 Y66.0400 
G01 Z-2.000000
G01 Z2.500000
(G00 Z2.500000)
G00 X-81.2800 Y76.2000 
G01 Z-2.000000
G01 Z2.500000
(G00 Z2.500000)
G00 X-83.8200 Y55.8800 
G01 Z-2.000000
G01 Z2.500000
(G00 Z2.500000)
G00 X-83.8200 Y68.5800 
G01 Z-2.000000
G01 Z2.500000
(G00 Z2.500000)
G00 X-83.8200 Y78.7400 
G01 Z-2.000000
G01 Z2.500000
(G00 Z2.500000)
G00 X-86.3600 Y50.8000 
G01 Z-2.000000
G01 Z2.500000
(G00 Z2.500000)
G00 X-86.3600 Y71.1200 
G01 Z-2.000000
G01 Z2.500000
(G00 Z2.500000)
G00 X-86.3600 Y73.6600 
G01 Z-2.000000
G01 Z2.500000
(G00 Z2.500000)
G00 X-86.3600 Y76.2000 
G01 Z-2.000000
G01 Z2.500000
(G00 Z2.500000)
G00 X-86.3600 Y78.7400 
G01 Z-2.000000
G01 Z2.500000
(G00 Z2.500000)
G00 X-88.9000 Y48.2600 
G01 Z-2.000000
G01 Z2.500000
(G00 Z2.500000)
G00 X-91.4400 Y68.5800 
G01 Z-2.000000
G01 Z2.500000
(G00 Z2.500000)
G00 X-91.4400 Y71.1200 
G01 Z-2.000000
G01 Z2.500000
(G00 Z2.500000)
G00 X-91.4400 Y73.6600 
G01 Z-2.000000
G01 Z2.500000
(G00 Z2.500000)
G00 X-91.4400 Y76.2000 
G01 Z-2.000000
G01 Z2.500000
(G00 Z2.500000)
G00 X-91.4400 Y78.7400 
G01 Z-2.000000
G01 Z2.500000
(G00 Z2.500000)
G00 X-91.4400 Y81.2800 
G01 Z-2.000000
G01 Z2.500000
(G00 Z2.500000)
G00 X-93.9800 Y48.2600 
G01 Z-2.000000
G01 Z2.500000
(G00 Z2.500000)
G00 X-93.9800 Y27.9400 
G01 Z-2.000000
G01 Z2.500000
(G00 Z2.500000)
G00 X-99.0600 Y38.1000 
G01 Z-2.000000
G01 Z2.500000
(G00 Z2.500000)
G00 X-99.0600 Y48.2600 
G01 Z-2.000000
G01 Z2.500000
(G00 Z2.500000)
G00 X-104.1400 Y30.4800 
G01 Z-2.000000
G01 Z2.500000
(G00 Z2.500000)
G00 X-106.6800 Y10.1600 
G01 Z-2.000000
G01 Z2.500000
(G00 Z2.500000)
G00 X-106.6800 Y12.7000 
G01 Z-2.000000
G01 Z2.500000
(G00 Z2.500000)
G00 X-106.6800 Y15.2400 
G01 Z-2.000000
G01 Z2.500000
(G00 Z2.500000)
G00 X-106.6800 Y17.7800 
G01 Z-2.000000
G01 Z2.500000
(G00 Z2.500000)
G00 X-106.6800 Y20.3200 
G01 Z-2.000000
G01 Z2.500000
(G00 Z2.500000)
G00 X-106.6800 Y22.8600 
G01 Z-2.000000
G01 Z2.500000
(G00 Z2.500000)
G00 X-109.2200 Y35.5600 
G01 Z-2.000000
G01 Z2.500000
(G00 Z2.500000)
G00 X-109.2200 Y38.1000 
G01 Z-2.000000
G01 Z2.500000
(G00 Z2.500000)
G00 X-109.2200 Y40.6400 
G01 Z-2.000000
G01 Z2.500000
(G00 Z2.500000)
G00 X-109.2200 Y43.1800 
G01 Z-2.000000
G01 Z2.500000
(G00 Z2.500000)
G00 X-109.2200 Y45.7200 
G01 Z-2.000000
G01 Z2.500000
(G00 Z2.500000)
G00 X-109.2200 Y48.2600 
G01 Z-2.000000
G01 Z2.500000
(G00 Z2.500000)
G00 X-109.2200 Y50.8000 
G01 Z-2.000000
G01 Z2.500000
(G00 Z2.500000)
G00 X-114.3000 Y30.4800 
G01 Z-2.000000
G01 Z2.500000
(G00 Z2.500000)
G00 X-121.9200 Y10.1600 
G01 Z-2.000000
G01 Z2.500000
(G00 Z2.500000)
G00 X-121.9200 Y12.7000 
G01 Z-2.000000
G01 Z2.500000
(G00 Z2.500000)
G00 X-121.9200 Y15.2400 
G01 Z-2.000000
G01 Z2.500000
(G00 Z2.500000)
G00 X-121.9200 Y17.7800 
G01 Z-2.000000
G01 Z2.500000
(G00 Z2.500000)
G00 X-121.9200 Y20.3200 
G01 Z-2.000000
G01 Z2.500000
(G00 Z2.500000)
G00 X-121.9200 Y22.8600 
G01 Z-2.000000
G01 Z2.500000
(G00 Z2.500000)
G00 X-12.7000 Y38.1000 
G01 Z-2.000000
G01 Z2.500000
(G00 Z2.500000)
G00 X-12.7000 Y48.2600 
G01 Z-2.000000
G01 Z2.500000
(G00 Z2.500000)
G00 X-15.2400 Y38.1000 
G01 Z-2.000000
G01 Z2.500000
(G00 Z2.500000)
G00 X-15.2400 Y48.2600 
G01 Z-2.000000
G01 Z2.500000
(G00 Z2.500000)
G00 X-17.7800 Y38.1000 
G01 Z-2.000000
G01 Z2.500000
(G00 Z2.500000)
G00 X-17.7800 Y48.2600 
G01 Z-2.000000
G01 Z2.500000
(G00 Z2.500000)
G00 X-20.3200 Y38.1000 
G01 Z-2.000000
G01 Z2.500000
(G00 Z2.500000)
G00 X-20.3200 Y48.2600 
G01 Z-2.000000
G01 Z2.500000
(G00 Z2.500000)
G00 X-22.8600 Y38.1000 
G01 Z-2.000000
G01 Z2.500000
(G00 Z2.500000)
G00 X-22.8600 Y48.2600 
G01 Z-2.000000
G01 Z2.500000
(G00 Z2.500000)
G00 X-25.4000 Y38.1000 
G01 Z-2.000000
G01 Z2.500000
(G00 Z2.500000)
G00 X-25.4000 Y48.2600 
G01 Z-2.000000
G01 Z2.500000
(G00 Z2.500000)
G00 X-27.9400 Y50.8000 
G01 Z-2.000000
G01 Z2.500000
(G00 Z2.500000)
G00 X-27.9400 Y53.3400 
G01 Z-2.000000
G01 Z2.500000
(G00 Z2.500000)
G00 X-27.9400 Y55.8800 
G01 Z-2.000000
G01 Z2.500000
(G00 Z2.500000)
G00 X-27.9400 Y58.4200 
G01 Z-2.000000
G01 Z2.500000
(G00 Z2.500000)
G00 X-27.9400 Y60.9600 
G01 Z-2.000000
G01 Z2.500000
(G00 Z2.500000)
G00 X-27.9400 Y63.5000 
G01 Z-2.000000
G01 Z2.500000
(G00 Z2.500000)
G00 X-27.9400 Y66.0400 
G01 Z-2.000000
G01 Z2.500000
(G00 Z2.500000)
G00 X-27.9400 Y68.5800 
G01 Z-2.000000
G01 Z2.500000
(G00 Z2.500000)
G00 X-27.9400 Y71.1200 
G01 Z-2.000000
G01 Z2.500000
(G00 Z2.500000)
G00 X-27.9400 Y73.6600 
G01 Z-2.000000
G01 Z2.500000
(G00 Z2.500000)
G00 X-27.9400 Y76.2000 
G01 Z-2.000000
G01 Z2.500000
(G00 Z2.500000)
G00 X-27.9400 Y78.7400 
G01 Z-2.000000
G01 Z2.500000
(G00 Z2.500000)
G00 X-27.9400 Y81.2800 
G01 Z-2.000000
G01 Z2.500000
(G00 Z2.500000)
G00 X-30.4800 Y50.8000 
G01 Z-2.000000
G01 Z2.500000
(G00 Z2.500000)
G00 X-30.4800 Y71.1200 
G01 Z-2.000000
G01 Z2.500000
T01 
G00 Z15.0000 
M05
M02
