(Project gate-controller-mirrored-V2)
(Created by Estlcam version 11 build 11.119)
(Machining time about 00:07:09 hours)

(Required tools:)
(PCB BURR 2.4mm)

M03 S10000
G00 Z5.0000


(No. 1 Hole: Hole 4)
G00 X-14.9884 Y4.4505
G00 Z0.5000
G01 Z-0.5000 F400 S10000
G02 X-14.2236 Y4.3934 I0.3841 J-0.0050
G02 X-14.9845 Y4.3905 I-0.3806 J0.0508
G01 X-14.9884 Y4.4505
G01 Z-1.0000
G02 X-14.2236 Y4.3934 I0.3841 J-0.0050
G02 X-14.9845 Y4.3905 I-0.3806 J0.0508
G01 X-14.9884 Y4.4505
G01 Z-1.5000
G02 X-14.2236 Y4.3934 I0.3841 J-0.0050
G02 X-14.9845 Y4.3905 I-0.3806 J0.0508
G01 X-14.9884 Y4.4505
G01 Z-2.0000
G02 X-14.2236 Y4.3934 I0.3841 J-0.0050
G02 X-14.9845 Y4.3905 I-0.3806 J0.0508
G01 X-14.9884 Y4.4505
G00 Z5.0000


(No. 2 Hole: Hole 3)
G00 X-14.9390 Y68.3887 Z5.0000
G00 Z0.5000
G01 Z-0.5000 F400
G02 X-14.9867 Y68.5311 I0.3340 J0.1913
G01 X-14.9898 Y68.5813
G02 X-14.2216 Y68.5855 I0.3841 J-0.0010
G02 X-14.9390 Y68.3887 I-0.3840 J-0.0060
G01 Z-1.0000
G02 X-14.9867 Y68.5311 I0.3340 J0.1913
G01 X-14.9898 Y68.5813
G02 X-14.2216 Y68.5855 I0.3841 J-0.0010
G02 X-14.9390 Y68.3887 I-0.3840 J-0.0060
G01 Z-1.5000
G02 X-14.9867 Y68.5311 I0.3340 J0.1913
G01 X-14.9898 Y68.5813
G02 X-14.2216 Y68.5855 I0.3841 J-0.0010
G02 X-14.9390 Y68.3887 I-0.3840 J-0.0060
G01 Z-2.0000
G02 X-14.9867 Y68.5311 I0.3340 J0.1913
G01 X-14.9898 Y68.5813
G02 X-14.2216 Y68.5855 I0.3841 J-0.0010
G02 X-14.9390 Y68.3887 I-0.3840 J-0.0060
G00 Z5.0000


(No. 3 Hole: Hole 1)
G00 X-132.8159 Y68.2086 Z5.0000
G00 Z0.5000
G01 Z-0.5000 F400
G02 X-132.9862 Y68.8531 I0.1009 J0.3714
G02 X-132.3429 Y68.6783 I0.2712 J-0.2731
G02 X-132.8159 Y68.2086 I-0.3721 J-0.0983
G01 Z-1.0000
G02 X-132.9862 Y68.8531 I0.1009 J0.3714
G02 X-132.3429 Y68.6783 I0.2712 J-0.2731
G02 X-132.8159 Y68.2086 I-0.3721 J-0.0983
G01 Z-1.5000
G02 X-132.9862 Y68.8531 I0.1009 J0.3714
G02 X-132.3429 Y68.6783 I0.2712 J-0.2731
G02 X-132.8159 Y68.2086 I-0.3721 J-0.0983
G01 Z-2.0000
G02 X-132.9862 Y68.8531 I0.1009 J0.3714
G02 X-132.3429 Y68.6783 I0.2712 J-0.2731
G02 X-132.8159 Y68.2086 I-0.3721 J-0.0983
G00 Z5.0000


(No. 4 Hole: Hole 2)
G00 X-133.0593 Y4.3038 Z5.0000
G00 Z0.5000
G01 Z-0.5000 F400
G01 X-133.0748 Y4.3500
G01 X-133.0841 Y4.3978
G01 X-133.0871 Y4.4463
G02 X-132.3443 Y4.4395 I0.3714 J-0.0010
G02 X-133.0593 Y4.3038 I-0.3713 J0.0051
G01 Z-1.0000
G01 X-133.0748 Y4.3500
G01 X-133.0841 Y4.3978
G01 X-133.0871 Y4.4463
G02 X-132.3443 Y4.4395 I0.3714 J-0.0010
G02 X-133.0593 Y4.3038 I-0.3713 J0.0051
G01 Z-1.5000
G01 X-133.0748 Y4.3500
G01 X-133.0841 Y4.3978
G01 X-133.0871 Y4.4463
G02 X-132.3443 Y4.4395 I0.3714 J-0.0010
G02 X-133.0593 Y4.3038 I-0.3713 J0.0051
G01 Z-2.0000
G01 X-133.0748 Y4.3500
G01 X-133.0841 Y4.3978
G01 X-133.0871 Y4.4463
G02 X-132.3443 Y4.4395 I0.3714 J-0.0010
G02 X-133.0593 Y4.3038 I-0.3713 J0.0051
G00 Z5.0000


(No. 5 Part: Part 3)
G00 X-108.5614 Y-1.2000 Z5.0000
G00 Z0.5000
G01 Z-0.5000 F400
G01 X-7.6200
G03 X-6.4230 Y-0.0849 I0.0000 J1.2000
G01 X-6.3626 Y0.8363
G02 X0.0785 Y6.4226 I6.3742 J-0.8430
G03 X1.2000 Y7.6400 I-0.0787 J1.1977
G01 Y78.7400
G03 X0.0849 Y79.9370 I-1.2000 J0.0000
G02 X-6.9918 Y86.0732 I-0.0739 J7.0635
G01 X-7.0576 Y87.0735
G03 X-8.2750 Y88.1950 I-1.1977 J-0.0787
G01 X-139.0650
G03 X-140.2620 Y87.0799 I0.0000 J-1.2000
G02 X-147.3985 Y79.9374 I-7.0719 J-0.0705
G03 X-148.5200 Y78.7464 I0.0785 J-1.1974
G01 Y78.7200
G01 Y12.7200
G01 Y78.7400
G01 Y7.6200
G01 X-148.5140 Y7.5002
G03 X-147.4049 Y6.4230 I1.1940 J0.1198
G02 X-140.8974 Y-0.0785 I0.0704 J-6.4370
G03 X-139.6800 Y-1.2000 I1.1977 J0.0787
G01 X-108.5614
G01 Z-1.0000
G01 X-7.6200
G03 X-6.4230 Y-0.0849 I0.0000 J1.2000
G01 X-6.3626 Y0.8363
G02 X0.0785 Y6.4226 I6.3742 J-0.8430
G03 X1.2000 Y7.6400 I-0.0787 J1.1977
G01 Y78.7400
G03 X0.0849 Y79.9370 I-1.2000 J0.0000
G02 X-6.9918 Y86.0732 I-0.0739 J7.0635
G01 X-7.0576 Y87.0735
G03 X-8.2750 Y88.1950 I-1.1977 J-0.0787
G01 X-139.0650
G03 X-140.2620 Y87.0799 I0.0000 J-1.2000
G02 X-147.3985 Y79.9374 I-7.0719 J-0.0705
G03 X-148.5200 Y78.7464 I0.0785 J-1.1974
G01 Y78.7200
G01 Y12.7200
G01 Y78.7400
G01 Y7.6200
G01 X-148.5140 Y7.5002
G03 X-147.4049 Y6.4230 I1.1940 J0.1198
G02 X-140.8974 Y-0.0785 I0.0704 J-6.4370
G03 X-139.6800 Y-1.2000 I1.1977 J0.0787
G01 X-108.5614
G01 Z-1.5000
G01 X-7.6200
G03 X-6.4230 Y-0.0849 I0.0000 J1.2000
G01 X-6.3626 Y0.8363
G02 X0.0785 Y6.4226 I6.3742 J-0.8430
G03 X1.2000 Y7.6400 I-0.0787 J1.1977
G01 Y78.7400
G03 X0.0849 Y79.9370 I-1.2000 J0.0000
G02 X-6.9918 Y86.0732 I-0.0739 J7.0635
G01 X-7.0576 Y87.0735
G03 X-8.2750 Y88.1950 I-1.1977 J-0.0787
G01 X-139.0650
G03 X-140.2620 Y87.0799 I0.0000 J-1.2000
G02 X-147.3985 Y79.9374 I-7.0719 J-0.0705
G03 X-148.5200 Y78.7464 I0.0785 J-1.1974
G01 Y78.7200
G01 Y12.7200
G01 Y78.7400
G01 Y7.6200
G01 X-148.5140 Y7.5002
G03 X-147.4049 Y6.4230 I1.1940 J0.1198
G02 X-140.8974 Y-0.0785 I0.0704 J-6.4370
G03 X-139.6800 Y-1.2000 I1.1977 J0.0787
G01 X-108.5614
G01 Z-2.0000
G01 X-7.6200
G03 X-6.4230 Y-0.0849 I0.0000 J1.2000
G01 X-6.3626 Y0.8363
G02 X0.0785 Y6.4226 I6.3742 J-0.8430
G03 X1.2000 Y7.6400 I-0.0787 J1.1977
G01 Y78.7400
G03 X0.0849 Y79.9370 I-1.2000 J0.0000
G02 X-6.9918 Y86.0732 I-0.0739 J7.0635
G01 X-7.0576 Y87.0735
G03 X-8.2750 Y88.1950 I-1.1977 J-0.0787
G01 X-139.0650
G03 X-140.2620 Y87.0799 I0.0000 J-1.2000
G02 X-147.3985 Y79.9374 I-7.0719 J-0.0705
G03 X-148.5200 Y78.7464 I0.0785 J-1.1974
G01 Y78.7200
G01 Y12.7200
G01 Y78.7400
G01 Y7.6200
G01 X-148.5140 Y7.5002
G03 X-147.4049 Y6.4230 I1.1940 J0.1198
G02 X-140.8974 Y-0.0785 I0.0704 J-6.4370
G03 X-139.6800 Y-1.2000 I1.1977 J0.0787
G01 X-108.5614
G00 Z5.0000
G00 X0.0000 Y0.0000

M05
