(.../eagle/ulps/pcbgcode/pcb-gcode.ulp)
(Copyright 2005 - 2012 by John Johnson)
(See readme.txt for licensing terms.)
(This file generated from the board:)
(.../projects/Timing-Gate/gate-detector.brd)
(Current profile is .../pcbgcode/profiles/generic.pp  )
(This file generated 01/02/2020 14:51)
(Settings from pcb-machine.h)
(  Tool Size)
(0.1500 )
(Z Axis Settings)
(  High     Up        Down     Drill)
(15.0000 	2.5000 	-0.1000 	-2.5000 )
(spindle on time = 3.0000)
(milling depth = -0.2540)
(text depth = -0.1270)
(tool change at 0.0000 0.0000 45.0000 )
(feed rate xy = F400.00 )
(feed rate z  = F254.00 )
(Settings from pcb-defaults.h)
(isolate min = 0.0200)
(isolate max = 0.2500)
(isolate step = 0.1200)
(Generated bottom outlines, bottom drill, )
(Unit of measure: mm)
(Metric Mode)
G21
(Absolute Coordinates)
G90
G00 X0.0000 Y0.0000 
M03
G04 P3.000000
G00 Z2.5000 
G00 X-73.5772 Y4.3516 
G01 Z-0.1000 F254.00 
G01 X-73.5772 Y4.5384 F400.00 
G01 X-73.5480 Y4.7230 
G01 X-73.4902 Y4.9007 
G01 X-73.4054 Y5.0672 
G01 X-73.2955 Y5.2184 
G01 X-73.1634 Y5.3505 
G01 X-73.0122 Y5.4604 
G01 X-72.8457 Y5.5452 
G01 X-72.6680 Y5.6030 
G01 X-72.4834 Y5.6322 
G01 X-72.2966 Y5.6322 
G01 X-72.1120 Y5.6030 
G01 X-71.9343 Y5.5452 
G01 X-71.7678 Y5.4604 
G01 X-71.6166 Y5.3505 
G01 X-71.4845 Y5.2184 
G01 X-71.3746 Y5.0672 
G01 X-71.2898 Y4.9007 
G01 X-71.2320 Y4.7230 
G01 X-71.2028 Y4.5384 
G01 X-71.2028 Y4.3516 
G01 X-71.2320 Y4.1670 
G01 X-71.2898 Y3.9893 
G01 X-71.3746 Y3.8228 
G01 X-71.4845 Y3.6716 
G01 X-71.6166 Y3.5395 
G01 X-71.7678 Y3.4296 
G01 X-71.9343 Y3.3448 
G01 X-72.1120 Y3.2870 
G01 X-72.2966 Y3.2578 
G01 X-72.4834 Y3.2578 
G01 X-72.6680 Y3.2870 
G01 X-72.8457 Y3.3448 
G01 X-73.0122 Y3.4296 
G01 X-73.1634 Y3.5395 
G01 X-73.2955 Y3.6716 
G01 X-73.4054 Y3.8228 
G01 X-73.4902 Y3.9893 
G01 X-73.5480 Y4.1670 
G01 X-73.5772 Y4.3516 
G00 Z2.5000 
G00 X-45.3822 Y39.2766 
G01 Z-0.1000 F254.00 
G01 X-45.3822 Y39.4634 F400.00 
G01 X-45.3530 Y39.6480 
G01 X-45.2952 Y39.8257 
G01 X-45.2104 Y39.9922 
G01 X-45.1005 Y40.1434 
G01 X-44.9684 Y40.2755 
G01 X-44.8172 Y40.3854 
G01 X-44.6507 Y40.4702 
G01 X-44.4730 Y40.5280 
G01 X-44.2884 Y40.5572 
G01 X-44.1016 Y40.5572 
G01 X-43.9170 Y40.5280 
G01 X-43.7393 Y40.4702 
G01 X-43.5728 Y40.3854 
G01 X-43.4216 Y40.2755 
G01 X-43.2895 Y40.1434 
G01 X-43.1796 Y39.9922 
G01 X-43.0948 Y39.8257 
G01 X-43.0370 Y39.6480 
G01 X-43.0078 Y39.4634 
G01 X-43.0078 Y39.2766 
G01 X-43.0370 Y39.0920 
G01 X-43.0948 Y38.9143 
G01 X-43.1796 Y38.7478 
G01 X-43.2895 Y38.5966 
G01 X-43.4216 Y38.4645 
G01 X-43.5728 Y38.3546 
G01 X-43.7393 Y38.2698 
G01 X-43.9170 Y38.2120 
G01 X-44.1016 Y38.1828 
G01 X-44.2884 Y38.1828 
G01 X-44.4730 Y38.2120 
G01 X-44.6507 Y38.2698 
G01 X-44.8172 Y38.3546 
G01 X-44.9684 Y38.4645 
G01 X-45.1005 Y38.5966 
G01 X-45.2104 Y38.7478 
G01 X-45.2952 Y38.9143 
G01 X-45.3530 Y39.0920 
G01 X-45.3822 Y39.2766 
G00 Z2.5000 
G00 X-32.6822 Y39.2766 
G01 Z-0.1000 F254.00 
G01 X-32.6822 Y39.4634 F400.00 
G01 X-32.6530 Y39.6480 
G01 X-32.5952 Y39.8257 
G01 X-32.5104 Y39.9922 
G01 X-32.4005 Y40.1434 
G01 X-32.2684 Y40.2755 
G01 X-32.1172 Y40.3854 
G01 X-31.9507 Y40.4702 
G01 X-31.7730 Y40.5280 
G01 X-31.5884 Y40.5572 
G01 X-31.4016 Y40.5572 
G01 X-31.2170 Y40.5280 
G01 X-31.0393 Y40.4702 
G01 X-30.8728 Y40.3854 
G01 X-30.7216 Y40.2755 
G01 X-30.5895 Y40.1434 
G01 X-30.4796 Y39.9922 
G01 X-30.3948 Y39.8257 
G01 X-30.3370 Y39.6480 
G01 X-30.3078 Y39.4634 
G01 X-30.3078 Y39.2766 
G01 X-30.3370 Y39.0920 
G01 X-30.3948 Y38.9143 
G01 X-30.4796 Y38.7478 
G01 X-30.5895 Y38.5966 
G01 X-30.7216 Y38.4645 
G01 X-30.8728 Y38.3546 
G01 X-31.0393 Y38.2698 
G01 X-31.2170 Y38.2120 
G01 X-31.4016 Y38.1828 
G01 X-31.5884 Y38.1828 
G01 X-31.7730 Y38.2120 
G01 X-31.9507 Y38.2698 
G01 X-32.1172 Y38.3546 
G01 X-32.2684 Y38.4645 
G01 X-32.4005 Y38.5966 
G01 X-32.5104 Y38.7478 
G01 X-32.5952 Y38.9143 
G01 X-32.6530 Y39.0920 
G01 X-32.6822 Y39.2766 
G00 Z2.5000 
G00 X-31.2404 Y37.4522 
G01 Z-0.1000 F254.00 
G01 X-31.1305 Y37.6034 F400.00 
G01 X-30.9984 Y37.7355 
G01 X-30.8472 Y37.8454 
G01 X-30.6807 Y37.9302 
G01 X-30.5030 Y37.9880 
G01 X-30.3184 Y38.0172 
G01 X-30.1316 Y38.0172 
G01 X-29.9470 Y37.9880 
G01 X-29.7693 Y37.9302 
G01 X-29.6028 Y37.8454 
G01 X-29.4516 Y37.7355 
G01 X-29.3195 Y37.6034 
G01 X-29.2096 Y37.4522 
G01 X-29.1248 Y37.2857 
G01 X-29.0670 Y37.1080 
G01 X-29.0378 Y36.9234 
G01 X-29.0378 Y36.7366 
G01 X-29.0670 Y36.5520 
G01 X-29.1248 Y36.3743 
G01 X-29.2096 Y36.2078 
G01 X-29.3195 Y36.0566 
G01 X-29.4516 Y35.9245 
G01 X-29.6028 Y35.8146 
G01 X-29.7693 Y35.7298 
G01 X-29.9470 Y35.6720 
G01 X-30.1316 Y35.6428 
G01 X-30.3184 Y35.6428 
G01 X-30.5030 Y35.6720 
G01 X-30.6807 Y35.7298 
G01 X-30.8472 Y35.8146 
G01 X-30.9984 Y35.9245 
G01 X-31.1305 Y36.0566 
G01 X-31.2404 Y36.2078 
G01 X-31.3149 Y36.3540 
G01 X-32.8277 Y36.3540 
G01 X-32.9487 Y36.3864 
G01 X-33.0573 Y36.4491 
G01 X-34.3273 Y37.7191 
G01 X-34.4159 Y37.8077 
G01 X-34.4786 Y37.9163 
G01 X-34.5110 Y38.0373 
G01 X-34.5110 Y38.2801 
G01 X-34.6572 Y38.3546 
G01 X-34.8084 Y38.4645 
G01 X-34.9405 Y38.5966 
G01 X-35.0504 Y38.7478 
G01 X-35.1352 Y38.9143 
G01 X-35.1930 Y39.0920 
G01 X-35.2222 Y39.2766 
G01 X-35.2222 Y39.4634 
G01 X-35.1930 Y39.6480 
G01 X-35.1352 Y39.8257 
G01 X-35.0504 Y39.9922 
G01 X-34.9405 Y40.1434 
G01 X-34.8084 Y40.2755 
G01 X-34.6572 Y40.3854 
G01 X-34.4907 Y40.4702 
G01 X-34.3130 Y40.5280 
G01 X-34.1284 Y40.5572 
G01 X-33.9416 Y40.5572 
G01 X-33.7570 Y40.5280 
G01 X-33.5793 Y40.4702 
G01 X-33.4128 Y40.3854 
G01 X-33.2616 Y40.2755 
G01 X-33.1295 Y40.1434 
G01 X-33.0196 Y39.9922 
G01 X-32.9348 Y39.8257 
G01 X-32.8770 Y39.6480 
G01 X-32.8478 Y39.4634 
G01 X-32.8478 Y39.2766 
G01 X-32.8770 Y39.0920 
G01 X-32.9348 Y38.9143 
G01 X-33.0196 Y38.7478 
G01 X-33.1295 Y38.5966 
G01 X-33.2616 Y38.4645 
G01 X-33.4128 Y38.3546 
G01 X-33.5477 Y38.2859 
G01 X-32.5678 Y37.3060 
G01 X-31.3149 Y37.3060 
G01 X-31.2404 Y37.4522 
G00 Z2.5000 
G00 X-31.2404 Y34.9122 
G01 Z-0.1000 F254.00 
G01 X-31.1305 Y35.0634 F400.00 
G01 X-30.9984 Y35.1955 
G01 X-30.8472 Y35.3054 
G01 X-30.6807 Y35.3902 
G01 X-30.5030 Y35.4480 
G01 X-30.3184 Y35.4772 
G01 X-30.1316 Y35.4772 
G01 X-29.9470 Y35.4480 
G01 X-29.7693 Y35.3902 
G01 X-29.6028 Y35.3054 
G01 X-29.4516 Y35.1955 
G01 X-29.3195 Y35.0634 
G01 X-29.2096 Y34.9122 
G01 X-29.1248 Y34.7457 
G01 X-29.0670 Y34.5680 
G01 X-29.0378 Y34.3834 
G01 X-29.0378 Y34.1966 
G01 X-29.0670 Y34.0120 
G01 X-29.1248 Y33.8343 
G01 X-29.2096 Y33.6678 
G01 X-29.3195 Y33.5166 
G01 X-29.4516 Y33.3845 
G01 X-29.6028 Y33.2746 
G01 X-29.7693 Y33.1898 
G01 X-29.9470 Y33.1320 
G01 X-30.1316 Y33.1028 
G01 X-30.3184 Y33.1028 
G01 X-30.5030 Y33.1320 
G01 X-30.6807 Y33.1898 
G01 X-30.8472 Y33.2746 
G01 X-30.9984 Y33.3845 
G01 X-31.1305 Y33.5166 
G01 X-31.2404 Y33.6678 
G01 X-31.3149 Y33.8140 
G01 X-34.7327 Y33.8140 
G01 X-34.8537 Y33.8464 
G01 X-34.9623 Y33.9091 
G01 X-36.8673 Y35.8141 
G01 X-36.9559 Y35.9027 
G01 X-37.0186 Y36.0113 
G01 X-37.0510 Y36.1323 
G01 X-37.0510 Y38.2801 
G01 X-37.1972 Y38.3546 
G01 X-37.3484 Y38.4645 
G01 X-37.4805 Y38.5966 
G01 X-37.5904 Y38.7478 
G01 X-37.6752 Y38.9143 
G01 X-37.7330 Y39.0920 
G01 X-37.7622 Y39.2766 
G01 X-37.7622 Y39.4634 
G01 X-37.7330 Y39.6480 
G01 X-37.6752 Y39.8257 
G01 X-37.5904 Y39.9922 
G01 X-37.4805 Y40.1434 
G01 X-37.3484 Y40.2755 
G01 X-37.1972 Y40.3854 
G01 X-37.0307 Y40.4702 
G01 X-36.8530 Y40.5280 
G01 X-36.6684 Y40.5572 
G01 X-36.4816 Y40.5572 
G01 X-36.2970 Y40.5280 
G01 X-36.1193 Y40.4702 
G01 X-35.9528 Y40.3854 
G01 X-35.8016 Y40.2755 
G01 X-35.6695 Y40.1434 
G01 X-35.5596 Y39.9922 
G01 X-35.4748 Y39.8257 
G01 X-35.4170 Y39.6480 
G01 X-35.3878 Y39.4634 
G01 X-35.3878 Y39.2766 
G01 X-35.4170 Y39.0920 
G01 X-35.4748 Y38.9143 
G01 X-35.5596 Y38.7478 
G01 X-35.6695 Y38.5966 
G01 X-35.8016 Y38.4645 
G01 X-35.9528 Y38.3546 
G01 X-36.0990 Y38.2801 
G01 X-36.0990 Y36.3922 
G01 X-34.4728 Y34.7660 
G01 X-31.3149 Y34.7660 
G01 X-31.2404 Y34.9122 
G00 Z2.5000 
G00 X-31.4122 Y31.6566 
G01 Z-0.1000 F254.00 
G01 X-31.4122 Y31.8434 F400.00 
G01 X-31.3830 Y32.0280 
G01 X-31.3252 Y32.2057 
G01 X-31.2404 Y32.3722 
G01 X-31.1305 Y32.5234 
G01 X-30.9984 Y32.6555 
G01 X-30.8472 Y32.7654 
G01 X-30.6807 Y32.8502 
G01 X-30.5030 Y32.9080 
G01 X-30.3184 Y32.9372 
G01 X-30.1316 Y32.9372 
G01 X-29.9470 Y32.9080 
G01 X-29.7693 Y32.8502 
G01 X-29.6028 Y32.7654 
G01 X-29.4516 Y32.6555 
G01 X-29.3195 Y32.5234 
G01 X-29.2096 Y32.3722 
G01 X-29.1248 Y32.2057 
G01 X-29.0670 Y32.0280 
G01 X-29.0378 Y31.8434 
G01 X-29.0378 Y31.6566 
G01 X-29.0670 Y31.4720 
G01 X-29.1248 Y31.2943 
G01 X-29.2096 Y31.1278 
G01 X-29.3195 Y30.9766 
G01 X-29.4516 Y30.8445 
G01 X-29.6028 Y30.7346 
G01 X-29.7693 Y30.6498 
G01 X-29.9470 Y30.5920 
G01 X-30.1316 Y30.5628 
G01 X-30.3184 Y30.5628 
G01 X-30.5030 Y30.5920 
G01 X-30.6807 Y30.6498 
G01 X-30.8472 Y30.7346 
G01 X-30.9984 Y30.8445 
G01 X-31.1305 Y30.9766 
G01 X-31.2404 Y31.1278 
G01 X-31.3252 Y31.2943 
G01 X-31.3830 Y31.4720 
G01 X-31.4122 Y31.6566 
G00 Z2.5000 
G00 X-31.4122 Y29.1166 
G01 Z-0.1000 F254.00 
G01 X-31.4122 Y29.3034 F400.00 
G01 X-31.3830 Y29.4880 
G01 X-31.3252 Y29.6657 
G01 X-31.2404 Y29.8322 
G01 X-31.1305 Y29.9834 
G01 X-30.9984 Y30.1155 
G01 X-30.8472 Y30.2254 
G01 X-30.6807 Y30.3102 
G01 X-30.5030 Y30.3680 
G01 X-30.3184 Y30.3972 
G01 X-30.1316 Y30.3972 
G01 X-29.9470 Y30.3680 
G01 X-29.7693 Y30.3102 
G01 X-29.6028 Y30.2254 
G01 X-29.4516 Y30.1155 
G01 X-29.3195 Y29.9834 
G01 X-29.2096 Y29.8322 
G01 X-29.1351 Y29.6860 
G01 X-28.5199 Y29.6860 
G01 X-28.4454 Y29.8322 
G01 X-28.3355 Y29.9834 
G01 X-28.2034 Y30.1155 
G01 X-28.0522 Y30.2254 
G01 X-27.8857 Y30.3102 
G01 X-27.7080 Y30.3680 
G01 X-27.5234 Y30.3972 
G01 X-27.3366 Y30.3972 
G01 X-27.1520 Y30.3680 
G01 X-26.9743 Y30.3102 
G01 X-26.8078 Y30.2254 
G01 X-26.6566 Y30.1155 
G01 X-26.5245 Y29.9834 
G01 X-26.4146 Y29.8322 
G01 X-26.3401 Y29.6860 
G01 X-22.1672 Y29.6860 
G01 X-19.9060 Y31.9472 
G01 X-19.9060 Y42.3478 
G01 X-21.5322 Y43.9740 
G01 X-39.5528 Y43.9740 
G01 X-40.5756 Y42.9513 
G01 X-41.0064 Y40.3662 
G01 X-40.8816 Y40.2755 
G01 X-40.7495 Y40.1434 
G01 X-40.6396 Y39.9922 
G01 X-40.5548 Y39.8257 
G01 X-40.4970 Y39.6480 
G01 X-40.4678 Y39.4634 
G01 X-40.4678 Y39.2766 
G01 X-40.4970 Y39.0920 
G01 X-40.5548 Y38.9143 
G01 X-40.6396 Y38.7478 
G01 X-40.7495 Y38.5966 
G01 X-40.8816 Y38.4645 
G01 X-41.0328 Y38.3546 
G01 X-41.1790 Y38.2801 
G01 X-41.1790 Y35.4973 
G01 X-41.2114 Y35.3763 
G01 X-41.2741 Y35.2677 
G01 X-41.3627 Y35.1791 
G01 X-42.6327 Y33.9091 
G01 X-42.7413 Y33.8464 
G01 X-42.8623 Y33.8140 
G01 X-44.3751 Y33.8140 
G01 X-44.4496 Y33.6678 
G01 X-44.5595 Y33.5166 
G01 X-44.6916 Y33.3845 
G01 X-44.8428 Y33.2746 
G01 X-45.0093 Y33.1898 
G01 X-45.1870 Y33.1320 
G01 X-45.3716 Y33.1028 
G01 X-45.5584 Y33.1028 
G01 X-45.7430 Y33.1320 
G01 X-45.9207 Y33.1898 
G01 X-46.0872 Y33.2746 
G01 X-46.2384 Y33.3845 
G01 X-46.3705 Y33.5166 
G01 X-46.4804 Y33.6678 
G01 X-46.5549 Y33.8140 
G01 X-48.4428 Y33.8140 
G01 X-49.4340 Y32.8228 
G01 X-49.4340 Y13.2723 
G01 X-49.4664 Y13.1513 
G01 X-49.5291 Y13.0427 
G01 X-50.7991 Y11.7727 
G01 X-50.8877 Y11.6841 
G01 X-50.9963 Y11.6214 
G01 X-51.1173 Y11.5890 
G01 X-55.0527 Y11.5890 
G01 X-55.1737 Y11.6214 
G01 X-55.2823 Y11.6841 
G01 X-57.2759 Y13.6777 
G01 X-57.3386 Y13.7863 
G01 X-57.3710 Y13.9073 
G01 X-57.3710 Y44.8878 
G01 X-58.3622 Y45.8790 
G01 X-71.9378 Y45.8790 
G01 X-72.9290 Y44.8878 
G01 X-72.9290 Y43.8900 
G01 X-72.1361 Y43.8900 
G01 X-72.1012 Y43.8755 
G01 X-72.0745 Y43.8488 
G01 X-72.0600 Y43.8139 
G01 X-72.0600 Y41.2761 
G01 X-72.0745 Y41.2412 
G01 X-72.1012 Y41.2145 
G01 X-72.1361 Y41.2000 
G01 X-74.6739 Y41.2000 
G01 X-74.7088 Y41.2145 
G01 X-74.7355 Y41.2412 
G01 X-74.7500 Y41.2761 
G01 X-74.7500 Y42.0690 
G01 X-80.8278 Y42.0690 
G01 X-81.2791 Y41.6177 
G01 X-81.3677 Y41.5291 
G01 X-81.4763 Y41.4664 
G01 X-81.5973 Y41.4340 
G01 X-85.0151 Y41.4340 
G01 X-85.0896 Y41.2878 
G01 X-85.1995 Y41.1366 
G01 X-85.3316 Y41.0045 
G01 X-85.4828 Y40.8946 
G01 X-85.6493 Y40.8098 
G01 X-85.8270 Y40.7520 
G01 X-86.0116 Y40.7228 
G01 X-86.1984 Y40.7228 
G01 X-86.3830 Y40.7520 
G01 X-86.5607 Y40.8098 
G01 X-86.7272 Y40.8946 
G01 X-86.8784 Y41.0045 
G01 X-87.0105 Y41.1366 
G01 X-87.1204 Y41.2878 
G01 X-87.2052 Y41.4543 
G01 X-87.2630 Y41.6320 
G01 X-87.2922 Y41.8166 
G01 X-87.2922 Y42.0034 
G01 X-87.2630 Y42.1880 
G01 X-87.2052 Y42.3657 
G01 X-87.1204 Y42.5322 
G01 X-87.0105 Y42.6834 
G01 X-86.8784 Y42.8155 
G01 X-86.7272 Y42.9254 
G01 X-86.5607 Y43.0102 
G01 X-86.3830 Y43.0680 
G01 X-86.1984 Y43.0972 
G01 X-86.0116 Y43.0972 
G01 X-85.8270 Y43.0680 
G01 X-85.6493 Y43.0102 
G01 X-85.4828 Y42.9254 
G01 X-85.3316 Y42.8155 
G01 X-85.1995 Y42.6834 
G01 X-85.0896 Y42.5322 
G01 X-85.0151 Y42.3860 
G01 X-81.8572 Y42.3860 
G01 X-81.3173 Y42.9259 
G01 X-81.2087 Y42.9886 
G01 X-81.0877 Y43.0210 
G01 X-74.7500 Y43.0210 
G01 X-74.7500 Y43.8139 
G01 X-74.7355 Y43.8488 
G01 X-74.7088 Y43.8755 
G01 X-74.6739 Y43.8900 
G01 X-73.8810 Y43.8900 
G01 X-73.8810 Y45.1477 
G01 X-73.8486 Y45.2687 
G01 X-73.7859 Y45.3773 
G01 X-72.5159 Y46.6473 
G01 X-72.4273 Y46.7359 
G01 X-72.3187 Y46.7986 
G01 X-72.1977 Y46.8310 
G01 X-58.1023 Y46.8310 
G01 X-57.9813 Y46.7986 
G01 X-57.8727 Y46.7359 
G01 X-56.6027 Y45.4659 
G01 X-56.5141 Y45.3773 
G01 X-56.4514 Y45.2687 
G01 X-56.4190 Y45.1477 
G01 X-56.4190 Y14.1672 
G01 X-54.7928 Y12.5410 
G01 X-51.3772 Y12.5410 
G01 X-50.3860 Y13.5322 
G01 X-50.3860 Y33.0827 
G01 X-50.3536 Y33.2037 
G01 X-50.2909 Y33.3123 
G01 X-50.2023 Y33.4009 
G01 X-49.0209 Y34.5823 
G01 X-48.9323 Y34.6709 
G01 X-48.8237 Y34.7336 
G01 X-48.7027 Y34.7660 
G01 X-46.5549 Y34.7660 
G01 X-46.4804 Y34.9122 
G01 X-46.3705 Y35.0634 
G01 X-46.2384 Y35.1955 
G01 X-46.0872 Y35.3054 
G01 X-45.9207 Y35.3902 
G01 X-45.7430 Y35.4480 
G01 X-45.5584 Y35.4772 
G01 X-45.3716 Y35.4772 
G01 X-45.1870 Y35.4480 
G01 X-45.0093 Y35.3902 
G01 X-44.8428 Y35.3054 
G01 X-44.6916 Y35.1955 
G01 X-44.5595 Y35.0634 
G01 X-44.4496 Y34.9122 
G01 X-44.3751 Y34.7660 
G01 X-43.1222 Y34.7660 
G01 X-42.1310 Y35.7572 
G01 X-42.1310 Y38.2801 
G01 X-42.2772 Y38.3546 
G01 X-42.4284 Y38.4645 
G01 X-42.5605 Y38.5966 
G01 X-42.6704 Y38.7478 
G01 X-42.7552 Y38.9143 
G01 X-42.8130 Y39.0920 
G01 X-42.8422 Y39.2766 
G01 X-42.8422 Y39.4634 
G01 X-42.8130 Y39.6480 
G01 X-42.7552 Y39.8257 
G01 X-42.6704 Y39.9922 
G01 X-42.5605 Y40.1434 
G01 X-42.4284 Y40.2755 
G01 X-42.2772 Y40.3854 
G01 X-42.1107 Y40.4702 
G01 X-41.9452 Y40.5240 
G01 X-41.4960 Y43.2194 
G01 X-41.4960 Y43.2427 
G01 X-41.4857 Y43.2810 
G01 X-41.4792 Y43.3201 
G01 X-41.4696 Y43.3412 
G01 X-41.4636 Y43.3637 
G01 X-41.4437 Y43.3981 
G01 X-41.4273 Y43.4342 
G01 X-41.4125 Y43.4521 
G01 X-41.4009 Y43.4723 
G01 X-41.3729 Y43.5003 
G01 X-41.3477 Y43.5309 
G01 X-41.3287 Y43.5444 
G01 X-40.0423 Y44.8309 
G01 X-39.9337 Y44.8936 
G01 X-39.8127 Y44.9260 
G01 X-21.2723 Y44.9260 
G01 X-21.1513 Y44.8936 
G01 X-21.0427 Y44.8309 
G01 X-19.1377 Y42.9259 
G01 X-19.0491 Y42.8373 
G01 X-18.9864 Y42.7287 
G01 X-18.9540 Y42.6077 
G01 X-18.9540 Y32.2260 
G01 X-12.5199 Y32.2260 
G01 X-12.4454 Y32.3722 
G01 X-12.3355 Y32.5234 
G01 X-12.2034 Y32.6555 
G01 X-12.0522 Y32.7654 
G01 X-11.8857 Y32.8502 
G01 X-11.7080 Y32.9080 
G01 X-11.5234 Y32.9372 
G01 X-11.3366 Y32.9372 
G01 X-11.1520 Y32.9080 
G01 X-10.9743 Y32.8502 
G01 X-10.8078 Y32.7654 
G01 X-10.6566 Y32.6555 
G01 X-10.5245 Y32.5234 
G01 X-10.4146 Y32.3722 
G01 X-10.3298 Y32.2057 
G01 X-10.2720 Y32.0280 
G01 X-10.2428 Y31.8434 
G01 X-10.2428 Y31.6566 
G01 X-10.2720 Y31.4720 
G01 X-10.3298 Y31.2943 
G01 X-10.4146 Y31.1278 
G01 X-10.5245 Y30.9766 
G01 X-10.6566 Y30.8445 
G01 X-10.8078 Y30.7346 
G01 X-10.9743 Y30.6498 
G01 X-11.1520 Y30.5920 
G01 X-11.3366 Y30.5628 
G01 X-11.5234 Y30.5628 
G01 X-11.7080 Y30.5920 
G01 X-11.8857 Y30.6498 
G01 X-12.0522 Y30.7346 
G01 X-12.2034 Y30.8445 
G01 X-12.3355 Y30.9766 
G01 X-12.4454 Y31.1278 
G01 X-12.5199 Y31.2740 
G01 X-16.4140 Y31.2740 
G01 X-16.4140 Y17.5999 
G01 X-16.2678 Y17.5254 
G01 X-16.1166 Y17.4155 
G01 X-15.9845 Y17.2834 
G01 X-15.8746 Y17.1322 
G01 X-15.7898 Y16.9657 
G01 X-15.7320 Y16.7880 
G01 X-15.7028 Y16.6034 
G01 X-15.7028 Y16.4166 
G01 X-15.7320 Y16.2320 
G01 X-15.7898 Y16.0543 
G01 X-15.8746 Y15.8878 
G01 X-15.9845 Y15.7366 
G01 X-16.1166 Y15.6045 
G01 X-16.2678 Y15.4946 
G01 X-16.4140 Y15.4201 
G01 X-16.4140 Y15.0599 
G01 X-16.2678 Y14.9854 
G01 X-16.1166 Y14.8755 
G01 X-15.9845 Y14.7434 
G01 X-15.8746 Y14.5922 
G01 X-15.7898 Y14.4257 
G01 X-15.7320 Y14.2480 
G01 X-15.7028 Y14.0634 
G01 X-15.7028 Y13.8766 
G01 X-15.7320 Y13.6920 
G01 X-15.7898 Y13.5143 
G01 X-15.8746 Y13.3478 
G01 X-15.9845 Y13.1966 
G01 X-16.1166 Y13.0645 
G01 X-16.2678 Y12.9546 
G01 X-16.4140 Y12.8801 
G01 X-16.4140 Y12.5199 
G01 X-16.2678 Y12.4454 
G01 X-16.1166 Y12.3355 
G01 X-15.9845 Y12.2034 
G01 X-15.8746 Y12.0522 
G01 X-15.7898 Y11.8857 
G01 X-15.7320 Y11.7080 
G01 X-15.7028 Y11.5234 
G01 X-15.7028 Y11.3366 
G01 X-15.7320 Y11.1520 
G01 X-15.7898 Y10.9743 
G01 X-15.8746 Y10.8078 
G01 X-15.9845 Y10.6566 
G01 X-16.1166 Y10.5245 
G01 X-16.2678 Y10.4146 
G01 X-16.4140 Y10.3401 
G01 X-16.4140 Y9.9799 
G01 X-16.2678 Y9.9054 
G01 X-16.1166 Y9.7955 
G01 X-15.9845 Y9.6634 
G01 X-15.8746 Y9.5122 
G01 X-15.7898 Y9.3457 
G01 X-15.7320 Y9.1680 
G01 X-15.7028 Y8.9834 
G01 X-15.7028 Y8.7966 
G01 X-15.7320 Y8.6120 
G01 X-15.7898 Y8.4343 
G01 X-15.8746 Y8.2678 
G01 X-15.9845 Y8.1166 
G01 X-16.1166 Y7.9845 
G01 X-16.2678 Y7.8746 
G01 X-16.4140 Y7.8001 
G01 X-16.4140 Y5.5349 
G01 X-16.2678 Y5.4604 
G01 X-16.1166 Y5.3505 
G01 X-15.9845 Y5.2184 
G01 X-15.8746 Y5.0672 
G01 X-15.7898 Y4.9007 
G01 X-15.7320 Y4.7230 
G01 X-15.7028 Y4.5384 
G01 X-15.7028 Y4.3516 
G01 X-15.7320 Y4.1670 
G01 X-15.7898 Y3.9893 
G01 X-15.8746 Y3.8228 
G01 X-15.9845 Y3.6716 
G01 X-16.1166 Y3.5395 
G01 X-16.2678 Y3.4296 
G01 X-16.4343 Y3.3448 
G01 X-16.6120 Y3.2870 
G01 X-16.7966 Y3.2578 
G01 X-16.9834 Y3.2578 
G01 X-17.1680 Y3.2870 
G01 X-17.3457 Y3.3448 
G01 X-17.5122 Y3.4296 
G01 X-17.6634 Y3.5395 
G01 X-17.7955 Y3.6716 
G01 X-17.9054 Y3.8228 
G01 X-17.9902 Y3.9893 
G01 X-18.0480 Y4.1670 
G01 X-18.0772 Y4.3516 
G01 X-18.0772 Y4.5384 
G01 X-18.0480 Y4.7230 
G01 X-17.9902 Y4.9007 
G01 X-17.9054 Y5.0672 
G01 X-17.7955 Y5.2184 
G01 X-17.6634 Y5.3505 
G01 X-17.5122 Y5.4604 
G01 X-17.3660 Y5.5349 
G01 X-17.3660 Y7.8001 
G01 X-17.5122 Y7.8746 
G01 X-17.6634 Y7.9845 
G01 X-17.7955 Y8.1166 
G01 X-17.9054 Y8.2678 
G01 X-17.9902 Y8.4343 
G01 X-18.0480 Y8.6120 
G01 X-18.0772 Y8.7966 
G01 X-18.0772 Y8.9834 
G01 X-18.0480 Y9.1680 
G01 X-17.9902 Y9.3457 
G01 X-17.9054 Y9.5122 
G01 X-17.7955 Y9.6634 
G01 X-17.6634 Y9.7955 
G01 X-17.5122 Y9.9054 
G01 X-17.3660 Y9.9799 
G01 X-17.3660 Y10.3401 
G01 X-17.5122 Y10.4146 
G01 X-17.6634 Y10.5245 
G01 X-17.7955 Y10.6566 
G01 X-17.9054 Y10.8078 
G01 X-17.9902 Y10.9743 
G01 X-18.0480 Y11.1520 
G01 X-18.0772 Y11.3366 
G01 X-18.0772 Y11.5234 
G01 X-18.0480 Y11.7080 
G01 X-17.9902 Y11.8857 
G01 X-17.9054 Y12.0522 
G01 X-17.7955 Y12.2034 
G01 X-17.6634 Y12.3355 
G01 X-17.5122 Y12.4454 
G01 X-17.3660 Y12.5199 
G01 X-17.3660 Y12.8801 
G01 X-17.5122 Y12.9546 
G01 X-17.6634 Y13.0645 
G01 X-17.7955 Y13.1966 
G01 X-17.9054 Y13.3478 
G01 X-17.9902 Y13.5143 
G01 X-18.0480 Y13.6920 
G01 X-18.0772 Y13.8766 
G01 X-18.0772 Y14.0634 
G01 X-18.0480 Y14.2480 
G01 X-17.9902 Y14.4257 
G01 X-17.9054 Y14.5922 
G01 X-17.7955 Y14.7434 
G01 X-17.6634 Y14.8755 
G01 X-17.5122 Y14.9854 
G01 X-17.3660 Y15.0599 
G01 X-17.3660 Y15.4201 
G01 X-17.5122 Y15.4946 
G01 X-17.6634 Y15.6045 
G01 X-17.7955 Y15.7366 
G01 X-17.9054 Y15.8878 
G01 X-17.9902 Y16.0543 
G01 X-18.0480 Y16.2320 
G01 X-18.0772 Y16.4166 
G01 X-18.0772 Y16.6034 
G01 X-18.0480 Y16.7880 
G01 X-17.9902 Y16.9657 
G01 X-17.9054 Y17.1322 
G01 X-17.7955 Y17.2834 
G01 X-17.6634 Y17.4155 
G01 X-17.5122 Y17.5254 
G01 X-17.3660 Y17.5999 
G01 X-17.3660 Y31.2740 
G01 X-19.2328 Y31.2740 
G01 X-21.6777 Y28.8291 
G01 X-21.7863 Y28.7664 
G01 X-21.9073 Y28.7340 
G01 X-26.3401 Y28.7340 
G01 X-26.4146 Y28.5878 
G01 X-26.5245 Y28.4366 
G01 X-26.6566 Y28.3045 
G01 X-26.8078 Y28.1946 
G01 X-26.9743 Y28.1098 
G01 X-27.1520 Y28.0520 
G01 X-27.3366 Y28.0228 
G01 X-27.5234 Y28.0228 
G01 X-27.7080 Y28.0520 
G01 X-27.8857 Y28.1098 
G01 X-28.0522 Y28.1946 
G01 X-28.2034 Y28.3045 
G01 X-28.3355 Y28.4366 
G01 X-28.4454 Y28.5878 
G01 X-28.5199 Y28.7340 
G01 X-29.1351 Y28.7340 
G01 X-29.2096 Y28.5878 
G01 X-29.3195 Y28.4366 
G01 X-29.4516 Y28.3045 
G01 X-29.6028 Y28.1946 
G01 X-29.7693 Y28.1098 
G01 X-29.9470 Y28.0520 
G01 X-30.1316 Y28.0228 
G01 X-30.3184 Y28.0228 
G01 X-30.5030 Y28.0520 
G01 X-30.6807 Y28.1098 
G01 X-30.8472 Y28.1946 
G01 X-30.9984 Y28.3045 
G01 X-31.1305 Y28.4366 
G01 X-31.2404 Y28.5878 
G01 X-31.3252 Y28.7543 
G01 X-31.3830 Y28.9320 
G01 X-31.4122 Y29.1166 
G00 Z2.5000 
G00 X-31.4122 Y24.0366 
G01 Z-0.1000 F254.00 
G01 X-31.4122 Y24.2234 F400.00 
G01 X-31.3830 Y24.4080 
G01 X-31.3252 Y24.5857 
G01 X-31.2404 Y24.7522 
G01 X-31.1305 Y24.9034 
G01 X-30.9984 Y25.0355 
G01 X-30.8472 Y25.1454 
G01 X-30.6807 Y25.2302 
G01 X-30.5030 Y25.2880 
G01 X-30.3184 Y25.3172 
G01 X-30.1316 Y25.3172 
G01 X-29.9470 Y25.2880 
G01 X-29.7693 Y25.2302 
G01 X-29.6028 Y25.1454 
G01 X-29.4516 Y25.0355 
G01 X-29.3195 Y24.9034 
G01 X-29.2096 Y24.7522 
G01 X-29.1351 Y24.6060 
G01 X-28.5199 Y24.6060 
G01 X-28.4454 Y24.7522 
G01 X-28.3355 Y24.9034 
G01 X-28.2034 Y25.0355 
G01 X-28.0522 Y25.1454 
G01 X-27.8857 Y25.2302 
G01 X-27.7080 Y25.2880 
G01 X-27.5234 Y25.3172 
G01 X-27.3366 Y25.3172 
G01 X-27.1520 Y25.2880 
G01 X-26.9743 Y25.2302 
G01 X-26.8078 Y25.1454 
G01 X-26.6566 Y25.0355 
G01 X-26.5245 Y24.9034 
G01 X-26.4146 Y24.7522 
G01 X-26.3298 Y24.5857 
G01 X-26.2720 Y24.4080 
G01 X-26.2428 Y24.2234 
G01 X-26.2428 Y24.0366 
G01 X-26.2720 Y23.8520 
G01 X-26.3298 Y23.6743 
G01 X-26.4146 Y23.5078 
G01 X-26.5245 Y23.3566 
G01 X-26.6566 Y23.2245 
G01 X-26.8078 Y23.1146 
G01 X-26.9743 Y23.0298 
G01 X-27.1520 Y22.9720 
G01 X-27.3366 Y22.9428 
G01 X-27.5234 Y22.9428 
G01 X-27.7080 Y22.9720 
G01 X-27.8857 Y23.0298 
G01 X-28.0522 Y23.1146 
G01 X-28.2034 Y23.2245 
G01 X-28.3355 Y23.3566 
G01 X-28.4454 Y23.5078 
G01 X-28.5199 Y23.6540 
G01 X-29.1351 Y23.6540 
G01 X-29.2096 Y23.5078 
G01 X-29.3195 Y23.3566 
G01 X-29.4516 Y23.2245 
G01 X-29.6028 Y23.1146 
G01 X-29.7693 Y23.0298 
G01 X-29.9470 Y22.9720 
G01 X-30.1316 Y22.9428 
G01 X-30.3184 Y22.9428 
G01 X-30.5030 Y22.9720 
G01 X-30.6807 Y23.0298 
G01 X-30.8472 Y23.1146 
G01 X-30.9984 Y23.2245 
G01 X-31.1305 Y23.3566 
G01 X-31.2404 Y23.5078 
G01 X-31.3252 Y23.6743 
G01 X-31.3830 Y23.8520 
G01 X-31.4122 Y24.0366 
G00 Z2.5000 
G00 X-31.4122 Y18.9566 
G01 Z-0.1000 F254.00 
G01 X-31.4122 Y19.1434 F400.00 
G01 X-31.3830 Y19.3280 
G01 X-31.3252 Y19.5057 
G01 X-31.2404 Y19.6722 
G01 X-31.1305 Y19.8234 
G01 X-30.9984 Y19.9555 
G01 X-30.8472 Y20.0654 
G01 X-30.6807 Y20.1502 
G01 X-30.5030 Y20.2080 
G01 X-30.3184 Y20.2372 
G01 X-30.1316 Y20.2372 
G01 X-29.9470 Y20.2080 
G01 X-29.7693 Y20.1502 
G01 X-29.6028 Y20.0654 
G01 X-29.4516 Y19.9555 
G01 X-29.3195 Y19.8234 
G01 X-29.2096 Y19.6722 
G01 X-29.1248 Y19.5057 
G01 X-29.0670 Y19.3280 
G01 X-29.0378 Y19.1434 
G01 X-29.0378 Y18.9566 
G01 X-29.0670 Y18.7720 
G01 X-29.1248 Y18.5943 
G01 X-29.2096 Y18.4278 
G01 X-29.3195 Y18.2766 
G01 X-29.4516 Y18.1445 
G01 X-29.6028 Y18.0346 
G01 X-29.7693 Y17.9498 
G01 X-29.9470 Y17.8920 
G01 X-30.1316 Y17.8628 
G01 X-30.3184 Y17.8628 
G01 X-30.5030 Y17.8920 
G01 X-30.6807 Y17.9498 
G01 X-30.8472 Y18.0346 
G01 X-30.9984 Y18.1445 
G01 X-31.1305 Y18.2766 
G01 X-31.2404 Y18.4278 
G01 X-31.3252 Y18.5943 
G01 X-31.3830 Y18.7720 
G01 X-31.4122 Y18.9566 
G00 Z2.5000 
G00 X-31.4122 Y13.8766 
G01 Z-0.1000 F254.00 
G01 X-31.4122 Y14.0634 F400.00 
G01 X-31.3830 Y14.2480 
G01 X-31.3252 Y14.4257 
G01 X-31.2404 Y14.5922 
G01 X-31.1305 Y14.7434 
G01 X-30.9984 Y14.8755 
G01 X-30.8472 Y14.9854 
G01 X-30.6807 Y15.0702 
G01 X-30.5030 Y15.1280 
G01 X-30.3184 Y15.1572 
G01 X-30.1316 Y15.1572 
G01 X-29.9470 Y15.1280 
G01 X-29.7693 Y15.0702 
G01 X-29.6028 Y14.9854 
G01 X-29.4516 Y14.8755 
G01 X-29.3195 Y14.7434 
G01 X-29.2096 Y14.5922 
G01 X-29.1351 Y14.4460 
G01 X-28.1399 Y14.4460 
G01 X-28.0654 Y14.5922 
G01 X-27.9555 Y14.7434 
G01 X-27.8234 Y14.8755 
G01 X-27.6722 Y14.9854 
G01 X-27.5057 Y15.0702 
G01 X-27.3280 Y15.1280 
G01 X-27.1434 Y15.1572 
G01 X-26.9566 Y15.1572 
G01 X-26.7720 Y15.1280 
G01 X-26.5943 Y15.0702 
G01 X-26.4278 Y14.9854 
G01 X-26.2766 Y14.8755 
G01 X-26.1445 Y14.7434 
G01 X-26.0346 Y14.5922 
G01 X-25.9498 Y14.4257 
G01 X-25.8920 Y14.2480 
G01 X-25.8628 Y14.0634 
G01 X-25.8628 Y13.8766 
G01 X-25.8920 Y13.6920 
G01 X-25.9498 Y13.5143 
G01 X-26.0346 Y13.3478 
G01 X-26.1445 Y13.1966 
G01 X-26.2766 Y13.0645 
G01 X-26.4278 Y12.9546 
G01 X-26.5943 Y12.8698 
G01 X-26.7720 Y12.8120 
G01 X-26.9566 Y12.7828 
G01 X-27.1434 Y12.7828 
G01 X-27.3280 Y12.8120 
G01 X-27.5057 Y12.8698 
G01 X-27.6722 Y12.9546 
G01 X-27.8234 Y13.0645 
G01 X-27.9555 Y13.1966 
G01 X-28.0654 Y13.3478 
G01 X-28.1399 Y13.4940 
G01 X-29.1351 Y13.4940 
G01 X-29.2096 Y13.3478 
G01 X-29.3195 Y13.1966 
G01 X-29.4516 Y13.0645 
G01 X-29.6028 Y12.9546 
G01 X-29.7693 Y12.8698 
G01 X-29.9470 Y12.8120 
G01 X-30.1316 Y12.7828 
G01 X-30.3184 Y12.7828 
G01 X-30.5030 Y12.8120 
G01 X-30.6807 Y12.8698 
G01 X-30.8472 Y12.9546 
G01 X-30.9984 Y13.0645 
G01 X-31.1305 Y13.1966 
G01 X-31.2404 Y13.3478 
G01 X-31.3252 Y13.5143 
G01 X-31.3830 Y13.6920 
G01 X-31.4122 Y13.8766 
G00 Z2.5000 
G00 X-31.4122 Y8.7966 
G01 Z-0.1000 F254.00 
G01 X-31.4122 Y8.9834 F400.00 
G01 X-31.3830 Y9.1680 
G01 X-31.3252 Y9.3457 
G01 X-31.2404 Y9.5122 
G01 X-31.1305 Y9.6634 
G01 X-30.9984 Y9.7955 
G01 X-30.8472 Y9.9054 
G01 X-30.6807 Y9.9902 
G01 X-30.5030 Y10.0480 
G01 X-30.3184 Y10.0772 
G01 X-30.1316 Y10.0772 
G01 X-29.9470 Y10.0480 
G01 X-29.7693 Y9.9902 
G01 X-29.6028 Y9.9054 
G01 X-29.4516 Y9.7955 
G01 X-29.3195 Y9.6634 
G01 X-29.2096 Y9.5122 
G01 X-29.1351 Y9.3660 
G01 X-28.1399 Y9.3660 
G01 X-28.0654 Y9.5122 
G01 X-27.9555 Y9.6634 
G01 X-27.8234 Y9.7955 
G01 X-27.6722 Y9.9054 
G01 X-27.5057 Y9.9902 
G01 X-27.3280 Y10.0480 
G01 X-27.1434 Y10.0772 
G01 X-26.9566 Y10.0772 
G01 X-26.7720 Y10.0480 
G01 X-26.5943 Y9.9902 
G01 X-26.4278 Y9.9054 
G01 X-26.2766 Y9.7955 
G01 X-26.1445 Y9.6634 
G01 X-26.0346 Y9.5122 
G01 X-25.9498 Y9.3457 
G01 X-25.8920 Y9.1680 
G01 X-25.8628 Y8.9834 
G01 X-25.8628 Y8.7966 
G01 X-25.8920 Y8.6120 
G01 X-25.9498 Y8.4343 
G01 X-26.0346 Y8.2678 
G01 X-26.1445 Y8.1166 
G01 X-26.2766 Y7.9845 
G01 X-26.4278 Y7.8746 
G01 X-26.5943 Y7.7898 
G01 X-26.7720 Y7.7320 
G01 X-26.9566 Y7.7028 
G01 X-27.1434 Y7.7028 
G01 X-27.3280 Y7.7320 
G01 X-27.5057 Y7.7898 
G01 X-27.6722 Y7.8746 
G01 X-27.8234 Y7.9845 
G01 X-27.9555 Y8.1166 
G01 X-28.0654 Y8.2678 
G01 X-28.1399 Y8.4140 
G01 X-29.1351 Y8.4140 
G01 X-29.2096 Y8.2678 
G01 X-29.3195 Y8.1166 
G01 X-29.4516 Y7.9845 
G01 X-29.6028 Y7.8746 
G01 X-29.7693 Y7.7898 
G01 X-29.9470 Y7.7320 
G01 X-30.1316 Y7.7028 
G01 X-30.3184 Y7.7028 
G01 X-30.5030 Y7.7320 
G01 X-30.6807 Y7.7898 
G01 X-30.8472 Y7.8746 
G01 X-30.9984 Y7.9845 
G01 X-31.1305 Y8.1166 
G01 X-31.2404 Y8.2678 
G01 X-31.3252 Y8.4343 
G01 X-31.3830 Y8.6120 
G01 X-31.4122 Y8.7966 
G00 Z2.5000 
G00 X-46.6522 Y8.7966 
G01 Z-0.1000 F254.00 
G01 X-46.6522 Y8.9834 F400.00 
G01 X-46.6230 Y9.1680 
G01 X-46.5652 Y9.3457 
G01 X-46.4804 Y9.5122 
G01 X-46.3705 Y9.6634 
G01 X-46.2384 Y9.7955 
G01 X-46.0872 Y9.9054 
G01 X-45.9207 Y9.9902 
G01 X-45.7430 Y10.0480 
G01 X-45.5584 Y10.0772 
G01 X-45.3716 Y10.0772 
G01 X-45.1870 Y10.0480 
G01 X-45.0093 Y9.9902 
G01 X-44.8428 Y9.9054 
G01 X-44.6916 Y9.7955 
G01 X-44.5595 Y9.6634 
G01 X-44.4496 Y9.5122 
G01 X-44.3648 Y9.3457 
G01 X-44.3070 Y9.1680 
G01 X-44.2778 Y8.9834 
G01 X-44.2778 Y8.7966 
G01 X-44.3070 Y8.6120 
G01 X-44.3648 Y8.4343 
G01 X-44.4496 Y8.2678 
G01 X-44.5595 Y8.1166 
G01 X-44.6916 Y7.9845 
G01 X-44.8428 Y7.8746 
G01 X-45.0093 Y7.7898 
G01 X-45.1870 Y7.7320 
G01 X-45.3716 Y7.7028 
G01 X-45.5584 Y7.7028 
G01 X-45.7430 Y7.7320 
G01 X-45.9207 Y7.7898 
G01 X-46.0872 Y7.8746 
G01 X-46.2384 Y7.9845 
G01 X-46.3705 Y8.1166 
G01 X-46.4804 Y8.2678 
G01 X-46.5652 Y8.4343 
G01 X-46.6230 Y8.6120 
G01 X-46.6522 Y8.7966 
G00 Z2.5000 
G00 X-46.6522 Y11.3366 
G01 Z-0.1000 F254.00 
G01 X-46.6522 Y11.5234 F400.00 
G01 X-46.6230 Y11.7080 
G01 X-46.5652 Y11.8857 
G01 X-46.4804 Y12.0522 
G01 X-46.3705 Y12.2034 
G01 X-46.2384 Y12.3355 
G01 X-46.0872 Y12.4454 
G01 X-45.9207 Y12.5302 
G01 X-45.7430 Y12.5880 
G01 X-45.5584 Y12.6172 
G01 X-45.3716 Y12.6172 
G01 X-45.1870 Y12.5880 
G01 X-45.0093 Y12.5302 
G01 X-44.8428 Y12.4454 
G01 X-44.6916 Y12.3355 
G01 X-44.5595 Y12.2034 
G01 X-44.4496 Y12.0522 
G01 X-44.3648 Y11.8857 
G01 X-44.3070 Y11.7080 
G01 X-44.2778 Y11.5234 
G01 X-44.2778 Y11.3366 
G01 X-44.3070 Y11.1520 
G01 X-44.3648 Y10.9743 
G01 X-44.4496 Y10.8078 
G01 X-44.5595 Y10.6566 
G01 X-44.6916 Y10.5245 
G01 X-44.8428 Y10.4146 
G01 X-45.0093 Y10.3298 
G01 X-45.1870 Y10.2720 
G01 X-45.3716 Y10.2428 
G01 X-45.5584 Y10.2428 
G01 X-45.7430 Y10.2720 
G01 X-45.9207 Y10.3298 
G01 X-46.0872 Y10.4146 
G01 X-46.2384 Y10.5245 
G01 X-46.3705 Y10.6566 
G01 X-46.4804 Y10.8078 
G01 X-46.5652 Y10.9743 
G01 X-46.6230 Y11.1520 
G01 X-46.6522 Y11.3366 
G00 Z2.5000 
G00 X-46.6522 Y13.8766 
G01 Z-0.1000 F254.00 
G01 X-46.6522 Y14.0634 F400.00 
G01 X-46.6230 Y14.2480 
G01 X-46.5652 Y14.4257 
G01 X-46.4804 Y14.5922 
G01 X-46.3705 Y14.7434 
G01 X-46.2384 Y14.8755 
G01 X-46.0872 Y14.9854 
G01 X-45.9207 Y15.0702 
G01 X-45.7430 Y15.1280 
G01 X-45.5584 Y15.1572 
G01 X-45.3716 Y15.1572 
G01 X-45.1870 Y15.1280 
G01 X-45.0093 Y15.0702 
G01 X-44.8428 Y14.9854 
G01 X-44.6916 Y14.8755 
G01 X-44.5595 Y14.7434 
G01 X-44.4496 Y14.5922 
G01 X-44.3648 Y14.4257 
G01 X-44.3070 Y14.2480 
G01 X-44.2778 Y14.0634 
G01 X-44.2778 Y13.8766 
G01 X-44.3070 Y13.6920 
G01 X-44.3648 Y13.5143 
G01 X-44.4496 Y13.3478 
G01 X-44.5595 Y13.1966 
G01 X-44.6916 Y13.0645 
G01 X-44.8428 Y12.9546 
G01 X-45.0093 Y12.8698 
G01 X-45.1870 Y12.8120 
G01 X-45.3716 Y12.7828 
G01 X-45.5584 Y12.7828 
G01 X-45.7430 Y12.8120 
G01 X-45.9207 Y12.8698 
G01 X-46.0872 Y12.9546 
G01 X-46.2384 Y13.0645 
G01 X-46.3705 Y13.1966 
G01 X-46.4804 Y13.3478 
G01 X-46.5652 Y13.5143 
G01 X-46.6230 Y13.6920 
G01 X-46.6522 Y13.8766 
G00 Z2.5000 
G00 X-46.6522 Y16.4166 
G01 Z-0.1000 F254.00 
G01 X-46.6522 Y16.6034 F400.00 
G01 X-46.6230 Y16.7880 
G01 X-46.5652 Y16.9657 
G01 X-46.4804 Y17.1322 
G01 X-46.3705 Y17.2834 
G01 X-46.2384 Y17.4155 
G01 X-46.0872 Y17.5254 
G01 X-45.9207 Y17.6102 
G01 X-45.7430 Y17.6680 
G01 X-45.5584 Y17.6972 
G01 X-45.3716 Y17.6972 
G01 X-45.1870 Y17.6680 
G01 X-45.0093 Y17.6102 
G01 X-44.8428 Y17.5254 
G01 X-44.6916 Y17.4155 
G01 X-44.5595 Y17.2834 
G01 X-44.4496 Y17.1322 
G01 X-44.3648 Y16.9657 
G01 X-44.3070 Y16.7880 
G01 X-44.2778 Y16.6034 
G01 X-44.2778 Y16.4166 
G01 X-44.3070 Y16.2320 
G01 X-44.3648 Y16.0543 
G01 X-44.4496 Y15.8878 
G01 X-44.5595 Y15.7366 
G01 X-44.6916 Y15.6045 
G01 X-44.8428 Y15.4946 
G01 X-45.0093 Y15.4098 
G01 X-45.1870 Y15.3520 
G01 X-45.3716 Y15.3228 
G01 X-45.5584 Y15.3228 
G01 X-45.7430 Y15.3520 
G01 X-45.9207 Y15.4098 
G01 X-46.0872 Y15.4946 
G01 X-46.2384 Y15.6045 
G01 X-46.3705 Y15.7366 
G01 X-46.4804 Y15.8878 
G01 X-46.5652 Y16.0543 
G01 X-46.6230 Y16.2320 
G01 X-46.6522 Y16.4166 
G00 Z2.5000 
G00 X-46.6522 Y18.9566 
G01 Z-0.1000 F254.00 
G01 X-46.6522 Y19.1434 F400.00 
G01 X-46.6230 Y19.3280 
G01 X-46.5652 Y19.5057 
G01 X-46.4804 Y19.6722 
G01 X-46.3705 Y19.8234 
G01 X-46.2384 Y19.9555 
G01 X-46.0872 Y20.0654 
G01 X-45.9207 Y20.1502 
G01 X-45.7430 Y20.2080 
G01 X-45.5584 Y20.2372 
G01 X-45.3716 Y20.2372 
G01 X-45.1870 Y20.2080 
G01 X-45.0093 Y20.1502 
G01 X-44.8428 Y20.0654 
G01 X-44.6916 Y19.9555 
G01 X-44.5595 Y19.8234 
G01 X-44.4496 Y19.6722 
G01 X-44.3751 Y19.5260 
G01 X-43.4973 Y19.5260 
G01 X-43.3763 Y19.4936 
G01 X-43.2677 Y19.4309 
G01 X-41.9091 Y18.0723 
G01 X-41.8464 Y17.9637 
G01 X-41.8140 Y17.8427 
G01 X-41.8140 Y3.7473 
G01 X-41.8464 Y3.6263 
G01 X-41.9091 Y3.5177 
G01 X-41.9977 Y3.4291 
G01 X-44.5377 Y0.8891 
G01 X-44.6463 Y0.8264 
G01 X-44.7673 Y0.7940 
G01 X-82.9927 Y0.7940 
G01 X-83.1137 Y0.8264 
G01 X-83.2223 Y0.8891 
G01 X-83.3109 Y0.9777 
G01 X-86.3973 Y4.0641 
G01 X-86.4859 Y4.1527 
G01 X-86.5486 Y4.2613 
G01 X-86.5810 Y4.3823 
G01 X-86.5810 Y7.8001 
G01 X-86.7272 Y7.8746 
G01 X-86.8784 Y7.9845 
G01 X-87.0105 Y8.1166 
G01 X-87.1204 Y8.2678 
G01 X-87.2052 Y8.4343 
G01 X-87.2630 Y8.6120 
G01 X-87.2922 Y8.7966 
G01 X-87.2922 Y8.9834 
G01 X-87.2630 Y9.1680 
G01 X-87.2122 Y9.3241 
G01 X-88.3023 Y10.4141 
G01 X-88.3909 Y10.5027 
G01 X-88.4536 Y10.6113 
G01 X-88.4860 Y10.7323 
G01 X-88.4860 Y29.9077 
G01 X-88.4536 Y30.0287 
G01 X-88.3909 Y30.1373 
G01 X-87.2122 Y31.3159 
G01 X-87.2630 Y31.4720 
G01 X-87.2922 Y31.6566 
G01 X-87.2922 Y31.8434 
G01 X-87.2630 Y32.0280 
G01 X-87.2052 Y32.2057 
G01 X-87.1204 Y32.3722 
G01 X-87.0105 Y32.5234 
G01 X-86.8784 Y32.6555 
G01 X-86.7272 Y32.7654 
G01 X-86.5607 Y32.8502 
G01 X-86.3830 Y32.9080 
G01 X-86.1984 Y32.9372 
G01 X-86.0116 Y32.9372 
G01 X-85.8270 Y32.9080 
G01 X-85.6493 Y32.8502 
G01 X-85.4828 Y32.7654 
G01 X-85.3316 Y32.6555 
G01 X-85.1995 Y32.5234 
G01 X-85.0896 Y32.3722 
G01 X-85.0048 Y32.2057 
G01 X-84.9470 Y32.0280 
G01 X-84.9178 Y31.8434 
G01 X-84.9178 Y31.6566 
G01 X-84.9470 Y31.4720 
G01 X-85.0048 Y31.2943 
G01 X-85.0896 Y31.1278 
G01 X-85.1995 Y30.9766 
G01 X-85.3316 Y30.8445 
G01 X-85.4828 Y30.7346 
G01 X-85.6493 Y30.6498 
G01 X-85.8270 Y30.5920 
G01 X-86.0116 Y30.5628 
G01 X-86.1984 Y30.5628 
G01 X-86.3830 Y30.5920 
G01 X-86.5391 Y30.6428 
G01 X-87.5340 Y29.6478 
G01 X-87.5340 Y10.9922 
G01 X-86.5391 Y9.9972 
G01 X-86.3830 Y10.0480 
G01 X-86.1984 Y10.0772 
G01 X-86.0116 Y10.0772 
G01 X-85.8270 Y10.0480 
G01 X-85.6493 Y9.9902 
G01 X-85.4828 Y9.9054 
G01 X-85.3316 Y9.7955 
G01 X-85.1995 Y9.6634 
G01 X-85.0896 Y9.5122 
G01 X-85.0048 Y9.3457 
G01 X-84.9470 Y9.1680 
G01 X-84.9178 Y8.9834 
G01 X-84.9178 Y8.7966 
G01 X-84.9470 Y8.6120 
G01 X-85.0048 Y8.4343 
G01 X-85.0896 Y8.2678 
G01 X-85.1995 Y8.1166 
G01 X-85.3316 Y7.9845 
G01 X-85.4828 Y7.8746 
G01 X-85.6290 Y7.8001 
G01 X-85.6290 Y4.6422 
G01 X-82.7328 Y1.7460 
G01 X-45.0272 Y1.7460 
G01 X-42.7660 Y4.0072 
G01 X-42.7660 Y17.5828 
G01 X-43.7572 Y18.5740 
G01 X-44.3751 Y18.5740 
G01 X-44.4496 Y18.4278 
G01 X-44.5595 Y18.2766 
G01 X-44.6916 Y18.1445 
G01 X-44.8428 Y18.0346 
G01 X-45.0093 Y17.9498 
G01 X-45.1870 Y17.8920 
G01 X-45.3716 Y17.8628 
G01 X-45.5584 Y17.8628 
G01 X-45.7430 Y17.8920 
G01 X-45.9207 Y17.9498 
G01 X-46.0872 Y18.0346 
G01 X-46.2384 Y18.1445 
G01 X-46.3705 Y18.2766 
G01 X-46.4804 Y18.4278 
G01 X-46.5652 Y18.5943 
G01 X-46.6230 Y18.7720 
G01 X-46.6522 Y18.9566 
G00 Z2.5000 
G00 X-46.6522 Y24.0366 
G01 Z-0.1000 F254.00 
G01 X-46.6522 Y24.2234 F400.00 
G01 X-46.6230 Y24.4080 
G01 X-46.5652 Y24.5857 
G01 X-46.4804 Y24.7522 
G01 X-46.3705 Y24.9034 
G01 X-46.2384 Y25.0355 
G01 X-46.0872 Y25.1454 
G01 X-45.9207 Y25.2302 
G01 X-45.7430 Y25.2880 
G01 X-45.5584 Y25.3172 
G01 X-45.3716 Y25.3172 
G01 X-45.1870 Y25.2880 
G01 X-45.0093 Y25.2302 
G01 X-44.8428 Y25.1454 
G01 X-44.6916 Y25.0355 
G01 X-44.5595 Y24.9034 
G01 X-44.4496 Y24.7522 
G01 X-44.3648 Y24.5857 
G01 X-44.3070 Y24.4080 
G01 X-44.2778 Y24.2234 
G01 X-44.2778 Y24.0366 
G01 X-44.3070 Y23.8520 
G01 X-44.3648 Y23.6743 
G01 X-44.4496 Y23.5078 
G01 X-44.5595 Y23.3566 
G01 X-44.6916 Y23.2245 
G01 X-44.8428 Y23.1146 
G01 X-45.0093 Y23.0298 
G01 X-45.1870 Y22.9720 
G01 X-45.3716 Y22.9428 
G01 X-45.5584 Y22.9428 
G01 X-45.7430 Y22.9720 
G01 X-45.9207 Y23.0298 
G01 X-46.0872 Y23.1146 
G01 X-46.2384 Y23.2245 
G01 X-46.3705 Y23.3566 
G01 X-46.4804 Y23.5078 
G01 X-46.5652 Y23.6743 
G01 X-46.6230 Y23.8520 
G01 X-46.6522 Y24.0366 
G00 Z2.5000 
G00 X-46.6522 Y26.5766 
G01 Z-0.1000 F254.00 
G01 X-46.6522 Y26.7634 F400.00 
G01 X-46.6230 Y26.9480 
G01 X-46.5652 Y27.1257 
G01 X-46.4804 Y27.2922 
G01 X-46.3705 Y27.4434 
G01 X-46.2384 Y27.5755 
G01 X-46.0872 Y27.6854 
G01 X-45.9207 Y27.7702 
G01 X-45.7430 Y27.8280 
G01 X-45.5584 Y27.8572 
G01 X-45.3716 Y27.8572 
G01 X-45.1870 Y27.8280 
G01 X-45.0093 Y27.7702 
G01 X-44.8428 Y27.6854 
G01 X-44.6916 Y27.5755 
G01 X-44.5595 Y27.4434 
G01 X-44.4496 Y27.2922 
G01 X-44.3648 Y27.1257 
G01 X-44.3070 Y26.9480 
G01 X-44.2778 Y26.7634 
G01 X-44.2778 Y26.5766 
G01 X-44.3070 Y26.3920 
G01 X-44.3648 Y26.2143 
G01 X-44.4496 Y26.0478 
G01 X-44.5595 Y25.8966 
G01 X-44.6916 Y25.7645 
G01 X-44.8428 Y25.6546 
G01 X-45.0093 Y25.5698 
G01 X-45.1870 Y25.5120 
G01 X-45.3716 Y25.4828 
G01 X-45.5584 Y25.4828 
G01 X-45.7430 Y25.5120 
G01 X-45.9207 Y25.5698 
G01 X-46.0872 Y25.6546 
G01 X-46.2384 Y25.7645 
G01 X-46.3705 Y25.8966 
G01 X-46.4804 Y26.0478 
G01 X-46.5652 Y26.2143 
G01 X-46.6230 Y26.3920 
G01 X-46.6522 Y26.5766 
G00 Z2.5000 
G00 X-46.6522 Y31.6566 
G01 Z-0.1000 F254.00 
G01 X-46.6522 Y31.8434 F400.00 
G01 X-46.6230 Y32.0280 
G01 X-46.5652 Y32.2057 
G01 X-46.4804 Y32.3722 
G01 X-46.3705 Y32.5234 
G01 X-46.2384 Y32.6555 
G01 X-46.0872 Y32.7654 
G01 X-45.9207 Y32.8502 
G01 X-45.7430 Y32.9080 
G01 X-45.5584 Y32.9372 
G01 X-45.3716 Y32.9372 
G01 X-45.1870 Y32.9080 
G01 X-45.0093 Y32.8502 
G01 X-44.8428 Y32.7654 
G01 X-44.6916 Y32.6555 
G01 X-44.5595 Y32.5234 
G01 X-44.4496 Y32.3722 
G01 X-44.3648 Y32.2057 
G01 X-44.3070 Y32.0280 
G01 X-44.2778 Y31.8434 
G01 X-44.2778 Y31.6566 
G01 X-44.3070 Y31.4720 
G01 X-44.3648 Y31.2943 
G01 X-44.4496 Y31.1278 
G01 X-44.5595 Y30.9766 
G01 X-44.6916 Y30.8445 
G01 X-44.8428 Y30.7346 
G01 X-45.0093 Y30.6498 
G01 X-45.1870 Y30.5920 
G01 X-45.3716 Y30.5628 
G01 X-45.5584 Y30.5628 
G01 X-45.7430 Y30.5920 
G01 X-45.9207 Y30.6498 
G01 X-46.0872 Y30.7346 
G01 X-46.2384 Y30.8445 
G01 X-46.3705 Y30.9766 
G01 X-46.4804 Y31.1278 
G01 X-46.5652 Y31.2943 
G01 X-46.6230 Y31.4720 
G01 X-46.6522 Y31.6566 
G00 Z2.5000 
G00 X-46.6522 Y36.7366 
G01 Z-0.1000 F254.00 
G01 X-46.6522 Y36.9234 F400.00 
G01 X-46.6230 Y37.1080 
G01 X-46.5652 Y37.2857 
G01 X-46.4804 Y37.4522 
G01 X-46.3705 Y37.6034 
G01 X-46.2384 Y37.7355 
G01 X-46.0872 Y37.8454 
G01 X-45.9207 Y37.9302 
G01 X-45.7430 Y37.9880 
G01 X-45.5584 Y38.0172 
G01 X-45.3716 Y38.0172 
G01 X-45.1870 Y37.9880 
G01 X-45.0093 Y37.9302 
G01 X-44.8428 Y37.8454 
G01 X-44.6916 Y37.7355 
G01 X-44.5595 Y37.6034 
G01 X-44.4496 Y37.4522 
G01 X-44.3648 Y37.2857 
G01 X-44.3070 Y37.1080 
G01 X-44.2778 Y36.9234 
G01 X-44.2778 Y36.7366 
G01 X-44.3070 Y36.5520 
G01 X-44.3648 Y36.3743 
G01 X-44.4496 Y36.2078 
G01 X-44.5595 Y36.0566 
G01 X-44.6916 Y35.9245 
G01 X-44.8428 Y35.8146 
G01 X-45.0093 Y35.7298 
G01 X-45.1870 Y35.6720 
G01 X-45.3716 Y35.6428 
G01 X-45.5584 Y35.6428 
G01 X-45.7430 Y35.6720 
G01 X-45.9207 Y35.7298 
G01 X-46.0872 Y35.8146 
G01 X-46.2384 Y35.9245 
G01 X-46.3705 Y36.0566 
G01 X-46.4804 Y36.2078 
G01 X-46.5652 Y36.3743 
G01 X-46.6230 Y36.5520 
G01 X-46.6522 Y36.7366 
G00 Z2.5000 
G00 X-63.7972 Y10.7016 
G01 Z-0.1000 F254.00 
G01 X-63.7972 Y10.8884 F400.00 
G01 X-63.7680 Y11.0730 
G01 X-63.7102 Y11.2507 
G01 X-63.6254 Y11.4172 
G01 X-63.5155 Y11.5684 
G01 X-63.3834 Y11.7005 
G01 X-63.2322 Y11.8104 
G01 X-63.0860 Y11.8849 
G01 X-63.0860 Y16.5727 
G01 X-63.0536 Y16.6937 
G01 X-62.9909 Y16.8023 
G01 X-60.7800 Y19.0132 
G01 X-60.7800 Y20.9539 
G01 X-60.7655 Y20.9888 
G01 X-60.7388 Y21.0155 
G01 X-60.7039 Y21.0300 
G01 X-58.1661 Y21.0300 
G01 X-58.1312 Y21.0155 
G01 X-58.1045 Y20.9888 
G01 X-58.0900 Y20.9539 
G01 X-58.0900 Y18.4161 
G01 X-58.1045 Y18.3812 
G01 X-58.1312 Y18.3545 
G01 X-58.1661 Y18.3400 
G01 X-60.1068 Y18.3400 
G01 X-62.1340 Y16.3128 
G01 X-62.1340 Y11.8849 
G01 X-61.9878 Y11.8104 
G01 X-61.8366 Y11.7005 
G01 X-61.7045 Y11.5684 
G01 X-61.5946 Y11.4172 
G01 X-61.5098 Y11.2507 
G01 X-61.4520 Y11.0730 
G01 X-61.4228 Y10.8884 
G01 X-61.4228 Y10.7016 
G01 X-61.4520 Y10.5170 
G01 X-61.5098 Y10.3393 
G01 X-61.5946 Y10.1728 
G01 X-61.7045 Y10.0216 
G01 X-61.8366 Y9.8895 
G01 X-61.9878 Y9.7796 
G01 X-62.1543 Y9.6948 
G01 X-62.3320 Y9.6370 
G01 X-62.5166 Y9.6078 
G01 X-62.7034 Y9.6078 
G01 X-62.8880 Y9.6370 
G01 X-63.0657 Y9.6948 
G01 X-63.2322 Y9.7796 
G01 X-63.3834 Y9.8895 
G01 X-63.5155 Y10.0216 
G01 X-63.6254 Y10.1728 
G01 X-63.7102 Y10.3393 
G01 X-63.7680 Y10.5170 
G01 X-63.7972 Y10.7016 
G00 Z2.5000 
G00 X-64.0389 Y9.6078 
G01 Z-0.1000 F254.00 
G01 X-64.6740 Y9.6078 F400.00 
G01 X-64.6740 Y8.8322 
G01 X-63.9378 Y8.0960 
G01 X-61.1572 Y8.0960 
G01 X-60.5460 Y8.7072 
G01 X-60.5460 Y9.7051 
G01 X-60.6922 Y9.7796 
G01 X-60.8434 Y9.8895 
G01 X-60.9755 Y10.0216 
G01 X-61.0854 Y10.1728 
G01 X-61.1702 Y10.3393 
G01 X-61.2280 Y10.5170 
G01 X-61.2572 Y10.7016 
G01 X-61.2572 Y10.8884 
G01 X-61.2280 Y11.0730 
G01 X-61.1702 Y11.2507 
G01 X-61.0854 Y11.4172 
G01 X-60.9755 Y11.5684 
G01 X-60.8434 Y11.7005 
G01 X-60.6922 Y11.8104 
G01 X-60.5257 Y11.8952 
G01 X-60.3480 Y11.9530 
G01 X-60.1634 Y11.9822 
G01 X-59.9766 Y11.9822 
G01 X-59.7920 Y11.9530 
G01 X-59.6143 Y11.8952 
G01 X-59.4478 Y11.8104 
G01 X-59.2966 Y11.7005 
G01 X-59.1645 Y11.5684 
G01 X-59.0546 Y11.4172 
G01 X-58.9698 Y11.2507 
G01 X-58.9120 Y11.0730 
G01 X-58.8828 Y10.8884 
G01 X-58.8828 Y10.7016 
G01 X-58.9120 Y10.5170 
G01 X-58.9698 Y10.3393 
G01 X-59.0546 Y10.1728 
G01 X-59.1645 Y10.0216 
G01 X-59.2966 Y9.8895 
G01 X-59.4478 Y9.7796 
G01 X-59.5940 Y9.7051 
G01 X-59.5940 Y8.4473 
G01 X-59.6264 Y8.3263 
G01 X-59.6891 Y8.2177 
G01 X-60.5791 Y7.3277 
G01 X-60.6677 Y7.2391 
G01 X-60.7763 Y7.1764 
G01 X-60.8973 Y7.1440 
G01 X-64.1977 Y7.1440 
G01 X-64.3187 Y7.1764 
G01 X-64.4273 Y7.2391 
G01 X-65.4423 Y8.2541 
G01 X-65.5309 Y8.3427 
G01 X-65.5936 Y8.4513 
G01 X-65.6260 Y8.5723 
G01 X-65.6260 Y9.6078 
G01 X-66.2611 Y9.6078 
G01 X-66.2960 Y9.6223 
G01 X-66.3227 Y9.6490 
G01 X-66.3372 Y9.6839 
G01 X-66.3372 Y11.9061 
G01 X-66.3227 Y11.9410 
G01 X-66.2960 Y11.9677 
G01 X-66.2611 Y11.9822 
G01 X-65.6260 Y11.9822 
G01 X-65.6260 Y16.3128 
G01 X-65.9822 Y16.6690 
G01 X-70.9277 Y16.6690 
G01 X-71.0487 Y16.7014 
G01 X-71.1573 Y16.7641 
G01 X-71.2459 Y16.8527 
G01 X-72.7332 Y18.3400 
G01 X-74.6739 Y18.3400 
G01 X-74.7088 Y18.3545 
G01 X-74.7355 Y18.3812 
G01 X-74.7500 Y18.4161 
G01 X-74.7500 Y20.9539 
G01 X-74.7355 Y20.9888 
G01 X-74.7088 Y21.0155 
G01 X-74.6739 Y21.0300 
G01 X-72.1361 Y21.0300 
G01 X-72.1012 Y21.0155 
G01 X-72.0745 Y20.9888 
G01 X-72.0600 Y20.9539 
G01 X-72.0600 Y19.0132 
G01 X-70.6678 Y17.6210 
G01 X-65.7223 Y17.6210 
G01 X-65.6013 Y17.5886 
G01 X-65.4927 Y17.5259 
G01 X-64.8577 Y16.8909 
G01 X-64.7691 Y16.8023 
G01 X-64.7064 Y16.6937 
G01 X-64.6740 Y16.5727 
G01 X-64.6740 Y11.9822 
G01 X-64.0389 Y11.9822 
G01 X-64.0040 Y11.9677 
G01 X-63.9773 Y11.9410 
G01 X-63.9628 Y11.9061 
G01 X-63.9628 Y9.6839 
G01 X-63.9773 Y9.6490 
G01 X-64.0040 Y9.6223 
G01 X-64.0389 Y9.6078 
G00 Z2.5000 
G00 X-79.6722 Y36.7366 
G01 Z-0.1000 F254.00 
G01 X-79.6722 Y36.9234 F400.00 
G01 X-79.6430 Y37.1080 
G01 X-79.5852 Y37.2857 
G01 X-79.5004 Y37.4522 
G01 X-79.3905 Y37.6034 
G01 X-79.2584 Y37.7355 
G01 X-79.1072 Y37.8454 
G01 X-78.9610 Y37.9199 
G01 X-78.9610 Y38.1627 
G01 X-78.9286 Y38.2837 
G01 X-78.8659 Y38.3923 
G01 X-78.7773 Y38.4809 
G01 X-77.5073 Y39.7509 
G01 X-77.3987 Y39.8136 
G01 X-77.2777 Y39.8460 
G01 X-71.6972 Y39.8460 
G01 X-70.7060 Y40.8372 
G01 X-70.7060 Y41.2000 
G01 X-71.4989 Y41.2000 
G01 X-71.5338 Y41.2145 
G01 X-71.5605 Y41.2412 
G01 X-71.5750 Y41.2761 
G01 X-71.5750 Y43.8139 
G01 X-71.5605 Y43.8488 
G01 X-71.5338 Y43.8755 
G01 X-71.4989 Y43.8900 
G01 X-68.9611 Y43.8900 
G01 X-68.9262 Y43.8755 
G01 X-68.8995 Y43.8488 
G01 X-68.8850 Y43.8139 
G01 X-68.8850 Y41.2761 
G01 X-68.8995 Y41.2412 
G01 X-68.9262 Y41.2145 
G01 X-68.9611 Y41.2000 
G01 X-69.7540 Y41.2000 
G01 X-69.7540 Y40.5773 
G01 X-69.7864 Y40.4563 
G01 X-69.8491 Y40.3477 
G01 X-71.1191 Y39.0777 
G01 X-71.2077 Y38.9891 
G01 X-71.3163 Y38.9264 
G01 X-71.4373 Y38.8940 
G01 X-77.0178 Y38.8940 
G01 X-77.9977 Y37.9141 
G01 X-77.8628 Y37.8454 
G01 X-77.7116 Y37.7355 
G01 X-77.5795 Y37.6034 
G01 X-77.4696 Y37.4522 
G01 X-77.3848 Y37.2857 
G01 X-77.3270 Y37.1080 
G01 X-77.2978 Y36.9234 
G01 X-77.2978 Y36.7366 
G01 X-77.3270 Y36.5520 
G01 X-77.3848 Y36.3743 
G01 X-77.4696 Y36.2078 
G01 X-77.5795 Y36.0566 
G01 X-77.7116 Y35.9245 
G01 X-77.8628 Y35.8146 
G01 X-78.0293 Y35.7298 
G01 X-78.2070 Y35.6720 
G01 X-78.3916 Y35.6428 
G01 X-78.5784 Y35.6428 
G01 X-78.7630 Y35.6720 
G01 X-78.9407 Y35.7298 
G01 X-79.1072 Y35.8146 
G01 X-79.2584 Y35.9245 
G01 X-79.3905 Y36.0566 
G01 X-79.5004 Y36.2078 
G01 X-79.5852 Y36.3743 
G01 X-79.6430 Y36.5520 
G01 X-79.6722 Y36.7366 
G00 Z2.5000 
G00 X-82.1361 Y35.6428 
G01 Z-0.1000 F254.00 
G01 X-82.1710 Y35.6573 F400.00 
G01 X-82.1977 Y35.6840 
G01 X-82.2122 Y35.7189 
G01 X-82.2122 Y37.9411 
G01 X-82.1977 Y37.9760 
G01 X-82.1710 Y38.0027 
G01 X-82.1361 Y38.0172 
G01 X-79.9139 Y38.0172 
G01 X-79.8790 Y38.0027 
G01 X-79.8523 Y37.9760 
G01 X-79.8378 Y37.9411 
G01 X-79.8378 Y36.3160 
G01 X-77.6528 Y34.1310 
G01 X-71.6972 Y34.1310 
G01 X-63.9550 Y41.8732 
G01 X-63.9550 Y43.8139 
G01 X-63.9405 Y43.8488 
G01 X-63.9138 Y43.8755 
G01 X-63.8789 Y43.8900 
G01 X-61.3411 Y43.8900 
G01 X-61.3062 Y43.8755 
G01 X-61.2795 Y43.8488 
G01 X-61.2650 Y43.8139 
G01 X-61.2650 Y41.2761 
G01 X-61.2795 Y41.2412 
G01 X-61.3062 Y41.2145 
G01 X-61.3411 Y41.2000 
G01 X-63.2818 Y41.2000 
G01 X-71.1191 Y33.3627 
G01 X-71.2077 Y33.2741 
G01 X-71.3163 Y33.2114 
G01 X-71.4373 Y33.1790 
G01 X-77.9127 Y33.1790 
G01 X-78.0337 Y33.2114 
G01 X-78.1423 Y33.2741 
G01 X-80.5110 Y35.6428 
G01 X-82.1361 Y35.6428 
G00 Z2.5000 
G00 X-15.5372 Y41.8166 
G01 Z-0.1000 F254.00 
G01 X-15.5372 Y42.0034 F400.00 
G01 X-15.5080 Y42.1880 
G01 X-15.4502 Y42.3657 
G01 X-15.3654 Y42.5322 
G01 X-15.2555 Y42.6834 
G01 X-15.1234 Y42.8155 
G01 X-14.9722 Y42.9254 
G01 X-14.8057 Y43.0102 
G01 X-14.6280 Y43.0680 
G01 X-14.4434 Y43.0972 
G01 X-14.2566 Y43.0972 
G01 X-14.0720 Y43.0680 
G01 X-13.8943 Y43.0102 
G01 X-13.7278 Y42.9254 
G01 X-13.5766 Y42.8155 
G01 X-13.4445 Y42.6834 
G01 X-13.3346 Y42.5322 
G01 X-13.2601 Y42.3860 
G01 X-11.7473 Y42.3860 
G01 X-11.6263 Y42.3536 
G01 X-11.5177 Y42.2909 
G01 X-11.4291 Y42.2023 
G01 X-8.8891 Y39.6623 
G01 X-8.8264 Y39.5537 
G01 X-8.7940 Y39.4327 
G01 X-8.7940 Y25.3373 
G01 X-8.8264 Y25.2163 
G01 X-8.8891 Y25.1077 
G01 X-8.9777 Y25.0191 
G01 X-10.2477 Y23.7491 
G01 X-10.3188 Y23.7081 
G01 X-10.3298 Y23.6743 
G01 X-10.4146 Y23.5078 
G01 X-10.5245 Y23.3566 
G01 X-10.6566 Y23.2245 
G01 X-10.8078 Y23.1146 
G01 X-10.9743 Y23.0298 
G01 X-11.1520 Y22.9720 
G01 X-11.3366 Y22.9428 
G01 X-11.5234 Y22.9428 
G01 X-11.7080 Y22.9720 
G01 X-11.8857 Y23.0298 
G01 X-12.0522 Y23.1146 
G01 X-12.2034 Y23.2245 
G01 X-12.3355 Y23.3566 
G01 X-12.4454 Y23.5078 
G01 X-12.5302 Y23.6743 
G01 X-12.5880 Y23.8520 
G01 X-12.6172 Y24.0366 
G01 X-12.6172 Y24.2234 
G01 X-12.5880 Y24.4080 
G01 X-12.5302 Y24.5857 
G01 X-12.4454 Y24.7522 
G01 X-12.3355 Y24.9034 
G01 X-12.2034 Y25.0355 
G01 X-12.0522 Y25.1454 
G01 X-11.8857 Y25.2302 
G01 X-11.7080 Y25.2880 
G01 X-11.5234 Y25.3172 
G01 X-11.3366 Y25.3172 
G01 X-11.1520 Y25.2880 
G01 X-10.9743 Y25.2302 
G01 X-10.8078 Y25.1454 
G01 X-10.6566 Y25.0355 
G01 X-10.5245 Y24.9034 
G01 X-10.4888 Y24.8543 
G01 X-9.7460 Y25.5972 
G01 X-9.7460 Y39.1728 
G01 X-12.0072 Y41.4340 
G01 X-13.2601 Y41.4340 
G01 X-13.3346 Y41.2878 
G01 X-13.4445 Y41.1366 
G01 X-13.5766 Y41.0045 
G01 X-13.7278 Y40.8946 
G01 X-13.8943 Y40.8098 
G01 X-14.0720 Y40.7520 
G01 X-14.2566 Y40.7228 
G01 X-14.4434 Y40.7228 
G01 X-14.6280 Y40.7520 
G01 X-14.8057 Y40.8098 
G01 X-14.9722 Y40.8946 
G01 X-15.1234 Y41.0045 
G01 X-15.2555 Y41.1366 
G01 X-15.3654 Y41.2878 
G01 X-15.4502 Y41.4543 
G01 X-15.5080 Y41.6320 
G01 X-15.5372 Y41.8166 
G00 Z2.5000 
G00 X-28.0654 Y17.1322 
G01 Z-0.1000 F254.00 
G01 X-27.9555 Y17.2834 F400.00 
G01 X-27.8234 Y17.4155 
G01 X-27.6722 Y17.5254 
G01 X-27.5057 Y17.6102 
G01 X-27.3280 Y17.6680 
G01 X-27.1434 Y17.6972 
G01 X-26.9566 Y17.6972 
G01 X-26.7720 Y17.6680 
G01 X-26.5943 Y17.6102 
G01 X-26.4278 Y17.5254 
G01 X-26.2766 Y17.4155 
G01 X-26.1445 Y17.2834 
G01 X-26.0346 Y17.1322 
G01 X-25.9498 Y16.9657 
G01 X-25.8920 Y16.7880 
G01 X-25.8628 Y16.6034 
G01 X-25.8628 Y16.4166 
G01 X-25.8920 Y16.2320 
G01 X-25.9498 Y16.0543 
G01 X-26.0346 Y15.8878 
G01 X-26.1445 Y15.7366 
G01 X-26.2766 Y15.6045 
G01 X-26.4278 Y15.4946 
G01 X-26.5943 Y15.4098 
G01 X-26.7720 Y15.3520 
G01 X-26.9566 Y15.3228 
G01 X-27.1434 Y15.3228 
G01 X-27.3280 Y15.3520 
G01 X-27.5057 Y15.4098 
G01 X-27.6722 Y15.4946 
G01 X-27.8234 Y15.6045 
G01 X-27.9555 Y15.7366 
G01 X-28.0654 Y15.8878 
G01 X-28.1399 Y16.0340 
G01 X-29.1351 Y16.0340 
G01 X-29.2096 Y15.8878 
G01 X-29.3195 Y15.7366 
G01 X-29.4516 Y15.6045 
G01 X-29.6028 Y15.4946 
G01 X-29.7693 Y15.4098 
G01 X-29.9470 Y15.3520 
G01 X-30.1316 Y15.3228 
G01 X-30.3184 Y15.3228 
G01 X-30.5030 Y15.3520 
G01 X-30.6807 Y15.4098 
G01 X-30.8472 Y15.4946 
G01 X-30.9984 Y15.6045 
G01 X-31.1305 Y15.7366 
G01 X-31.2404 Y15.8878 
G01 X-31.3252 Y16.0543 
G01 X-31.3830 Y16.2320 
G01 X-31.4122 Y16.4166 
G01 X-31.4122 Y16.6034 
G01 X-31.3830 Y16.7880 
G01 X-31.3252 Y16.9657 
G01 X-31.2404 Y17.1322 
G01 X-31.1305 Y17.2834 
G01 X-30.9984 Y17.4155 
G01 X-30.8472 Y17.5254 
G01 X-30.6807 Y17.6102 
G01 X-30.5030 Y17.6680 
G01 X-30.3184 Y17.6972 
G01 X-30.1316 Y17.6972 
G01 X-29.9470 Y17.6680 
G01 X-29.7693 Y17.6102 
G01 X-29.6028 Y17.5254 
G01 X-29.4516 Y17.4155 
G01 X-29.3195 Y17.2834 
G01 X-29.2096 Y17.1322 
G01 X-29.1351 Y16.9860 
G01 X-28.1399 Y16.9860 
G01 X-28.0654 Y17.1322 
G00 Z2.5000 
G00 X-28.0654 Y12.0522 
G01 Z-0.1000 F254.00 
G01 X-27.9555 Y12.2034 F400.00 
G01 X-27.8234 Y12.3355 
G01 X-27.6722 Y12.4454 
G01 X-27.5057 Y12.5302 
G01 X-27.3280 Y12.5880 
G01 X-27.1434 Y12.6172 
G01 X-26.9566 Y12.6172 
G01 X-26.7720 Y12.5880 
G01 X-26.5943 Y12.5302 
G01 X-26.4278 Y12.4454 
G01 X-26.2766 Y12.3355 
G01 X-26.1445 Y12.2034 
G01 X-26.0346 Y12.0522 
G01 X-25.9498 Y11.8857 
G01 X-25.8920 Y11.7080 
G01 X-25.8628 Y11.5234 
G01 X-25.8628 Y11.3366 
G01 X-25.8920 Y11.1520 
G01 X-25.9498 Y10.9743 
G01 X-26.0346 Y10.8078 
G01 X-26.1445 Y10.6566 
G01 X-26.2766 Y10.5245 
G01 X-26.4278 Y10.4146 
G01 X-26.5943 Y10.3298 
G01 X-26.7720 Y10.2720 
G01 X-26.9566 Y10.2428 
G01 X-27.1434 Y10.2428 
G01 X-27.3280 Y10.2720 
G01 X-27.5057 Y10.3298 
G01 X-27.6722 Y10.4146 
G01 X-27.8234 Y10.5245 
G01 X-27.9555 Y10.6566 
G01 X-28.0654 Y10.8078 
G01 X-28.1399 Y10.9540 
G01 X-29.1351 Y10.9540 
G01 X-29.2096 Y10.8078 
G01 X-29.3195 Y10.6566 
G01 X-29.4516 Y10.5245 
G01 X-29.6028 Y10.4146 
G01 X-29.7693 Y10.3298 
G01 X-29.9470 Y10.2720 
G01 X-30.1316 Y10.2428 
G01 X-30.3184 Y10.2428 
G01 X-30.5030 Y10.2720 
G01 X-30.6807 Y10.3298 
G01 X-30.8472 Y10.4146 
G01 X-30.9984 Y10.5245 
G01 X-31.1305 Y10.6566 
G01 X-31.2404 Y10.8078 
G01 X-31.3252 Y10.9743 
G01 X-31.3830 Y11.1520 
G01 X-31.4122 Y11.3366 
G01 X-31.4122 Y11.5234 
G01 X-31.3830 Y11.7080 
G01 X-31.3252 Y11.8857 
G01 X-31.2404 Y12.0522 
G01 X-31.1305 Y12.2034 
G01 X-30.9984 Y12.3355 
G01 X-30.8472 Y12.4454 
G01 X-30.6807 Y12.5302 
G01 X-30.5030 Y12.5880 
G01 X-30.3184 Y12.6172 
G01 X-30.1316 Y12.6172 
G01 X-29.9470 Y12.5880 
G01 X-29.7693 Y12.5302 
G01 X-29.6028 Y12.4454 
G01 X-29.4516 Y12.3355 
G01 X-29.3195 Y12.2034 
G01 X-29.2096 Y12.0522 
G01 X-29.1351 Y11.9060 
G01 X-28.1399 Y11.9060 
G01 X-28.0654 Y12.0522 
G00 Z2.5000 
G00 X-28.4454 Y27.2922 
G01 Z-0.1000 F254.00 
G01 X-28.3355 Y27.4434 F400.00 
G01 X-28.2034 Y27.5755 
G01 X-28.0522 Y27.6854 
G01 X-27.8857 Y27.7702 
G01 X-27.7080 Y27.8280 
G01 X-27.5234 Y27.8572 
G01 X-27.3366 Y27.8572 
G01 X-27.1520 Y27.8280 
G01 X-26.9743 Y27.7702 
G01 X-26.8078 Y27.6854 
G01 X-26.6566 Y27.5755 
G01 X-26.5245 Y27.4434 
G01 X-26.4146 Y27.2922 
G01 X-26.3298 Y27.1257 
G01 X-26.2720 Y26.9480 
G01 X-26.2428 Y26.7634 
G01 X-26.2428 Y26.5766 
G01 X-26.2720 Y26.3920 
G01 X-26.3298 Y26.2143 
G01 X-26.4146 Y26.0478 
G01 X-26.5245 Y25.8966 
G01 X-26.6566 Y25.7645 
G01 X-26.8078 Y25.6546 
G01 X-26.9743 Y25.5698 
G01 X-27.1520 Y25.5120 
G01 X-27.3366 Y25.4828 
G01 X-27.5234 Y25.4828 
G01 X-27.7080 Y25.5120 
G01 X-27.8857 Y25.5698 
G01 X-28.0522 Y25.6546 
G01 X-28.2034 Y25.7645 
G01 X-28.3355 Y25.8966 
G01 X-28.4454 Y26.0478 
G01 X-28.5199 Y26.1940 
G01 X-29.1351 Y26.1940 
G01 X-29.2096 Y26.0478 
G01 X-29.3195 Y25.8966 
G01 X-29.4516 Y25.7645 
G01 X-29.6028 Y25.6546 
G01 X-29.7693 Y25.5698 
G01 X-29.9470 Y25.5120 
G01 X-30.1316 Y25.4828 
G01 X-30.3184 Y25.4828 
G01 X-30.5030 Y25.5120 
G01 X-30.6807 Y25.5698 
G01 X-30.8472 Y25.6546 
G01 X-30.9984 Y25.7645 
G01 X-31.1305 Y25.8966 
G01 X-31.2404 Y26.0478 
G01 X-31.3252 Y26.2143 
G01 X-31.3830 Y26.3920 
G01 X-31.4122 Y26.5766 
G01 X-31.4122 Y26.7634 
G01 X-31.3830 Y26.9480 
G01 X-31.3252 Y27.1257 
G01 X-31.2404 Y27.2922 
G01 X-31.1305 Y27.4434 
G01 X-30.9984 Y27.5755 
G01 X-30.8472 Y27.6854 
G01 X-30.6807 Y27.7702 
G01 X-30.5030 Y27.8280 
G01 X-30.3184 Y27.8572 
G01 X-30.1316 Y27.8572 
G01 X-29.9470 Y27.8280 
G01 X-29.7693 Y27.7702 
G01 X-29.6028 Y27.6854 
G01 X-29.4516 Y27.5755 
G01 X-29.3195 Y27.4434 
G01 X-29.2096 Y27.2922 
G01 X-29.1351 Y27.1460 
G01 X-28.5199 Y27.1460 
G01 X-28.4454 Y27.2922 
G00 Z2.5000 
G00 X-28.4454 Y22.2122 
G01 Z-0.1000 F254.00 
G01 X-28.3355 Y22.3634 F400.00 
G01 X-28.2034 Y22.4955 
G01 X-28.0522 Y22.6054 
G01 X-27.8857 Y22.6902 
G01 X-27.7080 Y22.7480 
G01 X-27.5234 Y22.7772 
G01 X-27.3366 Y22.7772 
G01 X-27.1520 Y22.7480 
G01 X-26.9743 Y22.6902 
G01 X-26.8078 Y22.6054 
G01 X-26.6566 Y22.4955 
G01 X-26.5245 Y22.3634 
G01 X-26.4146 Y22.2122 
G01 X-26.3298 Y22.0457 
G01 X-26.2720 Y21.8680 
G01 X-26.2428 Y21.6834 
G01 X-26.2428 Y21.4966 
G01 X-26.2720 Y21.3120 
G01 X-26.3298 Y21.1343 
G01 X-26.4146 Y20.9678 
G01 X-26.5245 Y20.8166 
G01 X-26.6566 Y20.6845 
G01 X-26.8078 Y20.5746 
G01 X-26.9743 Y20.4898 
G01 X-27.1520 Y20.4320 
G01 X-27.3366 Y20.4028 
G01 X-27.5234 Y20.4028 
G01 X-27.7080 Y20.4320 
G01 X-27.8857 Y20.4898 
G01 X-28.0522 Y20.5746 
G01 X-28.2034 Y20.6845 
G01 X-28.3355 Y20.8166 
G01 X-28.4454 Y20.9678 
G01 X-28.5199 Y21.1140 
G01 X-29.1351 Y21.1140 
G01 X-29.2096 Y20.9678 
G01 X-29.3195 Y20.8166 
G01 X-29.4516 Y20.6845 
G01 X-29.6028 Y20.5746 
G01 X-29.7693 Y20.4898 
G01 X-29.9470 Y20.4320 
G01 X-30.1316 Y20.4028 
G01 X-30.3184 Y20.4028 
G01 X-30.5030 Y20.4320 
G01 X-30.6807 Y20.4898 
G01 X-30.8472 Y20.5746 
G01 X-30.9984 Y20.6845 
G01 X-31.1305 Y20.8166 
G01 X-31.2404 Y20.9678 
G01 X-31.3252 Y21.1343 
G01 X-31.3830 Y21.3120 
G01 X-31.4122 Y21.4966 
G01 X-31.4122 Y21.6834 
G01 X-31.3830 Y21.8680 
G01 X-31.3252 Y22.0457 
G01 X-31.2404 Y22.2122 
G01 X-31.1305 Y22.3634 
G01 X-30.9984 Y22.4955 
G01 X-30.8472 Y22.6054 
G01 X-30.6807 Y22.6902 
G01 X-30.5030 Y22.7480 
G01 X-30.3184 Y22.7772 
G01 X-30.1316 Y22.7772 
G01 X-29.9470 Y22.7480 
G01 X-29.7693 Y22.6902 
G01 X-29.6028 Y22.6054 
G01 X-29.4516 Y22.4955 
G01 X-29.3195 Y22.3634 
G01 X-29.2096 Y22.2122 
G01 X-29.1351 Y22.0660 
G01 X-28.5199 Y22.0660 
G01 X-28.4454 Y22.2122 
G00 Z2.5000 
G00 X-12.6172 Y21.4966 
G01 Z-0.1000 F254.00 
G01 X-12.6172 Y21.6834 F400.00 
G01 X-12.5880 Y21.8680 
G01 X-12.5302 Y22.0457 
G01 X-12.4454 Y22.2122 
G01 X-12.3355 Y22.3634 
G01 X-12.2034 Y22.4955 
G01 X-12.0522 Y22.6054 
G01 X-11.8857 Y22.6902 
G01 X-11.7080 Y22.7480 
G01 X-11.5234 Y22.7772 
G01 X-11.3366 Y22.7772 
G01 X-11.1520 Y22.7480 
G01 X-10.9743 Y22.6902 
G01 X-10.8078 Y22.6054 
G01 X-10.6566 Y22.4955 
G01 X-10.5245 Y22.3634 
G01 X-10.4146 Y22.2122 
G01 X-10.3298 Y22.0457 
G01 X-10.2720 Y21.8680 
G01 X-10.2428 Y21.6834 
G01 X-10.2428 Y21.4966 
G01 X-10.2720 Y21.3120 
G01 X-10.3298 Y21.1343 
G01 X-10.4146 Y20.9678 
G01 X-10.5245 Y20.8166 
G01 X-10.6566 Y20.6845 
G01 X-10.8078 Y20.5746 
G01 X-10.9743 Y20.4898 
G01 X-11.1520 Y20.4320 
G01 X-11.3366 Y20.4028 
G01 X-11.5234 Y20.4028 
G01 X-11.7080 Y20.4320 
G01 X-11.8857 Y20.4898 
G01 X-12.0522 Y20.5746 
G01 X-12.2034 Y20.6845 
G01 X-12.3355 Y20.8166 
G01 X-12.4454 Y20.9678 
G01 X-12.5302 Y21.1343 
G01 X-12.5880 Y21.3120 
G01 X-12.6172 Y21.4966 
G00 Z2.5000 
G00 X-12.6172 Y26.5766 
G01 Z-0.1000 F254.00 
G01 X-12.6172 Y26.7634 F400.00 
G01 X-12.5880 Y26.9480 
G01 X-12.5302 Y27.1257 
G01 X-12.4454 Y27.2922 
G01 X-12.3355 Y27.4434 
G01 X-12.2034 Y27.5755 
G01 X-12.0522 Y27.6854 
G01 X-11.8857 Y27.7702 
G01 X-11.7080 Y27.8280 
G01 X-11.5234 Y27.8572 
G01 X-11.3366 Y27.8572 
G01 X-11.1520 Y27.8280 
G01 X-10.9743 Y27.7702 
G01 X-10.8078 Y27.6854 
G01 X-10.6566 Y27.5755 
G01 X-10.5245 Y27.4434 
G01 X-10.4146 Y27.2922 
G01 X-10.3298 Y27.1257 
G01 X-10.2720 Y26.9480 
G01 X-10.2428 Y26.7634 
G01 X-10.2428 Y26.5766 
G01 X-10.2720 Y26.3920 
G01 X-10.3298 Y26.2143 
G01 X-10.4146 Y26.0478 
G01 X-10.5245 Y25.8966 
G01 X-10.6566 Y25.7645 
G01 X-10.8078 Y25.6546 
G01 X-10.9743 Y25.5698 
G01 X-11.1520 Y25.5120 
G01 X-11.3366 Y25.4828 
G01 X-11.5234 Y25.4828 
G01 X-11.7080 Y25.5120 
G01 X-11.8857 Y25.5698 
G01 X-12.0522 Y25.6546 
G01 X-12.2034 Y25.7645 
G01 X-12.3355 Y25.8966 
G01 X-12.4454 Y26.0478 
G01 X-12.5302 Y26.2143 
G01 X-12.5880 Y26.3920 
G01 X-12.6172 Y26.5766 
G00 Z2.5000 
G00 X-12.6172 Y29.1166 
G01 Z-0.1000 F254.00 
G01 X-12.6172 Y29.3034 F400.00 
G01 X-12.5880 Y29.4880 
G01 X-12.5302 Y29.6657 
G01 X-12.4454 Y29.8322 
G01 X-12.3355 Y29.9834 
G01 X-12.2034 Y30.1155 
G01 X-12.0522 Y30.2254 
G01 X-11.8857 Y30.3102 
G01 X-11.7080 Y30.3680 
G01 X-11.5234 Y30.3972 
G01 X-11.3366 Y30.3972 
G01 X-11.1520 Y30.3680 
G01 X-10.9743 Y30.3102 
G01 X-10.8078 Y30.2254 
G01 X-10.6566 Y30.1155 
G01 X-10.5245 Y29.9834 
G01 X-10.4146 Y29.8322 
G01 X-10.3298 Y29.6657 
G01 X-10.2720 Y29.4880 
G01 X-10.2428 Y29.3034 
G01 X-10.2428 Y29.1166 
G01 X-10.2720 Y28.9320 
G01 X-10.3298 Y28.7543 
G01 X-10.4146 Y28.5878 
G01 X-10.5245 Y28.4366 
G01 X-10.6566 Y28.3045 
G01 X-10.8078 Y28.1946 
G01 X-10.9743 Y28.1098 
G01 X-11.1520 Y28.0520 
G01 X-11.3366 Y28.0228 
G01 X-11.5234 Y28.0228 
G01 X-11.7080 Y28.0520 
G01 X-11.8857 Y28.1098 
G01 X-12.0522 Y28.1946 
G01 X-12.2034 Y28.3045 
G01 X-12.3355 Y28.4366 
G01 X-12.4454 Y28.5878 
G01 X-12.5302 Y28.7543 
G01 X-12.5880 Y28.9320 
G01 X-12.6172 Y29.1166 
G00 Z2.5000 
G00 X-12.6172 Y34.1966 
G01 Z-0.1000 F254.00 
G01 X-12.6172 Y34.3834 F400.00 
G01 X-12.5880 Y34.5680 
G01 X-12.5302 Y34.7457 
G01 X-12.4454 Y34.9122 
G01 X-12.3355 Y35.0634 
G01 X-12.2034 Y35.1955 
G01 X-12.0522 Y35.3054 
G01 X-11.8990 Y35.3834 
G01 X-11.9115 Y36.3177 
G01 X-12.0722 Y36.3996 
G01 X-12.2234 Y36.5095 
G01 X-12.3555 Y36.6416 
G01 X-12.4654 Y36.7928 
G01 X-12.5502 Y36.9593 
G01 X-12.6080 Y37.1370 
G01 X-12.6372 Y37.3216 
G01 X-12.6372 Y37.5084 
G01 X-12.6080 Y37.6930 
G01 X-12.5502 Y37.8707 
G01 X-12.4654 Y38.0372 
G01 X-12.3555 Y38.1884 
G01 X-12.2234 Y38.3205 
G01 X-12.0722 Y38.4304 
G01 X-11.9057 Y38.5152 
G01 X-11.7280 Y38.5730 
G01 X-11.5434 Y38.6022 
G01 X-11.3566 Y38.6022 
G01 X-11.1720 Y38.5730 
G01 X-10.9943 Y38.5152 
G01 X-10.8278 Y38.4304 
G01 X-10.6766 Y38.3205 
G01 X-10.5445 Y38.1884 
G01 X-10.4346 Y38.0372 
G01 X-10.3498 Y37.8707 
G01 X-10.2920 Y37.6930 
G01 X-10.2628 Y37.5084 
G01 X-10.2628 Y37.3216 
G01 X-10.2920 Y37.1370 
G01 X-10.3498 Y36.9593 
G01 X-10.4346 Y36.7928 
G01 X-10.5445 Y36.6416 
G01 X-10.6766 Y36.5095 
G01 X-10.8278 Y36.3996 
G01 X-10.9596 Y36.3325 
G01 X-10.9469 Y35.3763 
G01 X-10.8078 Y35.3054 
G01 X-10.6566 Y35.1955 
G01 X-10.5245 Y35.0634 
G01 X-10.4146 Y34.9122 
G01 X-10.3298 Y34.7457 
G01 X-10.2720 Y34.5680 
G01 X-10.2428 Y34.3834 
G01 X-10.2428 Y34.1966 
G01 X-10.2720 Y34.0120 
G01 X-10.3298 Y33.8343 
G01 X-10.4146 Y33.6678 
G01 X-10.5245 Y33.5166 
G01 X-10.6566 Y33.3845 
G01 X-10.8078 Y33.2746 
G01 X-10.9743 Y33.1898 
G01 X-11.1520 Y33.1320 
G01 X-11.3366 Y33.1028 
G01 X-11.5234 Y33.1028 
G01 X-11.7080 Y33.1320 
G01 X-11.8857 Y33.1898 
G01 X-12.0522 Y33.2746 
G01 X-12.2034 Y33.3845 
G01 X-12.3355 Y33.5166 
G01 X-12.4454 Y33.6678 
G01 X-12.5302 Y33.8343 
G01 X-12.5880 Y34.0120 
G01 X-12.6172 Y34.1966 
G00 Z2.5000 
G00 X-76.1172 Y6.8916 
G01 Z-0.1000 F254.00 
G01 X-76.1172 Y7.0784 F400.00 
G01 X-76.0880 Y7.2630 
G01 X-76.0302 Y7.4407 
G01 X-75.9454 Y7.6072 
G01 X-75.8355 Y7.7584 
G01 X-75.7034 Y7.8905 
G01 X-75.5522 Y8.0004 
G01 X-75.4173 Y8.0691 
G01 X-77.1273 Y9.7791 
G01 X-77.2159 Y9.8677 
G01 X-77.2786 Y9.9763 
G01 X-77.3110 Y10.0973 
G01 X-77.3110 Y26.4777 
G01 X-77.2786 Y26.5987 
G01 X-77.2159 Y26.7073 
G01 X-76.8723 Y27.0509 
G01 X-76.6823 Y27.2409 
G01 X-74.3323 Y29.5909 
G01 X-74.2237 Y29.6536 
G01 X-74.1027 Y29.6860 
G01 X-63.4422 Y29.6860 
G01 X-59.9110 Y33.2172 
G01 X-59.9110 Y41.2000 
G01 X-60.7039 Y41.2000 
G01 X-60.7388 Y41.2145 
G01 X-60.7655 Y41.2412 
G01 X-60.7800 Y41.2761 
G01 X-60.7800 Y43.8139 
G01 X-60.7655 Y43.8488 
G01 X-60.7388 Y43.8755 
G01 X-60.7039 Y43.8900 
G01 X-58.1661 Y43.8900 
G01 X-58.1312 Y43.8755 
G01 X-58.1045 Y43.8488 
G01 X-58.0900 Y43.8139 
G01 X-58.0900 Y41.2761 
G01 X-58.1045 Y41.2412 
G01 X-58.1312 Y41.2145 
G01 X-58.1661 Y41.2000 
G01 X-58.9590 Y41.2000 
G01 X-58.9590 Y32.9573 
G01 X-58.9914 Y32.8363 
G01 X-59.0541 Y32.7277 
G01 X-59.1427 Y32.6391 
G01 X-62.9527 Y28.8291 
G01 X-63.0613 Y28.7664 
G01 X-63.1823 Y28.7340 
G01 X-73.8428 Y28.7340 
G01 X-76.0091 Y26.5677 
G01 X-76.1991 Y26.3777 
G01 X-76.3590 Y26.2178 
G01 X-76.3590 Y10.3572 
G01 X-74.5491 Y8.5473 
G01 X-74.4864 Y8.4387 
G01 X-74.4540 Y8.3177 
G01 X-74.4540 Y8.0749 
G01 X-74.3078 Y8.0004 
G01 X-74.1566 Y7.8905 
G01 X-74.0245 Y7.7584 
G01 X-73.9146 Y7.6072 
G01 X-73.8298 Y7.4407 
G01 X-73.7720 Y7.2630 
G01 X-73.7428 Y7.0784 
G01 X-73.7428 Y6.8916 
G01 X-73.7720 Y6.7070 
G01 X-73.8298 Y6.5293 
G01 X-73.9146 Y6.3628 
G01 X-74.0245 Y6.2116 
G01 X-74.1566 Y6.0795 
G01 X-74.3078 Y5.9696 
G01 X-74.4540 Y5.8951 
G01 X-74.4540 Y5.5349 
G01 X-74.3078 Y5.4604 
G01 X-74.1566 Y5.3505 
G01 X-74.0245 Y5.2184 
G01 X-73.9146 Y5.0672 
G01 X-73.8298 Y4.9007 
G01 X-73.7720 Y4.7230 
G01 X-73.7428 Y4.5384 
G01 X-73.7428 Y4.3516 
G01 X-73.7720 Y4.1670 
G01 X-73.8298 Y3.9893 
G01 X-73.9146 Y3.8228 
G01 X-74.0245 Y3.6716 
G01 X-74.1566 Y3.5395 
G01 X-74.3078 Y3.4296 
G01 X-74.4743 Y3.3448 
G01 X-74.6520 Y3.2870 
G01 X-74.8366 Y3.2578 
G01 X-75.0234 Y3.2578 
G01 X-75.2080 Y3.2870 
G01 X-75.3857 Y3.3448 
G01 X-75.5522 Y3.4296 
G01 X-75.7034 Y3.5395 
G01 X-75.8355 Y3.6716 
G01 X-75.9454 Y3.8228 
G01 X-76.0302 Y3.9893 
G01 X-76.0880 Y4.1670 
G01 X-76.1172 Y4.3516 
G01 X-76.1172 Y4.5384 
G01 X-76.0880 Y4.7230 
G01 X-76.0302 Y4.9007 
G01 X-75.9454 Y5.0672 
G01 X-75.8355 Y5.2184 
G01 X-75.7034 Y5.3505 
G01 X-75.5522 Y5.4604 
G01 X-75.4060 Y5.5349 
G01 X-75.4060 Y5.8951 
G01 X-75.5522 Y5.9696 
G01 X-75.7034 Y6.0795 
G01 X-75.8355 Y6.2116 
G01 X-75.9454 Y6.3628 
G01 X-76.0302 Y6.5293 
G01 X-76.0880 Y6.7070 
G01 X-76.1172 Y6.8916 
G00 Z2.5000 
G00 X-73.5772 Y6.8916 
G01 Z-0.1000 F254.00 
G01 X-73.5772 Y7.0784 F400.00 
G01 X-73.5480 Y7.2630 
G01 X-73.4902 Y7.4407 
G01 X-73.4054 Y7.6072 
G01 X-73.2955 Y7.7584 
G01 X-73.1634 Y7.8905 
G01 X-73.0122 Y8.0004 
G01 X-72.8457 Y8.0852 
G01 X-72.6680 Y8.1430 
G01 X-72.4834 Y8.1722 
G01 X-72.2966 Y8.1722 
G01 X-72.1120 Y8.1430 
G01 X-71.9343 Y8.0852 
G01 X-71.7678 Y8.0004 
G01 X-71.6166 Y7.8905 
G01 X-71.4845 Y7.7584 
G01 X-71.3746 Y7.6072 
G01 X-71.2898 Y7.4407 
G01 X-71.2320 Y7.2630 
G01 X-71.2028 Y7.0784 
G01 X-71.2028 Y6.8916 
G01 X-71.2320 Y6.7070 
G01 X-71.2898 Y6.5293 
G01 X-71.3746 Y6.3628 
G01 X-71.4845 Y6.2116 
G01 X-71.6166 Y6.0795 
G01 X-71.7678 Y5.9696 
G01 X-71.9343 Y5.8848 
G01 X-72.1120 Y5.8270 
G01 X-72.2966 Y5.7978 
G01 X-72.4834 Y5.7978 
G01 X-72.6680 Y5.8270 
G01 X-72.8457 Y5.8848 
G01 X-73.0122 Y5.9696 
G01 X-73.1634 Y6.0795 
G01 X-73.2955 Y6.2116 
G01 X-73.4054 Y6.3628 
G01 X-73.4902 Y6.5293 
G01 X-73.5480 Y6.7070 
G01 X-73.5772 Y6.8916 
G00 Z2.5000 
G00 X-12.9972 Y8.7966 
G01 Z-0.1000 F254.00 
G01 X-12.9972 Y8.9834 F400.00 
G01 X-12.9680 Y9.1680 
G01 X-12.9102 Y9.3457 
G01 X-12.8254 Y9.5122 
G01 X-12.7155 Y9.6634 
G01 X-12.5834 Y9.7955 
G01 X-12.4322 Y9.9054 
G01 X-12.2657 Y9.9902 
G01 X-12.0880 Y10.0480 
G01 X-11.9034 Y10.0772 
G01 X-11.7166 Y10.0772 
G01 X-11.5320 Y10.0480 
G01 X-11.3543 Y9.9902 
G01 X-11.1878 Y9.9054 
G01 X-11.0366 Y9.7955 
G01 X-10.9045 Y9.6634 
G01 X-10.7946 Y9.5122 
G01 X-10.7098 Y9.3457 
G01 X-10.6520 Y9.1680 
G01 X-10.6228 Y8.9834 
G01 X-10.6228 Y8.7966 
G01 X-10.6520 Y8.6120 
G01 X-10.7098 Y8.4343 
G01 X-10.7946 Y8.2678 
G01 X-10.9045 Y8.1166 
G01 X-11.0366 Y7.9845 
G01 X-11.1878 Y7.8746 
G01 X-11.3340 Y7.8001 
G01 X-11.3340 Y3.7473 
G01 X-11.3664 Y3.6263 
G01 X-11.4291 Y3.5177 
G01 X-13.9691 Y0.9777 
G01 X-14.0577 Y0.8891 
G01 X-14.1663 Y0.8264 
G01 X-14.2873 Y0.7940 
G01 X-23.9377 Y0.7940 
G01 X-24.0587 Y0.8264 
G01 X-24.1673 Y0.8891 
G01 X-26.6159 Y3.3377 
G01 X-26.7720 Y3.2870 
G01 X-26.9566 Y3.2578 
G01 X-27.1434 Y3.2578 
G01 X-27.3280 Y3.2870 
G01 X-27.5057 Y3.3448 
G01 X-27.6722 Y3.4296 
G01 X-27.8234 Y3.5395 
G01 X-27.9555 Y3.6716 
G01 X-28.0654 Y3.8228 
G01 X-28.1399 Y3.9690 
G01 X-39.8127 Y3.9690 
G01 X-39.9337 Y4.0014 
G01 X-40.0423 Y4.0641 
G01 X-41.3123 Y5.3341 
G01 X-41.4009 Y5.4227 
G01 X-41.4636 Y5.5313 
G01 X-41.4960 Y5.6523 
G01 X-41.4960 Y19.4878 
G01 X-43.1222 Y21.1140 
G01 X-44.3751 Y21.1140 
G01 X-44.4496 Y20.9678 
G01 X-44.5595 Y20.8166 
G01 X-44.6916 Y20.6845 
G01 X-44.8428 Y20.5746 
G01 X-45.0093 Y20.4898 
G01 X-45.1870 Y20.4320 
G01 X-45.3716 Y20.4028 
G01 X-45.5584 Y20.4028 
G01 X-45.7430 Y20.4320 
G01 X-45.9207 Y20.4898 
G01 X-46.0872 Y20.5746 
G01 X-46.2384 Y20.6845 
G01 X-46.3705 Y20.8166 
G01 X-46.4804 Y20.9678 
G01 X-46.5652 Y21.1343 
G01 X-46.6230 Y21.3120 
G01 X-46.6522 Y21.4966 
G01 X-46.6522 Y21.6834 
G01 X-46.6230 Y21.8680 
G01 X-46.5652 Y22.0457 
G01 X-46.4804 Y22.2122 
G01 X-46.3705 Y22.3634 
G01 X-46.2384 Y22.4955 
G01 X-46.0872 Y22.6054 
G01 X-45.9207 Y22.6902 
G01 X-45.7430 Y22.7480 
G01 X-45.5584 Y22.7772 
G01 X-45.3716 Y22.7772 
G01 X-45.1870 Y22.7480 
G01 X-45.0093 Y22.6902 
G01 X-44.8428 Y22.6054 
G01 X-44.6916 Y22.4955 
G01 X-44.5595 Y22.3634 
G01 X-44.4496 Y22.2122 
G01 X-44.3751 Y22.0660 
G01 X-42.8623 Y22.0660 
G01 X-42.7413 Y22.0336 
G01 X-42.6327 Y21.9709 
G01 X-42.5441 Y21.8823 
G01 X-40.6391 Y19.9773 
G01 X-40.5764 Y19.8687 
G01 X-40.5440 Y19.7477 
G01 X-40.5440 Y5.9122 
G01 X-39.5528 Y4.9210 
G01 X-28.1399 Y4.9210 
G01 X-28.0654 Y5.0672 
G01 X-27.9555 Y5.2184 
G01 X-27.8234 Y5.3505 
G01 X-27.6722 Y5.4604 
G01 X-27.5057 Y5.5452 
G01 X-27.3280 Y5.6030 
G01 X-27.1434 Y5.6322 
G01 X-26.9566 Y5.6322 
G01 X-26.7720 Y5.6030 
G01 X-26.5943 Y5.5452 
G01 X-26.4278 Y5.4604 
G01 X-26.2766 Y5.3505 
G01 X-26.1445 Y5.2184 
G01 X-26.0346 Y5.0672 
G01 X-25.9498 Y4.9007 
G01 X-25.8920 Y4.7230 
G01 X-25.8628 Y4.5384 
G01 X-25.8628 Y4.3516 
G01 X-25.8920 Y4.1670 
G01 X-25.9427 Y4.0109 
G01 X-23.6778 Y1.7460 
G01 X-14.5472 Y1.7460 
G01 X-12.2860 Y4.0072 
G01 X-12.2860 Y7.8001 
G01 X-12.4322 Y7.8746 
G01 X-12.5834 Y7.9845 
G01 X-12.7155 Y8.1166 
G01 X-12.8254 Y8.2678 
G01 X-12.9102 Y8.4343 
G01 X-12.9680 Y8.6120 
G01 X-12.9972 Y8.7966 
G00 Z2.5000 
G00 X-12.8254 Y12.0522 
G01 Z-0.1000 F254.00 
G01 X-12.7155 Y12.2034 F400.00 
G01 X-12.5834 Y12.3355 
G01 X-12.4322 Y12.4454 
G01 X-12.2657 Y12.5302 
G01 X-12.0880 Y12.5880 
G01 X-11.9034 Y12.6172 
G01 X-11.7166 Y12.6172 
G01 X-11.5320 Y12.5880 
G01 X-11.3543 Y12.5302 
G01 X-11.1878 Y12.4454 
G01 X-11.0366 Y12.3355 
G01 X-10.9045 Y12.2034 
G01 X-10.7946 Y12.0522 
G01 X-10.7098 Y11.8857 
G01 X-10.6520 Y11.7080 
G01 X-10.6228 Y11.5234 
G01 X-10.6228 Y11.3366 
G01 X-10.6520 Y11.1520 
G01 X-10.7098 Y10.9743 
G01 X-10.7946 Y10.8078 
G01 X-10.9045 Y10.6566 
G01 X-11.0366 Y10.5245 
G01 X-11.1878 Y10.4146 
G01 X-11.3543 Y10.3298 
G01 X-11.5320 Y10.2720 
G01 X-11.7166 Y10.2428 
G01 X-11.9034 Y10.2428 
G01 X-12.0880 Y10.2720 
G01 X-12.2657 Y10.3298 
G01 X-12.4322 Y10.4146 
G01 X-12.5834 Y10.5245 
G01 X-12.7155 Y10.6566 
G01 X-12.8254 Y10.8078 
G01 X-12.8941 Y10.9427 
G01 X-13.8740 Y9.9628 
G01 X-13.8740 Y3.7473 
G01 X-13.9064 Y3.6263 
G01 X-13.9691 Y3.5177 
G01 X-15.2391 Y2.2477 
G01 X-15.3277 Y2.1591 
G01 X-15.4363 Y2.0964 
G01 X-15.5573 Y2.0640 
G01 X-20.1277 Y2.0640 
G01 X-20.2487 Y2.0964 
G01 X-20.3573 Y2.1591 
G01 X-24.0722 Y5.8740 
G01 X-37.9077 Y5.8740 
G01 X-38.0287 Y5.9064 
G01 X-38.1373 Y5.9691 
G01 X-39.4073 Y7.2391 
G01 X-39.4959 Y7.3277 
G01 X-39.5586 Y7.4363 
G01 X-39.5910 Y7.5573 
G01 X-39.5910 Y28.7340 
G01 X-44.3751 Y28.7340 
G01 X-44.4496 Y28.5878 
G01 X-44.5595 Y28.4366 
G01 X-44.6916 Y28.3045 
G01 X-44.8428 Y28.1946 
G01 X-45.0093 Y28.1098 
G01 X-45.1870 Y28.0520 
G01 X-45.3716 Y28.0228 
G01 X-45.5584 Y28.0228 
G01 X-45.7430 Y28.0520 
G01 X-45.9207 Y28.1098 
G01 X-46.0872 Y28.1946 
G01 X-46.2384 Y28.3045 
G01 X-46.3705 Y28.4366 
G01 X-46.4804 Y28.5878 
G01 X-46.5491 Y28.7227 
G01 X-47.5290 Y27.7428 
G01 X-47.5290 Y6.2873 
G01 X-47.5614 Y6.1663 
G01 X-47.6241 Y6.0577 
G01 X-51.5227 Y2.1591 
G01 X-51.6313 Y2.0964 
G01 X-51.7523 Y2.0640 
G01 X-80.4527 Y2.0640 
G01 X-80.5737 Y2.0964 
G01 X-80.6823 Y2.1591 
G01 X-80.7709 Y2.2477 
G01 X-83.9459 Y5.4227 
G01 X-84.0086 Y5.5313 
G01 X-84.0410 Y5.6523 
G01 X-84.0410 Y9.9628 
G01 X-85.0209 Y10.9427 
G01 X-85.0896 Y10.8078 
G01 X-85.1995 Y10.6566 
G01 X-85.3316 Y10.5245 
G01 X-85.4828 Y10.4146 
G01 X-85.6493 Y10.3298 
G01 X-85.8270 Y10.2720 
G01 X-86.0116 Y10.2428 
G01 X-86.1984 Y10.2428 
G01 X-86.3830 Y10.2720 
G01 X-86.5607 Y10.3298 
G01 X-86.7272 Y10.4146 
G01 X-86.8784 Y10.5245 
G01 X-87.0105 Y10.6566 
G01 X-87.1204 Y10.8078 
G01 X-87.2052 Y10.9743 
G01 X-87.2630 Y11.1520 
G01 X-87.2922 Y11.3366 
G01 X-87.2922 Y11.5234 
G01 X-87.2630 Y11.7080 
G01 X-87.2052 Y11.8857 
G01 X-87.1204 Y12.0522 
G01 X-87.0105 Y12.2034 
G01 X-86.8784 Y12.3355 
G01 X-86.7272 Y12.4454 
G01 X-86.5607 Y12.5302 
G01 X-86.3830 Y12.5880 
G01 X-86.1984 Y12.6172 
G01 X-86.0116 Y12.6172 
G01 X-85.8270 Y12.5880 
G01 X-85.6493 Y12.5302 
G01 X-85.4828 Y12.4454 
G01 X-85.3316 Y12.3355 
G01 X-85.1995 Y12.2034 
G01 X-85.0896 Y12.0522 
G01 X-85.0151 Y11.9060 
G01 X-84.7723 Y11.9060 
G01 X-84.6513 Y11.8736 
G01 X-84.5427 Y11.8109 
G01 X-84.4541 Y11.7223 
G01 X-83.1841 Y10.4523 
G01 X-83.1214 Y10.3437 
G01 X-83.0890 Y10.2227 
G01 X-83.0890 Y5.9122 
G01 X-80.1928 Y3.0160 
G01 X-77.9460 Y3.0160 
G01 X-77.9460 Y3.3551 
G01 X-78.0922 Y3.4296 
G01 X-78.2434 Y3.5395 
G01 X-78.3755 Y3.6716 
G01 X-78.4854 Y3.8228 
G01 X-78.5702 Y3.9893 
G01 X-78.6280 Y4.1670 
G01 X-78.6572 Y4.3516 
G01 X-78.6572 Y4.5384 
G01 X-78.6280 Y4.7230 
G01 X-78.5702 Y4.9007 
G01 X-78.4854 Y5.0672 
G01 X-78.3755 Y5.2184 
G01 X-78.2434 Y5.3505 
G01 X-78.0922 Y5.4604 
G01 X-77.9460 Y5.5349 
G01 X-77.9460 Y5.8951 
G01 X-78.0922 Y5.9696 
G01 X-78.2434 Y6.0795 
G01 X-78.3755 Y6.2116 
G01 X-78.4854 Y6.3628 
G01 X-78.5702 Y6.5293 
G01 X-78.6280 Y6.7070 
G01 X-78.6572 Y6.8916 
G01 X-78.6572 Y7.0784 
G01 X-78.6280 Y7.2630 
G01 X-78.5702 Y7.4407 
G01 X-78.4854 Y7.6072 
G01 X-78.3755 Y7.7584 
G01 X-78.2434 Y7.8905 
G01 X-78.0922 Y8.0004 
G01 X-77.9257 Y8.0852 
G01 X-77.7480 Y8.1430 
G01 X-77.5634 Y8.1722 
G01 X-77.3766 Y8.1722 
G01 X-77.1920 Y8.1430 
G01 X-77.0143 Y8.0852 
G01 X-76.8478 Y8.0004 
G01 X-76.6966 Y7.8905 
G01 X-76.5645 Y7.7584 
G01 X-76.4546 Y7.6072 
G01 X-76.3698 Y7.4407 
G01 X-76.3120 Y7.2630 
G01 X-76.2828 Y7.0784 
G01 X-76.2828 Y6.8916 
G01 X-76.3120 Y6.7070 
G01 X-76.3698 Y6.5293 
G01 X-76.4546 Y6.3628 
G01 X-76.5645 Y6.2116 
G01 X-76.6966 Y6.0795 
G01 X-76.8478 Y5.9696 
G01 X-76.9940 Y5.8951 
G01 X-76.9940 Y5.5349 
G01 X-76.8478 Y5.4604 
G01 X-76.6966 Y5.3505 
G01 X-76.5645 Y5.2184 
G01 X-76.4546 Y5.0672 
G01 X-76.3698 Y4.9007 
G01 X-76.3120 Y4.7230 
G01 X-76.2828 Y4.5384 
G01 X-76.2828 Y4.3516 
G01 X-76.3120 Y4.1670 
G01 X-76.3698 Y3.9893 
G01 X-76.4546 Y3.8228 
G01 X-76.5645 Y3.6716 
G01 X-76.6966 Y3.5395 
G01 X-76.8478 Y3.4296 
G01 X-76.9940 Y3.3551 
G01 X-76.9940 Y3.0160 
G01 X-52.0122 Y3.0160 
G01 X-48.4810 Y6.5472 
G01 X-48.4810 Y28.0027 
G01 X-48.4486 Y28.1237 
G01 X-48.3859 Y28.2323 
G01 X-48.2973 Y28.3209 
G01 X-47.0273 Y29.5909 
G01 X-46.9187 Y29.6536 
G01 X-46.7977 Y29.6860 
G01 X-46.5549 Y29.6860 
G01 X-46.4804 Y29.8322 
G01 X-46.3705 Y29.9834 
G01 X-46.2384 Y30.1155 
G01 X-46.0872 Y30.2254 
G01 X-45.9207 Y30.3102 
G01 X-45.7430 Y30.3680 
G01 X-45.5584 Y30.3972 
G01 X-45.3716 Y30.3972 
G01 X-45.1870 Y30.3680 
G01 X-45.0093 Y30.3102 
G01 X-44.8428 Y30.2254 
G01 X-44.6916 Y30.1155 
G01 X-44.5595 Y29.9834 
G01 X-44.4496 Y29.8322 
G01 X-44.3751 Y29.6860 
G01 X-39.5910 Y29.6860 
G01 X-39.5910 Y38.2801 
G01 X-39.7372 Y38.3546 
G01 X-39.8884 Y38.4645 
G01 X-40.0205 Y38.5966 
G01 X-40.1304 Y38.7478 
G01 X-40.2152 Y38.9143 
G01 X-40.2730 Y39.0920 
G01 X-40.3022 Y39.2766 
G01 X-40.3022 Y39.4634 
G01 X-40.2730 Y39.6480 
G01 X-40.2152 Y39.8257 
G01 X-40.1304 Y39.9922 
G01 X-40.0205 Y40.1434 
G01 X-39.8884 Y40.2755 
G01 X-39.7372 Y40.3854 
G01 X-39.5707 Y40.4702 
G01 X-39.3930 Y40.5280 
G01 X-39.2217 Y40.5551 
G01 X-38.9361 Y41.4120 
G01 X-38.9236 Y41.4587 
G01 X-38.9163 Y41.4713 
G01 X-38.9118 Y41.4850 
G01 X-38.8851 Y41.5254 
G01 X-38.8609 Y41.5673 
G01 X-38.8507 Y41.5775 
G01 X-38.8427 Y41.5896 
G01 X-38.8065 Y41.6217 
G01 X-38.1373 Y42.2909 
G01 X-38.0287 Y42.3536 
G01 X-37.9077 Y42.3860 
G01 X-25.5999 Y42.3860 
G01 X-25.5254 Y42.5322 
G01 X-25.4155 Y42.6834 
G01 X-25.2834 Y42.8155 
G01 X-25.1322 Y42.9254 
G01 X-24.9657 Y43.0102 
G01 X-24.7880 Y43.0680 
G01 X-24.6034 Y43.0972 
G01 X-24.4166 Y43.0972 
G01 X-24.2320 Y43.0680 
G01 X-24.0543 Y43.0102 
G01 X-23.8878 Y42.9254 
G01 X-23.7366 Y42.8155 
G01 X-23.6045 Y42.6834 
G01 X-23.4946 Y42.5322 
G01 X-23.4098 Y42.3657 
G01 X-23.3520 Y42.1880 
G01 X-23.3228 Y42.0034 
G01 X-23.3228 Y41.8166 
G01 X-23.3520 Y41.6320 
G01 X-23.4098 Y41.4543 
G01 X-23.4946 Y41.2878 
G01 X-23.6045 Y41.1366 
G01 X-23.7366 Y41.0045 
G01 X-23.8878 Y40.8946 
G01 X-24.0340 Y40.8201 
G01 X-24.0340 Y36.8759 
G01 X-24.0308 Y36.8595 
G01 X-24.0340 Y36.8134 
G01 X-24.0340 Y36.7673 
G01 X-24.0383 Y36.7511 
G01 X-24.0395 Y36.7344 
G01 X-24.0545 Y36.6908 
G01 X-24.0664 Y36.6463 
G01 X-24.0748 Y36.6318 
G01 X-24.0803 Y36.6159 
G01 X-24.1060 Y36.5777 
G01 X-24.1291 Y36.5377 
G01 X-24.1410 Y36.5259 
G01 X-24.1503 Y36.5120 
G01 X-24.1851 Y36.4817 
G01 X-24.2177 Y36.4491 
G01 X-24.2322 Y36.4407 
G01 X-26.2970 Y34.6447 
G01 X-26.2720 Y34.5680 
G01 X-26.2428 Y34.3834 
G01 X-26.2428 Y34.1966 
G01 X-26.2720 Y34.0120 
G01 X-26.3298 Y33.8343 
G01 X-26.4146 Y33.6678 
G01 X-26.5245 Y33.5166 
G01 X-26.6566 Y33.3845 
G01 X-26.8078 Y33.2746 
G01 X-26.9540 Y33.2001 
G01 X-26.9540 Y32.8399 
G01 X-26.8078 Y32.7654 
G01 X-26.6566 Y32.6555 
G01 X-26.5245 Y32.5234 
G01 X-26.4146 Y32.3722 
G01 X-26.3298 Y32.2057 
G01 X-26.2720 Y32.0280 
G01 X-26.2428 Y31.8434 
G01 X-26.2428 Y31.6566 
G01 X-26.2720 Y31.4720 
G01 X-26.3298 Y31.2943 
G01 X-26.4146 Y31.1278 
G01 X-26.5245 Y30.9766 
G01 X-26.6566 Y30.8445 
G01 X-26.8078 Y30.7346 
G01 X-26.9743 Y30.6498 
G01 X-27.1520 Y30.5920 
G01 X-27.3366 Y30.5628 
G01 X-27.5234 Y30.5628 
G01 X-27.7080 Y30.5920 
G01 X-27.8857 Y30.6498 
G01 X-28.0522 Y30.7346 
G01 X-28.2034 Y30.8445 
G01 X-28.3355 Y30.9766 
G01 X-28.4454 Y31.1278 
G01 X-28.5302 Y31.2943 
G01 X-28.5880 Y31.4720 
G01 X-28.6172 Y31.6566 
G01 X-28.6172 Y31.8434 
G01 X-28.5880 Y32.0280 
G01 X-28.5302 Y32.2057 
G01 X-28.4454 Y32.3722 
G01 X-28.3355 Y32.5234 
G01 X-28.2034 Y32.6555 
G01 X-28.0522 Y32.7654 
G01 X-27.9060 Y32.8399 
G01 X-27.9060 Y33.2001 
G01 X-28.0522 Y33.2746 
G01 X-28.2034 Y33.3845 
G01 X-28.3355 Y33.5166 
G01 X-28.4454 Y33.6678 
G01 X-28.5302 Y33.8343 
G01 X-28.5880 Y34.0120 
G01 X-28.6172 Y34.1966 
G01 X-28.6172 Y34.3834 
G01 X-28.5880 Y34.5680 
G01 X-28.5302 Y34.7457 
G01 X-28.4454 Y34.9122 
G01 X-28.3355 Y35.0634 
G01 X-28.2034 Y35.1955 
G01 X-28.0522 Y35.3054 
G01 X-27.8857 Y35.3902 
G01 X-27.7080 Y35.4480 
G01 X-27.5234 Y35.4772 
G01 X-27.3366 Y35.4772 
G01 X-27.1520 Y35.4480 
G01 X-26.9743 Y35.3902 
G01 X-26.9214 Y35.3633 
G01 X-24.9860 Y37.0468 
G01 X-24.9860 Y40.8201 
G01 X-25.1322 Y40.8946 
G01 X-25.2834 Y41.0045 
G01 X-25.4155 Y41.1366 
G01 X-25.5254 Y41.2878 
G01 X-25.5999 Y41.4340 
G01 X-37.6478 Y41.4340 
G01 X-38.0640 Y41.0179 
G01 X-38.3190 Y40.2529 
G01 X-38.2095 Y40.1434 
G01 X-38.0996 Y39.9922 
G01 X-38.0148 Y39.8257 
G01 X-37.9570 Y39.6480 
G01 X-37.9278 Y39.4634 
G01 X-37.9278 Y39.2766 
G01 X-37.9570 Y39.0920 
G01 X-38.0148 Y38.9143 
G01 X-38.0996 Y38.7478 
G01 X-38.2095 Y38.5966 
G01 X-38.3416 Y38.4645 
G01 X-38.4928 Y38.3546 
G01 X-38.6390 Y38.2801 
G01 X-38.6390 Y7.8172 
G01 X-37.6478 Y6.8260 
G01 X-23.8123 Y6.8260 
G01 X-23.6913 Y6.7936 
G01 X-23.5827 Y6.7309 
G01 X-23.4941 Y6.6423 
G01 X-19.8678 Y3.0160 
G01 X-15.8172 Y3.0160 
G01 X-14.8260 Y4.0072 
G01 X-14.8260 Y10.2227 
G01 X-14.7936 Y10.3437 
G01 X-14.7309 Y10.4523 
G01 X-14.6423 Y10.5409 
G01 X-13.3723 Y11.8109 
G01 X-13.2637 Y11.8736 
G01 X-13.1427 Y11.9060 
G01 X-12.8999 Y11.9060 
G01 X-12.8254 Y12.0522 
G00 Z2.5000 
G00 Z15.0000 
M05
M02
