(.../eagle/ulps/pcbgcode/pcb-gcode.ulp)
(Copyright 2005 - 2012 by John Johnson)
(See readme.txt for licensing terms.)
(This file generated from the board:)
(.../projects/Timing-Gate/gate-detector.brd)
(Current profile is .../pcbgcode/profiles/generic.pp  )
(This file generated 01/02/2020 14:51)
(Settings from pcb-machine.h)
(  Tool Size)
(0.1500 )
(Z Axis Settings)
(  High     Up        Down     Drill)
(15.0000 	2.5000 	-0.1000 	-2.5000 )
(spindle on time = 3.0000)
(milling depth = -0.2540)
(text depth = -0.1270)
(tool change at 0.0000 0.0000 45.0000 )
(feed rate xy = F400.00 )
(feed rate z  = F254.00 )
(Settings from pcb-defaults.h)
(isolate min = 0.0200)
(isolate max = 0.2500)
(isolate step = 0.1200)
(Generated bottom outlines, bottom drill, )
(Unit of measure: mm)
( Tool|       Size       |  Min Sub |  Max Sub |   Count )
( T01  1.000mm 0.0394in 0.0000in 0.0000in )
(Metric Mode)
G21
(Absolute Coordinates)
G90
M05
G00 Z45.0000 
G00 X0.0000 Y0.0000 
M06 T01  ; 1.0000 
G01 Z0.0000 F254.00 
M06 T01  ; 1.0000 
G00 Z2.5000 
M03
G04 P3.000000
G00 Z2.500000
G00 X-31.4950 Y39.3700 
G01 Z-2.5000 F254.00 
G01 Z2.500000
(R2.5000  P1.000000)
(G00 Z2.500000)
G00 X-34.0350 Y39.3700 
G01 Z-2.500000
G01 Z2.500000
(G00 Z2.500000)
G00 X-36.5750 Y39.3700 
G01 Z-2.500000
G01 Z2.500000
(G00 Z2.500000)
G00 X-39.1150 Y39.3700 
G01 Z-2.500000
G01 Z2.500000
(G00 Z2.500000)
G00 X-41.6550 Y39.3700 
G01 Z-2.500000
G01 Z2.500000
(G00 Z2.500000)
G00 X-44.1950 Y39.3700 
G01 Z-2.500000
G01 Z2.500000
(G00 Z2.500000)
G00 X-45.4650 Y31.7500 
G01 Z-2.500000
G01 Z2.500000
(G00 Z2.500000)
G00 X-45.4650 Y34.2900 
G01 Z-2.500000
G01 Z2.500000
(G00 Z2.500000)
G00 X-45.4650 Y36.8300 
G01 Z-2.500000
G01 Z2.500000
(G00 Z2.500000)
G00 X-45.4650 Y8.8900 
G01 Z-2.500000
G01 Z2.500000
(G00 Z2.500000)
G00 X-45.4650 Y11.4300 
G01 Z-2.500000
G01 Z2.500000
(G00 Z2.500000)
G00 X-45.4650 Y13.9700 
G01 Z-2.500000
G01 Z2.500000
(G00 Z2.500000)
G00 X-45.4650 Y16.5100 
G01 Z-2.500000
G01 Z2.500000
(G00 Z2.500000)
G00 X-45.4650 Y19.0500 
G01 Z-2.500000
G01 Z2.500000
(G00 Z2.500000)
G00 X-45.4650 Y21.5900 
G01 Z-2.500000
G01 Z2.500000
(G00 Z2.500000)
G00 X-45.4650 Y24.1300 
G01 Z-2.500000
G01 Z2.500000
(G00 Z2.500000)
G00 X-45.4650 Y26.6700 
G01 Z-2.500000
G01 Z2.500000
(G00 Z2.500000)
G00 X-45.4650 Y29.2100 
G01 Z-2.500000
G01 Z2.500000
(G00 Z2.500000)
G00 X-59.4350 Y42.5450 
G01 Z-2.500000
G01 Z2.500000
(G00 Z2.500000)
G00 X-59.4350 Y19.6850 
G01 Z-2.500000
G01 Z2.500000
(G00 Z2.500000)
G00 X-60.0700 Y10.7950 
G01 Z-2.500000
G01 Z2.500000
(G00 Z2.500000)
G00 X-62.6100 Y42.5450 
G01 Z-2.500000
G01 Z2.500000
(G00 Z2.500000)
G00 X-62.6100 Y10.7950 
G01 Z-2.500000
G01 Z2.500000
(G00 Z2.500000)
G00 X-65.1500 Y10.7950 
G01 Z-2.500000
G01 Z2.500000
(G00 Z2.500000)
G00 X-70.2300 Y42.5450 
G01 Z-2.500000
G01 Z2.500000
(G00 Z2.500000)
G00 X-72.3900 Y4.4450 
G01 Z-2.500000
G01 Z2.500000
(G00 Z2.500000)
G00 X-72.3900 Y6.9850 
G01 Z-2.500000
G01 Z2.500000
(G00 Z2.500000)
G00 X-73.4050 Y42.5450 
G01 Z-2.500000
G01 Z2.500000
(G00 Z2.500000)
G00 X-73.4050 Y19.6850 
G01 Z-2.500000
G01 Z2.500000
(G00 Z2.500000)
G00 X-74.9300 Y4.4450 
G01 Z-2.500000
G01 Z2.500000
(G00 Z2.500000)
G00 X-74.9300 Y6.9850 
G01 Z-2.500000
G01 Z2.500000
(G00 Z2.500000)
G00 X-77.4700 Y4.4450 
G01 Z-2.500000
G01 Z2.500000
(G00 Z2.500000)
G00 X-77.4700 Y6.9850 
G01 Z-2.500000
G01 Z2.500000
(G00 Z2.500000)
G00 X-78.4850 Y36.8300 
G01 Z-2.500000
G01 Z2.500000
(G00 Z2.500000)
G00 X-81.0250 Y36.8300 
G01 Z-2.500000
G01 Z2.500000
(G00 Z2.500000)
G00 X-86.1050 Y31.7500 
G01 Z-2.500000
G01 Z2.500000
(G00 Z2.500000)
G00 X-86.1050 Y41.9100 
G01 Z-2.500000
G01 Z2.500000
(G00 Z2.500000)
G00 X-86.1050 Y8.8900 
G01 Z-2.500000
G01 Z2.500000
(G00 Z2.500000)
G00 X-86.1050 Y11.4300 
G01 Z-2.500000
G01 Z2.500000
(G00 Z2.500000)
G00 X-11.4300 Y31.7500 
G01 Z-2.500000
G01 Z2.500000
(G00 Z2.500000)
G00 X-11.4300 Y34.2900 
G01 Z-2.500000
G01 Z2.500000
(G00 Z2.500000)
G00 X-11.4300 Y21.5900 
G01 Z-2.500000
G01 Z2.500000
(G00 Z2.500000)
G00 X-11.4300 Y24.1300 
G01 Z-2.500000
G01 Z2.500000
(G00 Z2.500000)
G00 X-11.4300 Y26.6700 
G01 Z-2.500000
G01 Z2.500000
(G00 Z2.500000)
G00 X-11.4300 Y29.2100 
G01 Z-2.500000
G01 Z2.500000
(G00 Z2.500000)
G00 X-11.4500 Y37.4150 
G01 Z-2.500000
G01 Z2.500000
(G00 Z2.500000)
G00 X-11.8100 Y8.8900 
G01 Z-2.500000
G01 Z2.500000
(G00 Z2.500000)
G00 X-11.8100 Y11.4300 
G01 Z-2.500000
G01 Z2.500000
(G00 Z2.500000)
G00 X-14.3500 Y41.9100 
G01 Z-2.500000
G01 Z2.500000
(G00 Z2.500000)
G00 X-16.8900 Y4.4450 
G01 Z-2.500000
G01 Z2.500000
(G00 Z2.500000)
G00 X-16.8900 Y8.8900 
G01 Z-2.500000
G01 Z2.500000
(G00 Z2.500000)
G00 X-16.8900 Y11.4300 
G01 Z-2.500000
G01 Z2.500000
(G00 Z2.500000)
G00 X-16.8900 Y13.9700 
G01 Z-2.500000
G01 Z2.500000
(G00 Z2.500000)
G00 X-16.8900 Y16.5100 
G01 Z-2.500000
G01 Z2.500000
(G00 Z2.500000)
G00 X-24.5100 Y41.9100 
G01 Z-2.500000
G01 Z2.500000
(G00 Z2.500000)
G00 X-27.0500 Y4.4450 
G01 Z-2.500000
G01 Z2.500000
(G00 Z2.500000)
G00 X-27.0500 Y8.8900 
G01 Z-2.500000
G01 Z2.500000
(G00 Z2.500000)
G00 X-27.0500 Y11.4300 
G01 Z-2.500000
G01 Z2.500000
(G00 Z2.500000)
G00 X-27.0500 Y13.9700 
G01 Z-2.500000
G01 Z2.500000
(G00 Z2.500000)
G00 X-27.0500 Y16.5100 
G01 Z-2.500000
G01 Z2.500000
(G00 Z2.500000)
G00 X-27.4300 Y31.7500 
G01 Z-2.500000
G01 Z2.500000
(G00 Z2.500000)
G00 X-27.4300 Y34.2900 
G01 Z-2.500000
G01 Z2.500000
(G00 Z2.500000)
G00 X-27.4300 Y21.5900 
G01 Z-2.500000
G01 Z2.500000
(G00 Z2.500000)
G00 X-27.4300 Y24.1300 
G01 Z-2.500000
G01 Z2.500000
(G00 Z2.500000)
G00 X-27.4300 Y26.6700 
G01 Z-2.500000
G01 Z2.500000
(G00 Z2.500000)
G00 X-27.4300 Y29.2100 
G01 Z-2.500000
G01 Z2.500000
(G00 Z2.500000)
G00 X-30.2250 Y31.7500 
G01 Z-2.500000
G01 Z2.500000
(G00 Z2.500000)
G00 X-30.2250 Y34.2900 
G01 Z-2.500000
G01 Z2.500000
(G00 Z2.500000)
G00 X-30.2250 Y36.8300 
G01 Z-2.500000
G01 Z2.500000
(G00 Z2.500000)
G00 X-30.2250 Y8.8900 
G01 Z-2.500000
G01 Z2.500000
(G00 Z2.500000)
G00 X-30.2250 Y11.4300 
G01 Z-2.500000
G01 Z2.500000
(G00 Z2.500000)
G00 X-30.2250 Y13.9700 
G01 Z-2.500000
G01 Z2.500000
(G00 Z2.500000)
G00 X-30.2250 Y16.5100 
G01 Z-2.500000
G01 Z2.500000
(G00 Z2.500000)
G00 X-30.2250 Y19.0500 
G01 Z-2.500000
G01 Z2.500000
(G00 Z2.500000)
G00 X-30.2250 Y21.5900 
G01 Z-2.500000
G01 Z2.500000
(G00 Z2.500000)
G00 X-30.2250 Y24.1300 
G01 Z-2.500000
G01 Z2.500000
(G00 Z2.500000)
G00 X-30.2250 Y26.6700 
G01 Z-2.500000
G01 Z2.500000
(G00 Z2.500000)
G00 X-30.2250 Y29.2100 
G01 Z-2.500000
G01 Z2.500000
T01 
G00 Z15.0000 
M05
M02
