(Project gate-detector-mirrored)
(Created by Estlcam version 11 build 11.119)
(Machining time about 00:04:45 hours)

(Required tools:)
(PCB BURR 2.4mm)

M03 S10000
G00 Z5.0000


(No. 1 Part: Part 2)
G00 X-90.2000 Y0.0000
G00 Z0.5000
G01 Z-0.5000 F400 S10000
G01 X-90.1940 Y-0.1198
G03 X-88.9800 Y-1.2000 I1.1943 J0.1200
G01 X-8.0000
G03 X-6.8000 Y0.0200 I-0.0001 J1.2003
G01 Y14.8000
G01 X0.0000
G03 X1.2000 Y16.0200 I-0.0001 J1.2003
G01 Y32.0000
G03 X-0.0200 Y33.2000 I-1.2003 J-0.0001
G01 X-6.8000
G01 Y48.0000
G03 X-8.0200 Y49.2000 I-1.2003 J-0.0001
G01 X-51.5000
G03 X-52.6970 Y48.0849 I0.0000 J-1.2000
G01 X-52.7000 Y47.9800
G01 Y16.6200
G02 X-53.2946 Y16.5399 I-0.2977 J-0.0373
G01 X-53.3000 Y16.6186
G01 Y48.0000
G03 X-54.5200 Y49.2000 I-1.2003 J-0.0001
G01 X-89.0000
G03 X-90.1970 Y48.0849 I0.0000 J-1.2000
G01 X-90.2000 Y47.9800
G01 Y33.2000
G01 X-97.0000
G03 X-98.1970 Y32.0849 I0.0000 J-1.2000
G01 X-98.2000 Y31.9800
G01 Y16.0000
G01 X-98.1940 Y15.8802
G03 X-96.9800 Y14.8000 I1.1943 J0.1200
G01 X-90.2000
G01 Y0.0000
G01 Z-1.0000
G01 X-90.1940 Y-0.1198
G03 X-88.9800 Y-1.2000 I1.1943 J0.1200
G01 X-8.0000
G03 X-6.8000 Y0.0200 I-0.0001 J1.2003
G01 Y14.8000
G01 X0.0000
G03 X1.2000 Y16.0200 I-0.0001 J1.2003
G01 Y32.0000
G03 X-0.0200 Y33.2000 I-1.2003 J-0.0001
G01 X-6.8000
G01 Y48.0000
G03 X-8.0200 Y49.2000 I-1.2003 J-0.0001
G01 X-51.5000
G03 X-52.6970 Y48.0849 I0.0000 J-1.2000
G01 X-52.7000 Y47.9800
G01 Y16.6200
G02 X-53.2946 Y16.5399 I-0.2977 J-0.0373
G01 X-53.3000 Y16.6186
G01 Y48.0000
G03 X-54.5200 Y49.2000 I-1.2003 J-0.0001
G01 X-89.0000
G03 X-90.1970 Y48.0849 I0.0000 J-1.2000
G01 X-90.2000 Y47.9800
G01 Y33.2000
G01 X-97.0000
G03 X-98.1970 Y32.0849 I0.0000 J-1.2000
G01 X-98.2000 Y31.9800
G01 Y16.0000
G01 X-98.1940 Y15.8802
G03 X-96.9800 Y14.8000 I1.1943 J0.1200
G01 X-90.2000
G01 Y0.0000
G01 Z-1.5000
G01 X-90.1940 Y-0.1198
G03 X-88.9800 Y-1.2000 I1.1943 J0.1200
G01 X-8.0000
G03 X-6.8000 Y0.0200 I-0.0001 J1.2003
G01 Y14.8000
G01 X0.0000
G03 X1.2000 Y16.0200 I-0.0001 J1.2003
G01 Y32.0000
G03 X-0.0200 Y33.2000 I-1.2003 J-0.0001
G01 X-6.8000
G01 Y48.0000
G03 X-8.0200 Y49.2000 I-1.2003 J-0.0001
G01 X-51.5000
G03 X-52.6970 Y48.0849 I0.0000 J-1.2000
G01 X-52.7000 Y47.9800
G01 Y16.6200
G02 X-53.2946 Y16.5399 I-0.2977 J-0.0373
G01 X-53.3000 Y16.6186
G01 Y48.0000
G03 X-54.5200 Y49.2000 I-1.2003 J-0.0001
G01 X-89.0000
G03 X-90.1970 Y48.0849 I0.0000 J-1.2000
G01 X-90.2000 Y47.9800
G01 Y33.2000
G01 X-97.0000
G03 X-98.1970 Y32.0849 I0.0000 J-1.2000
G01 X-98.2000 Y31.9800
G01 Y16.0000
G01 X-98.1940 Y15.8802
G03 X-96.9800 Y14.8000 I1.1943 J0.1200
G01 X-90.2000
G01 Y0.0000
G01 Z-2.0000
G01 X-90.1940 Y-0.1198
G03 X-88.9800 Y-1.2000 I1.1943 J0.1200
G01 X-8.0000
G03 X-6.8000 Y0.0200 I-0.0001 J1.2003
G01 Y14.8000
G01 X0.0000
G03 X1.2000 Y16.0200 I-0.0001 J1.2003
G01 Y32.0000
G03 X-0.0200 Y33.2000 I-1.2003 J-0.0001
G01 X-6.8000
G01 Y48.0000
G03 X-8.0200 Y49.2000 I-1.2003 J-0.0001
G01 X-51.5000
G03 X-52.6970 Y48.0849 I0.0000 J-1.2000
G01 X-52.7000 Y47.9800
G01 Y16.6200
G02 X-53.2946 Y16.5399 I-0.2977 J-0.0373
G01 X-53.3000 Y16.6186
G01 Y48.0000
G03 X-54.5200 Y49.2000 I-1.2003 J-0.0001
G01 X-89.0000
G03 X-90.1970 Y48.0849 I0.0000 J-1.2000
G01 X-90.2000 Y47.9800
G01 Y33.2000
G01 X-97.0000
G03 X-98.1970 Y32.0849 I0.0000 J-1.2000
G01 X-98.2000 Y31.9800
G01 Y16.0000
G01 X-98.1940 Y15.8802
G03 X-96.9800 Y14.8000 I1.1943 J0.1200
G01 X-90.2000
G01 Y0.0000
G01 Z-2.5000
G01 X-90.1940 Y-0.1198
G03 X-88.9800 Y-1.2000 I1.1943 J0.1200
G01 X-8.0000
G03 X-6.8000 Y0.0200 I-0.0001 J1.2003
G01 Y14.8000
G01 X0.0000
G03 X1.2000 Y16.0200 I-0.0001 J1.2003
G01 Y32.0000
G03 X-0.0200 Y33.2000 I-1.2003 J-0.0001
G01 X-6.8000
G01 Y48.0000
G03 X-8.0200 Y49.2000 I-1.2003 J-0.0001
G01 X-51.5000
G03 X-52.6970 Y48.0849 I0.0000 J-1.2000
G01 X-52.7000 Y47.9800
G01 Y16.6200
G02 X-53.2946 Y16.5399 I-0.2977 J-0.0373
G01 X-53.3000 Y16.6186
G01 Y48.0000
G03 X-54.5200 Y49.2000 I-1.2003 J-0.0001
G01 X-89.0000
G03 X-90.1970 Y48.0849 I0.0000 J-1.2000
G01 X-90.2000 Y47.9800
G01 Y33.2000
G01 X-97.0000
G03 X-98.1970 Y32.0849 I0.0000 J-1.2000
G01 X-98.2000 Y31.9800
G01 Y16.0000
G01 X-98.1940 Y15.8802
G03 X-96.9800 Y14.8000 I1.1943 J0.1200
G01 X-90.2000
G01 Y0.0000
G00 Z5.0000
G00 X0.0000

M05
